(G-CODE GENERATED BY FLATCAM v8.992 - www.flatcam.org - Version Date: 2020/05/03)

(Name: Sprinkler-PTH.drl_cnc)
(Type: G-code from Excellon)
(Units: MM)

(Created on Friday, 22 May 2020 at 17:50)

(This preprocessor is the default preprocessor used by FlatCAM.)
(It is made to work with MACH3 compatible motion controllers.)


(TOOLS DIAMETER: )
(Tool: 1 -> Dia: 1.0)

(FEEDRATE Z: )
(Tool: 1 -> Feedrate: 150.0)

(FEEDRATE RAPIDS: )
(Tool: 1 -> Feedrate Rapids: 1500)

(Z_CUT: )
(Tool: 1 -> Z_Cut: -1.5)

(Tools Offset: )
(Tool: 1 -> Offset Z: -0.0)

(Z_MOVE: )
(Tool: 1 -> Z_Move: 3.0)

(Z Start: None mm)
(Z End: 2.0 mm)
(Steps per circle: 64)
(Preprocessor Excellon: default)

(X range:    2.5001 ...   54.3601  mm)
(Y range:    2.5001 ...   27.1741  mm)

(Spindle Speed: None RPM)
G21
G90
G94



G00 Z3.0000

G01 F150.00
M03
G00 X8.3801 Y18.0001
G01 Z-1.5000
G01 Z0
G00 Z3.0000
G00 X10.9201 Y18.0001
G01 Z-1.5000
G01 Z0
G00 Z3.0000
G00 X13.4601 Y18.0001
G01 Z-1.5000
G01 Z0
G00 Z3.0000
G00 X16.0001 Y18.0001
G01 Z-1.5000
G01 Z0
G00 Z3.0000
G00 X31.0001 Y16.5141
G01 Z-1.5000
G01 Z0
G00 Z3.0000
G00 X31.0001 Y19.0541
G01 Z-1.5000
G01 Z0
G00 Z3.0000
G00 X31.0001 Y21.5941
G01 Z-1.5000
G01 Z0
G00 Z3.0000
G00 X31.0001 Y24.1341
G01 Z-1.5000
G01 Z0
G00 Z3.0000
G00 X31.0001 Y26.6741
G01 Z-1.5000
G01 Z0
G00 Z3.0000
G00 X53.8601 Y26.6741
G01 Z-1.5000
G01 Z0
G00 Z3.0000
G00 X53.8601 Y24.1341
G01 Z-1.5000
G01 Z0
G00 Z3.0000
G00 X53.8601 Y21.5941
G01 Z-1.5000
G01 Z0
G00 Z3.0000
G00 X53.8601 Y19.0541
G01 Z-1.5000
G01 Z0
G00 Z3.0000
G00 X53.8601 Y16.5141
G01 Z-1.5000
G01 Z0
G00 Z3.0000
G00 X53.8601 Y13.9741
G01 Z-1.5000
G01 Z0
G00 Z3.0000
G00 X53.8601 Y11.4341
G01 Z-1.5000
G01 Z0
G00 Z3.0000
G00 X53.8601 Y8.8941
G01 Z-1.5000
G01 Z0
G00 Z3.0000
G00 X31.0001 Y13.9741
G01 Z-1.5000
G01 Z0
G00 Z3.0000
G00 X31.0001 Y11.4341
G01 Z-1.5000
G01 Z0
G00 Z3.0000
G00 X31.0001 Y8.8941
G01 Z-1.5000
G01 Z0
G00 Z3.0000
G00 X16.1201 Y5.5001
G01 Z-1.5000
G01 Z0
G00 Z3.0000
G00 X13.5801 Y5.5001
G01 Z-1.5000
G01 Z0
G00 Z3.0000
G00 X11.0401 Y5.5001
G01 Z-1.5000
G01 Z0
G00 Z3.0000
G00 X8.5001 Y5.5001
G01 Z-1.5000
G01 Z0
G00 Z3.0000
G00 X3.0001 Y3.0001
G01 Z-1.5000
G01 Z0
G00 Z3.0000
G00 X3.0001 Y5.5401
G01 Z-1.5000
G01 Z0
G00 Z3.0000
M05
G00 Z2.00
G00 X0.0 Y0.0

