(G-CODE GENERATED BY FLATCAM v8.992 - www.flatcam.org - Version Date: 2020/05/03)

(Name: Sprinkler-B_Cu.gbr_iso_cnc)
(Type: G-code from Geometry)
(Units: MM)

(Created on Friday, 22 May 2020 at 17:50)

(This preprocessor is the default preprocessor used by FlatCAM.)
(It is made to work with MACH3 compatible motion controllers.)

(TOOL DIAMETER: 0.5 mm)
(Feedrate_XY: 120.0 mm/min)
(Feedrate_Z: 60.0 mm/min)
(Feedrate rapids 1500.0 mm/min)

(Z_Cut: -0.1 mm)
(Z_Move: 3.0 mm)
(Z Start: None mm)
(Z End: 5.0 mm)
(Steps per circle: 64)
(Preprocessor Geometry: default)

(X range:   -0.2500 ...   58.2501  mm)
(Y range:   -0.2500 ...   32.2501  mm)

(Spindle Speed: None RPM)
G21
G90
G94



G01 F120.00
G00 Z3.0000

M03
G00 X-0.2500 Y0.1271
G01 F60.00
G01 Z-0.1000
G01 F120.00
G01 X-0.2497 Y0.1148
G01 X-0.2482 Y0.0901
G01 X-0.2449 Y0.0656
G01 X-0.2428 Y0.0535
G01 X-0.2401 Y0.0415
G01 X-0.2338 Y0.0176
G01 X-0.2257 Y-0.0058
G01 X-0.2213 Y-0.0172
G01 X-0.2163 Y-0.0285
G01 X-0.2055 Y-0.0507
G01 X-0.1994 Y-0.0614
G01 X-0.1865 Y-0.0824
G01 X-0.1720 Y-0.1025
G01 X-0.1644 Y-0.1121
G01 X-0.1564 Y-0.1214
G01 X-0.1396 Y-0.1396
G01 X-0.1307 Y-0.1480
G01 X-0.1121 Y-0.1644
G01 X-0.0925 Y-0.1794
G01 X-0.0824 Y-0.1865
G01 X-0.0721 Y-0.1930
G01 X-0.0507 Y-0.2055
G01 X-0.0285 Y-0.2163
G01 X-0.0172 Y-0.2213
G01 X-0.0058 Y-0.2257
G01 X0.0176 Y-0.2338
G01 X0.0294 Y-0.2370
G01 X0.0535 Y-0.2428
G01 X0.0779 Y-0.2467
G01 X0.0901 Y-0.2482
G01 X0.1148 Y-0.2497
G01 X0.1271 Y-0.2500
G01 X57.8731 Y-0.2500
G01 X57.8978 Y-0.2491
G01 X57.9161 Y-0.2475
G01 X57.9406 Y-0.2439
G01 X57.9586 Y-0.2401
G01 X57.9825 Y-0.2338
G01 X58.0117 Y-0.2236
G01 X58.0286 Y-0.2163
G01 X58.0508 Y-0.2055
G01 X58.0774 Y-0.1898
G01 X58.0926 Y-0.1794
G01 X58.1123 Y-0.1644
G01 X58.1353 Y-0.1438
G01 X58.1481 Y-0.1307
G01 X58.1606 Y-0.1168
G01 X58.1684 Y-0.1074
G01 X58.1866 Y-0.0824
G01 X58.1996 Y-0.0614
G01 X58.2084 Y-0.0452
G01 X58.2214 Y-0.0172
G01 X58.2300 Y0.0060
G01 X58.2356 Y0.0235
G01 X58.2429 Y0.0535
G01 X58.2468 Y0.0779
G01 X58.2488 Y0.0962
G01 X58.2501 Y0.1271
G01 X58.2501 Y31.8731
G01 X58.2492 Y31.8978
G01 X58.2476 Y31.9161
G01 X58.2440 Y31.9406
G01 X58.2402 Y31.9586
G01 X58.2339 Y31.9825
G01 X58.2237 Y32.0117
G01 X58.2165 Y32.0286
G01 X58.2056 Y32.0508
G01 X58.1899 Y32.0774
G01 X58.1795 Y32.0926
G01 X58.1645 Y32.1123
G01 X58.1440 Y32.1353
G01 X58.1308 Y32.1481
G01 X58.1170 Y32.1606
G01 X58.1075 Y32.1684
G01 X58.0825 Y32.1866
G01 X58.0615 Y32.1996
G01 X58.0454 Y32.2084
G01 X58.0174 Y32.2214
G01 X57.9942 Y32.2300
G01 X57.9766 Y32.2356
G01 X57.9466 Y32.2429
G01 X57.9222 Y32.2468
G01 X57.9039 Y32.2488
G01 X57.8731 Y32.2501
G01 X7.3683 Y32.2501
G01 X7.3561 Y32.2498
G01 X7.3317 Y32.2484
G01 X7.3075 Y32.2451
G01 X7.2955 Y32.2430
G01 X7.2837 Y32.2404
G01 X7.2600 Y32.2342
G01 X7.2368 Y32.2264
G01 X7.2199 Y32.2197
G01 X7.1977 Y32.2093
G01 X7.1870 Y32.2037
G01 X7.1659 Y32.1912
G01 X7.1558 Y32.1845
G01 X7.1360 Y32.1701
G01 X7.1266 Y32.1625
G01 X7.1083 Y32.1462
G01 X7.0997 Y32.1377
G01 X7.0906 Y32.1279
G01 X0.1336 Y32.2479
G01 X0.1086 Y32.2474
G01 X0.0900 Y32.2461
G01 X0.0591 Y32.2417
G01 X0.0347 Y32.2363
G01 X0.0167 Y32.2314
G01 X-0.0127 Y32.2211
G01 X-0.0356 Y32.2109
G01 X-0.0522 Y32.2026
G01 X-0.0790 Y32.1866
G01 X-0.0995 Y32.1722
G01 X-0.1141 Y32.1607
G01 X-0.1373 Y32.1398
G01 X-0.1544 Y32.1216
G01 X-0.1665 Y32.1074
G01 X-0.1851 Y32.0824
G01 X-0.1983 Y32.0611
G01 X-0.2074 Y32.0449
G01 X-0.2207 Y32.0167
G01 X-0.2295 Y31.9932
G01 X-0.2352 Y31.9755
G01 X-0.2426 Y31.9452
G01 X-0.2466 Y31.9205
G01 X-0.2487 Y31.9020
G01 X-0.2500 Y31.8709
G01 X-0.2500 Y0.1271
G00 Z3.0000
G00 X1.8909 Y2.4960
G01 F60.00
G01 Z-0.1000
G01 F120.00
G01 X1.8892 Y2.1676
G01 X1.8959 Y2.0995
G01 X1.9106 Y2.0509
G01 X1.9346 Y2.0061
G01 X1.9668 Y1.9668
G01 X2.0061 Y1.9346
G01 X2.0509 Y1.9106
G01 X2.0995 Y1.8959
G01 X2.1676 Y1.8892
G01 X2.4960 Y1.8909
G01 X2.4960 Y1.9001
G01 X2.1501 Y1.9001
G01 X2.1317 Y1.9007
G01 X2.1134 Y1.9028
G01 X2.0953 Y1.9061
G01 X2.0775 Y1.9108
G01 X2.0601 Y1.9168
G01 X2.0488 Y1.9215
G01 X2.0377 Y1.9268
G01 X2.0268 Y1.9325
G01 X2.0163 Y1.9389
G01 X2.0011 Y1.9493
G01 X1.9868 Y1.9608
G01 X1.9733 Y1.9733
G01 X1.9608 Y1.9868
G01 X1.9530 Y1.9963
G01 X1.9457 Y2.0061
G01 X1.9356 Y2.0215
G01 X1.9268 Y2.0377
G01 X1.9191 Y2.0544
G01 X1.9147 Y2.0658
G01 X1.9108 Y2.0775
G01 X1.9061 Y2.0953
G01 X1.9028 Y2.1134
G01 X1.9007 Y2.1317
G01 X1.9001 Y2.1501
G01 X1.9001 Y2.4960
G01 X1.8909 Y2.4960
G00 Z3.0000
G00 X1.8909 Y3.5041
G01 F60.00
G01 Z-0.1000
G01 F120.00
G01 X1.9001 Y3.5041
G01 X1.9001 Y3.8562
G01 X1.9013 Y3.8746
G01 X1.9037 Y3.8928
G01 X1.9076 Y3.9108
G01 X1.9127 Y3.9285
G01 X1.9191 Y3.9457
G01 X1.9241 Y3.9570
G01 X1.9325 Y3.9733
G01 X1.9389 Y3.9838
G01 X1.9457 Y3.9940
G01 X1.9568 Y4.0087
G01 X1.9690 Y4.0224
G01 X1.9777 Y4.0311
G01 X1.9868 Y4.0394
G01 X2.0011 Y4.0509
G01 X2.0112 Y4.0579
G01 X2.0215 Y4.0645
G01 X2.0377 Y4.0734
G01 X2.0488 Y4.0786
G01 X2.0658 Y4.0854
G01 X2.0775 Y4.0893
G01 X2.0953 Y4.0940
G01 X2.1134 Y4.0974
G01 X2.1317 Y4.0994
G01 X2.1501 Y4.1001
G01 X3.8501 Y4.1001
G01 X3.8685 Y4.0994
G01 X3.8807 Y4.0982
G01 X3.8988 Y4.0953
G01 X3.9167 Y4.0910
G01 X3.9343 Y4.0854
G01 X3.9514 Y4.0786
G01 X3.9679 Y4.0705
G01 X3.9838 Y4.0613
G01 X3.9990 Y4.0509
G01 X4.0134 Y4.0394
G01 X4.0268 Y4.0268
G01 X4.0394 Y4.0134
G01 X4.0509 Y3.9990
G01 X4.0613 Y3.9838
G01 X4.0705 Y3.9679
G01 X4.0786 Y3.9514
G01 X4.0854 Y3.9343
G01 X4.0893 Y3.9226
G01 X4.0926 Y3.9108
G01 X4.0964 Y3.8928
G01 X4.0982 Y3.8807
G01 X4.0994 Y3.8685
G01 X4.1001 Y3.8501
G01 X4.1001 Y3.5041
G01 X4.1092 Y3.5041
G01 X4.1110 Y3.8326
G01 X4.1043 Y3.9006
G01 X4.0895 Y3.9492
G01 X4.0656 Y3.9941
G01 X4.0333 Y4.0333
G01 X3.9941 Y4.0656
G01 X3.9492 Y4.0895
G01 X3.9064 Y4.1026
G01 X3.8831 Y4.1109
G01 X3.8717 Y4.1156
G01 X3.8549 Y4.1235
G01 X3.8439 Y4.1290
G01 X3.8333 Y4.1351
G01 X3.8173 Y4.1447
G01 X3.8071 Y4.1515
G01 X3.7825 Y4.1701
G01 X3.7639 Y4.1865
G01 X3.7551 Y4.1950
G01 X3.7342 Y4.2177
G01 X3.7264 Y4.2272
G01 X3.7116 Y4.2470
G01 X3.7048 Y4.2572
G01 X3.6952 Y4.2732
G01 X3.6863 Y4.2893
G01 X3.6783 Y4.3061
G01 X3.6733 Y4.3173
G01 X3.6689 Y4.3287
G01 X3.6627 Y4.3463
G01 X3.6591 Y4.3580
G01 X3.6531 Y4.3820
G01 X3.6507 Y4.3940
G01 X3.6464 Y4.4246
G01 X3.6449 Y4.4493
G01 X3.6446 Y4.4616
G01 X3.6459 Y4.4924
G01 X3.6479 Y4.5107
G01 X3.6519 Y4.5351
G01 X3.6591 Y4.5651
G01 X3.6627 Y4.5769
G01 X3.6689 Y4.5944
G01 X3.6757 Y4.6115
G01 X3.6891 Y4.6393
G01 X3.7016 Y4.6607
G01 X3.7116 Y4.6761
G01 X3.7264 Y4.6960
G01 X3.7342 Y4.7055
G01 X3.7466 Y4.7193
G01 X3.7551 Y4.7282
G01 X3.8607 Y4.8338
G01 X3.9819 Y5.0153
G01 X4.0654 Y5.2169
G01 X4.1080 Y5.4309
G01 X4.1080 Y5.6492
G01 X4.0654 Y5.8632
G01 X4.0367 Y5.9326
G01 X4.0323 Y5.9440
G01 X4.0242 Y5.9674
G01 X4.0165 Y5.9973
G01 X4.0131 Y6.0154
G01 X4.0098 Y6.0399
G01 X4.0083 Y6.0646
G01 X4.0080 Y6.0769
G01 X4.0080 Y17.4646
G01 X4.0088 Y17.4878
G01 X4.0102 Y17.5051
G01 X4.0134 Y17.5281
G01 X4.0168 Y17.5451
G01 X4.0223 Y17.5676
G01 X4.0295 Y17.5897
G01 X4.0355 Y17.6059
G01 X4.0449 Y17.6272
G01 X4.0500 Y17.6375
G01 X4.0584 Y17.6528
G01 X4.0643 Y17.6628
G01 X4.0706 Y17.6724
G01 X4.0805 Y17.6868
G01 X4.0874 Y17.6960
G01 X4.1061 Y17.7183
G01 X13.3337 Y27.8687
G01 X13.3427 Y27.8781
G01 X13.3616 Y27.8963
G01 X13.3870 Y27.9170
G01 X13.3975 Y27.9246
G01 X13.4141 Y27.9354
G01 X13.4252 Y27.9422
G01 X13.4366 Y27.9483
G01 X13.4543 Y27.9572
G01 X13.4662 Y27.9624
G01 X13.4969 Y27.9739
G01 X13.5094 Y27.9776
G01 X13.5348 Y27.9840
G01 X13.5671 Y27.9893
G01 X13.5865 Y27.9911
G01 X13.6127 Y27.9921
G01 X14.8325 Y27.9921
G01 X14.8634 Y27.9908
G01 X14.8817 Y27.9888
G01 X14.9001 Y27.9860
G01 X14.9121 Y27.9836
G01 X14.9420 Y27.9759
G01 X14.9654 Y27.9678
G01 X14.9768 Y27.9634
G01 X14.9881 Y27.9585
G01 X15.0103 Y27.9476
G01 X15.0317 Y27.9351
G01 X15.0420 Y27.9286
G01 X15.0521 Y27.9215
G01 X15.0718 Y27.9065
G01 X15.0903 Y27.8901
G01 X15.0992 Y27.8817
G01 X15.1076 Y27.8728
G01 X15.1240 Y27.8543
G01 X15.1390 Y27.8346
G01 X15.1461 Y27.8245
G01 X15.1526 Y27.8142
G01 X15.1651 Y27.7928
G01 X15.1759 Y27.7706
G01 X15.1809 Y27.7594
G01 X15.1853 Y27.7479
G01 X15.1934 Y27.7245
G01 X15.1997 Y27.7006
G01 X15.2024 Y27.6886
G01 X15.2063 Y27.6642
G01 X15.2078 Y27.6520
G01 X15.2087 Y27.6398
G01 X15.2096 Y27.6151
G01 X15.2093 Y27.6028
G01 X15.2078 Y27.5781
G01 X15.2045 Y27.5536
G01 X15.2024 Y27.5415
G01 X15.1997 Y27.5295
G01 X15.1934 Y27.5056
G01 X15.1853 Y27.4822
G01 X15.1785 Y27.4651
G01 X15.1651 Y27.4373
G01 X15.1526 Y27.4159
G01 X15.1426 Y27.4005
G01 X15.1279 Y27.3806
G01 X15.1121 Y27.3614
G01 X15.0912 Y27.3387
G01 X7.7155 Y19.9630
G01 X7.6927 Y19.9421
G01 X7.6639 Y19.9183
G01 X7.5379 Y19.7648
G01 X7.4443 Y19.5897
G01 X7.3867 Y19.3997
G01 X7.3673 Y19.2021
G01 X7.3708 Y19.1650
G01 X7.3721 Y19.1341
G01 X7.3721 Y18.5369
G01 X7.3708 Y18.5060
G01 X7.3688 Y18.4877
G01 X7.3649 Y18.4633
G01 X7.3622 Y18.4513
G01 X7.3559 Y18.4274
G01 X7.3457 Y18.3983
G01 X7.3147 Y18.3232
G01 X7.2721 Y18.1092
G01 X7.2721 Y17.8909
G01 X7.3147 Y17.6769
G01 X7.3982 Y17.4753
G01 X7.4319 Y17.4247
G01 X7.4446 Y17.4035
G01 X7.4504 Y17.3926
G01 X7.4585 Y17.3759
G01 X7.4657 Y17.3589
G01 X7.4759 Y17.3298
G01 X7.4792 Y17.3180
G01 X7.4849 Y17.2939
G01 X7.4870 Y17.2818
G01 X7.4903 Y17.2573
G01 X7.4921 Y17.2265
G01 X7.4921 Y6.6962
G01 X7.4908 Y6.6654
G01 X7.4888 Y6.6471
G01 X7.4849 Y6.6226
G01 X7.4776 Y6.5926
G01 X7.4740 Y6.5809
G01 X7.4678 Y6.5634
G01 X7.4634 Y6.5519
G01 X7.4585 Y6.5407
G01 X7.4476 Y6.5185
G01 X7.4106 Y6.4492
G01 X7.3959 Y6.4006
G01 X7.3891 Y6.3315
G01 X7.3891 Y4.6686
G01 X7.3959 Y4.5995
G01 X7.4106 Y4.5509
G01 X7.4346 Y4.5061
G01 X7.4668 Y4.4668
G01 X7.5061 Y4.4346
G01 X7.5509 Y4.4106
G01 X7.5995 Y4.3959
G01 X7.6686 Y4.3891
G01 X9.3315 Y4.3891
G01 X9.4006 Y4.3959
G01 X9.4492 Y4.4106
G01 X9.4941 Y4.4346
G01 X9.5333 Y4.4668
G01 X9.5656 Y4.5061
G01 X9.5895 Y4.5509
G01 X9.6050 Y4.6017
G01 X9.6154 Y4.6301
G01 X9.6254 Y4.6521
G01 X9.6307 Y4.6629
G01 X9.6460 Y4.6890
G01 X9.6526 Y4.6990
G01 X9.6632 Y4.7137
G01 X9.6706 Y4.7233
G01 X9.6783 Y4.7324
G01 X9.6905 Y4.7460
G01 X9.6989 Y4.7546
G01 X9.7212 Y4.7750
G01 X9.7402 Y4.7899
G01 X9.7499 Y4.7969
G01 X9.7755 Y4.8130
G01 X9.7860 Y4.8189
G01 X9.8023 Y4.8270
G01 X9.8132 Y4.8321
G01 X9.8243 Y4.8366
G01 X9.8413 Y4.8430
G01 X9.8527 Y4.8468
G01 X9.8761 Y4.8532
G01 X9.8878 Y4.8558
G01 X9.9176 Y4.8607
G01 X9.9417 Y4.8628
G01 X9.9537 Y4.8635
G01 X9.9839 Y4.8630
G01 X10.0019 Y4.8616
G01 X10.0199 Y4.8594
G01 X10.0318 Y4.8574
G01 X10.0613 Y4.8508
G01 X10.0901 Y4.8419
G01 X10.1069 Y4.8354
G01 X10.1290 Y4.8256
G01 X10.1556 Y4.8113
G01 X10.1709 Y4.8017
G01 X10.1907 Y4.7878
G01 X10.2002 Y4.7804
G01 X10.2186 Y4.7647
G01 X10.2400 Y4.7434
G01 X10.2950 Y4.6825
G01 X10.4688 Y4.5529
G01 X10.5360 Y4.5209
G01 X10.5360 Y4.5228
G01 X10.5215 Y4.5300
G01 X10.5109 Y4.5360
G01 X10.4393 Y4.5789
G01 X10.4289 Y4.5854
G01 X10.4189 Y4.5925
G01 X10.3519 Y4.6422
G01 X10.3422 Y4.6498
G01 X10.3329 Y4.6578
G01 X10.2711 Y4.7138
G01 X10.2622 Y4.7222
G01 X10.2538 Y4.7311
G01 X10.1978 Y4.7929
G01 X10.1898 Y4.8022
G01 X10.1822 Y4.8119
G01 X10.1325 Y4.8789
G01 X10.1254 Y4.8889
G01 X10.1189 Y4.8993
G01 X10.0760 Y4.9709
G01 X10.0700 Y4.9815
G01 X10.0644 Y4.9925
G01 X10.0288 Y5.0679
G01 X10.0238 Y5.0791
G01 X10.0194 Y5.0906
G01 X9.9913 Y5.1691
G01 X9.9874 Y5.1808
G01 X9.9842 Y5.1926
G01 X9.9639 Y5.2735
G01 X9.9612 Y5.2855
G01 X9.9591 Y5.2976
G01 X9.9469 Y5.3801
G01 X9.9454 Y5.3922
G01 X9.9445 Y5.4045
G01 X9.9404 Y5.4878
G01 X9.9401 Y5.5001
G01 X9.9404 Y5.5123
G01 X9.9445 Y5.5956
G01 X9.9454 Y5.6079
G01 X9.9469 Y5.6201
G01 X9.9591 Y5.7026
G01 X9.9612 Y5.7147
G01 X9.9639 Y5.7266
G01 X9.9857 Y5.8135
G01 X9.9913 Y5.8310
G01 X10.0215 Y5.9153
G01 X10.0262 Y5.9267
G01 X10.0397 Y5.9553
G01 X10.0397 Y6.1443
G01 X10.0199 Y6.1407
G01 X9.9899 Y6.1374
G01 X9.9657 Y6.1366
G01 X9.9477 Y6.1369
G01 X9.9176 Y6.1394
G01 X9.8937 Y6.1433
G01 X9.8761 Y6.1470
G01 X9.8527 Y6.1534
G01 X9.8357 Y6.1592
G01 X9.8132 Y6.1680
G01 X9.7860 Y6.1812
G01 X9.7704 Y6.1902
G01 X9.7499 Y6.2032
G01 X9.7258 Y6.2214
G01 X9.7122 Y6.2331
G01 X9.6946 Y6.2498
G01 X9.6744 Y6.2722
G01 X9.6632 Y6.2864
G01 X9.6526 Y6.3011
G01 X9.6460 Y6.3111
G01 X9.6307 Y6.3373
G01 X9.6177 Y6.3645
G01 X9.6111 Y6.3812
G01 X9.6050 Y6.3984
G01 X9.5895 Y6.4492
G01 X9.5497 Y6.5239
G01 X9.5367 Y6.5519
G01 X9.5281 Y6.5751
G01 X9.5242 Y6.5867
G01 X9.5210 Y6.5986
G01 X9.5152 Y6.6226
G01 X9.5131 Y6.6347
G01 X9.5098 Y6.6592
G01 X9.5081 Y6.6901
G01 X9.5080 Y16.9410
G01 X9.5089 Y16.9653
G01 X9.5104 Y16.9833
G01 X9.5150 Y17.0132
G01 X9.5205 Y17.0368
G01 X9.5254 Y17.0542
G01 X9.5356 Y17.0827
G01 X9.5456 Y17.1049
G01 X9.5537 Y17.1210
G01 X9.5692 Y17.1470
G01 X9.5832 Y17.1668
G01 X9.5943 Y17.1811
G01 X9.6145 Y17.2036
G01 X9.6320 Y17.2204
G01 X9.6457 Y17.2323
G01 X9.6698 Y17.2506
G01 X9.6902 Y17.2637
G01 X9.7059 Y17.2727
G01 X9.7276 Y17.2836
G01 X9.7442 Y17.2907
G01 X9.7669 Y17.2991
G01 X9.7961 Y17.3074
G01 X9.8137 Y17.3112
G01 X9.8377 Y17.3151
G01 X9.8619 Y17.3173
G01 X9.8799 Y17.3180
G01 X9.9102 Y17.3172
G01 X9.9403 Y17.3140
G01 X9.9522 Y17.3120
G01 X9.9700 Y17.3083
G01 X9.9875 Y17.3039
G01 X10.0163 Y17.2945
G01 X10.0443 Y17.2828
G01 X10.0604 Y17.2747
G01 X10.0764 Y17.2659
G01 X10.0859 Y17.2601
G01 X10.0920 Y17.2772
G01 X10.0737 Y17.2975
G01 X10.0659 Y17.3070
G01 X10.0089 Y17.3839
G01 X9.9989 Y17.3993
G01 X9.9529 Y17.4762
G01 X9.9444 Y17.4925
G01 X9.9088 Y17.5679
G01 X9.9038 Y17.5791
G01 X9.8994 Y17.5906
G01 X9.8693 Y17.6749
G01 X9.8642 Y17.6926
G01 X9.8439 Y17.7735
G01 X9.8412 Y17.7855
G01 X9.8391 Y17.7976
G01 X9.8269 Y17.8801
G01 X9.8254 Y17.8922
G01 X9.8245 Y17.9045
G01 X9.8204 Y17.9878
G01 X9.8201 Y18.0001
G01 X9.8204 Y18.0123
G01 X9.8245 Y18.0956
G01 X9.8254 Y18.1079
G01 X9.8269 Y18.1201
G01 X9.8391 Y18.2026
G01 X9.8412 Y18.2147
G01 X9.8439 Y18.2266
G01 X9.8642 Y18.3076
G01 X9.8674 Y18.3194
G01 X9.8713 Y18.3310
G01 X9.8994 Y18.4096
G01 X9.9038 Y18.4210
G01 X9.9088 Y18.4322
G01 X9.9444 Y18.5076
G01 X9.9500 Y18.5186
G01 X9.9560 Y18.5293
G01 X9.9989 Y18.6008
G01 X10.0054 Y18.6112
G01 X10.0125 Y18.6212
G01 X10.0622 Y18.6882
G01 X10.0698 Y18.6979
G01 X10.0778 Y18.7072
G01 X10.1338 Y18.7690
G01 X10.1422 Y18.7779
G01 X10.1511 Y18.7863
G01 X10.2129 Y18.8424
G01 X10.2222 Y18.8504
G01 X10.2319 Y18.8579
G01 X10.2989 Y18.9076
G01 X10.3089 Y18.9147
G01 X10.3193 Y18.9212
G01 X10.3909 Y18.9641
G01 X10.4015 Y18.9702
G01 X10.4160 Y18.9774
G01 X10.4160 Y19.0929
G01 X10.3916 Y19.1058
G01 X10.3702 Y19.1185
G01 X10.3600 Y19.1253
G01 X10.3400 Y19.1399
G01 X10.3304 Y19.1477
G01 X10.3120 Y19.1643
G01 X10.3032 Y19.1729
G01 X10.2865 Y19.1913
G01 X10.2749 Y19.2056
G01 X10.2603 Y19.2257
G01 X10.2537 Y19.2360
G01 X10.2411 Y19.2574
G01 X10.2301 Y19.2797
G01 X10.2251 Y19.2909
G01 X10.2164 Y19.3141
G01 X10.2125 Y19.3258
G01 X10.2092 Y19.3377
G01 X10.2034 Y19.3618
G01 X10.1985 Y19.3924
G01 X10.1973 Y19.4046
G01 X10.1962 Y19.4232
G01 X10.1959 Y19.4355
G01 X10.1962 Y19.4478
G01 X10.1971 Y19.4665
G01 X10.1983 Y19.4787
G01 X10.2019 Y19.5033
G01 X10.2043 Y19.5153
G01 X10.2120 Y19.5453
G01 X10.2200 Y19.5688
G01 X10.2245 Y19.5803
G01 X10.2294 Y19.5915
G01 X10.2403 Y19.6138
G01 X10.2528 Y19.6353
G01 X10.2593 Y19.6457
G01 X10.2664 Y19.6557
G01 X10.2814 Y19.6755
G01 X10.2979 Y19.6941
G01 X10.3063 Y19.7030
G01 X16.1590 Y25.5557
G01 X16.1679 Y25.5641
G01 X16.1865 Y25.5805
G01 X16.2111 Y25.5991
G01 X16.2213 Y25.6059
G01 X16.2372 Y25.6156
G01 X16.2479 Y25.6216
G01 X16.2589 Y25.6271
G01 X16.2757 Y25.6350
G01 X16.2871 Y25.6397
G01 X16.3162 Y25.6499
G01 X16.3280 Y25.6532
G01 X16.3521 Y25.6589
G01 X16.3826 Y25.6636
G01 X16.4009 Y25.6652
G01 X16.4257 Y25.6661
G01 X29.9454 Y25.6661
G01 X29.9577 Y25.6658
G01 X29.9824 Y25.6643
G01 X30.0069 Y25.6610
G01 X30.0250 Y25.6576
G01 X30.0490 Y25.6516
G01 X30.0607 Y25.6480
G01 X30.0840 Y25.6397
G01 X30.1009 Y25.6325
G01 X30.1177 Y25.6244
G01 X30.1339 Y25.6156
G01 X30.1549 Y25.6026
G01 X30.1750 Y25.5881
G01 X30.1893 Y25.5766
G01 X30.2077 Y25.5600
G01 X30.2163 Y25.5513
G01 X30.2330 Y25.5330
G01 X30.2445 Y25.5186
G01 X30.2589 Y25.4985
G01 X30.2750 Y25.4722
G01 X30.2835 Y25.4558
G01 X30.2938 Y25.4334
G01 X30.3044 Y25.4044
G01 X30.3095 Y25.3867
G01 X30.3152 Y25.3626
G01 X30.3192 Y25.3382
G01 X30.3212 Y25.3199
G01 X30.3224 Y25.2952
G01 X30.3222 Y25.2768
G01 X30.3207 Y25.2521
G01 X30.3164 Y25.2215
G01 X30.3126 Y25.2035
G01 X30.3063 Y25.1796
G01 X30.2982 Y25.1562
G01 X30.2938 Y25.1448
G01 X30.2888 Y25.1335
G01 X30.2780 Y25.1113
G01 X30.2655 Y25.0899
G01 X30.2589 Y25.0796
G01 X30.2445 Y25.0595
G01 X30.2330 Y25.0452
G01 X30.2121 Y25.0224
G01 X30.1893 Y25.0015
G01 X30.0484 Y24.8858
G01 X29.9162 Y24.7247
G01 X29.8179 Y24.5409
G01 X29.7574 Y24.3415
G01 X29.7370 Y24.1341
G01 X29.7574 Y23.9267
G01 X29.8179 Y23.7272
G01 X29.9162 Y23.5435
G01 X30.0484 Y23.3824
G01 X30.2095 Y23.2502
G01 X30.3150 Y23.1936
G01 X30.3414 Y23.1776
G01 X30.3663 Y23.1594
G01 X30.3758 Y23.1516
G01 X30.3897 Y23.1391
G01 X30.3985 Y23.1307
G01 X30.4070 Y23.1218
G01 X30.4194 Y23.1080
G01 X30.4272 Y23.0985
G01 X30.4454 Y23.0735
G01 X30.4520 Y23.0632
G01 X30.4645 Y23.0418
G01 X30.4779 Y23.0140
G01 X30.4826 Y23.0027
G01 X30.4909 Y22.9794
G01 X30.4945 Y22.9676
G01 X30.4991 Y22.9496
G01 X30.5029 Y22.9316
G01 X30.5057 Y22.9132
G01 X30.5072 Y22.9010
G01 X30.5081 Y22.8888
G01 X30.5089 Y22.8702
G01 X30.5089 Y22.8579
G01 X30.5077 Y22.8332
G01 X30.5065 Y22.8210
G01 X30.5017 Y22.7905
G01 X30.4945 Y22.7605
G01 X30.4909 Y22.7488
G01 X30.4847 Y22.7312
G01 X30.4803 Y22.7198
G01 X30.4753 Y22.7085
G01 X30.4673 Y22.6918
G01 X30.4615 Y22.6809
G01 X30.4454 Y22.6546
G01 X30.4272 Y22.6296
G01 X30.4194 Y22.6202
G01 X30.4070 Y22.6063
G01 X30.3942 Y22.5932
G01 X30.3711 Y22.5726
G01 X30.3514 Y22.5576
G01 X30.3363 Y22.5472
G01 X30.3097 Y22.5315
G01 X30.2095 Y22.4780
G01 X30.0484 Y22.3458
G01 X29.9162 Y22.1847
G01 X29.8179 Y22.0009
G01 X29.7574 Y21.8015
G01 X29.7370 Y21.5941
G01 X29.7574 Y21.3867
G01 X29.8179 Y21.1872
G01 X29.9162 Y21.0035
G01 X30.0484 Y20.8424
G01 X30.2095 Y20.7102
G01 X30.3150 Y20.6536
G01 X30.3414 Y20.6376
G01 X30.3615 Y20.6231
G01 X30.3758 Y20.6116
G01 X30.3942 Y20.5950
G01 X30.4070 Y20.5818
G01 X30.4234 Y20.5633
G01 X30.4309 Y20.5536
G01 X30.4454 Y20.5335
G01 X30.4520 Y20.5232
G01 X30.4645 Y20.5018
G01 X30.4753 Y20.4796
G01 X30.4803 Y20.4684
G01 X30.4847 Y20.4569
G01 X30.4927 Y20.4335
G01 X30.4991 Y20.4096
G01 X30.5017 Y20.3976
G01 X30.5057 Y20.3732
G01 X30.5072 Y20.3610
G01 X30.5081 Y20.3488
G01 X30.5090 Y20.3241
G01 X30.5077 Y20.2932
G01 X30.5065 Y20.2810
G01 X30.5038 Y20.2626
G01 X30.5017 Y20.2505
G01 X30.4991 Y20.2385
G01 X30.4945 Y20.2205
G01 X30.4909 Y20.2088
G01 X30.4826 Y20.1855
G01 X30.4779 Y20.1741
G01 X30.4645 Y20.1463
G01 X30.4584 Y20.1356
G01 X30.4454 Y20.1146
G01 X30.4272 Y20.0896
G01 X30.4194 Y20.0802
G01 X30.4070 Y20.0663
G01 X30.3942 Y20.0532
G01 X30.3711 Y20.0326
G01 X30.3514 Y20.0176
G01 X30.3363 Y20.0072
G01 X30.3097 Y19.9915
G01 X30.2095 Y19.9380
G01 X30.0484 Y19.8058
G01 X29.9162 Y19.6447
G01 X29.8179 Y19.4609
G01 X29.7574 Y19.2615
G01 X29.7370 Y19.0541
G01 X29.7574 Y18.8467
G01 X29.8179 Y18.6472
G01 X29.9162 Y18.4635
G01 X30.0484 Y18.3024
G01 X30.2095 Y18.1702
G01 X30.3150 Y18.1136
G01 X30.3414 Y18.0976
G01 X30.3615 Y18.0831
G01 X30.3758 Y18.0716
G01 X30.3942 Y18.0550
G01 X30.4070 Y18.0418
G01 X30.4234 Y18.0233
G01 X30.4309 Y18.0136
G01 X30.4454 Y17.9935
G01 X30.4520 Y17.9832
G01 X30.4645 Y17.9618
G01 X30.4753 Y17.9396
G01 X30.4803 Y17.9284
G01 X30.4909 Y17.8994
G01 X30.4945 Y17.8876
G01 X30.5005 Y17.8636
G01 X30.5029 Y17.8516
G01 X30.5065 Y17.8271
G01 X30.5077 Y17.8149
G01 X30.5089 Y17.7902
G01 X30.5089 Y17.7779
G01 X30.5081 Y17.7593
G01 X30.5072 Y17.7471
G01 X30.5057 Y17.7349
G01 X30.5029 Y17.7165
G01 X30.5005 Y17.7045
G01 X30.4927 Y17.6746
G01 X30.4847 Y17.6512
G01 X30.4803 Y17.6398
G01 X30.4753 Y17.6285
G01 X30.4645 Y17.6063
G01 X30.4488 Y17.5797
G01 X30.4420 Y17.5695
G01 X30.4309 Y17.5545
G01 X30.4234 Y17.5449
G01 X30.4154 Y17.5356
G01 X30.3985 Y17.5174
G01 X30.3758 Y17.4965
G01 X30.3615 Y17.4850
G01 X30.3414 Y17.4705
G01 X30.3310 Y17.4640
G01 X30.3097 Y17.4515
G01 X30.2095 Y17.3980
G01 X30.0484 Y17.2658
G01 X29.9162 Y17.1047
G01 X29.8179 Y16.9209
G01 X29.7574 Y16.7215
G01 X29.7370 Y16.5141
G01 X29.7574 Y16.3067
G01 X29.8179 Y16.1072
G01 X29.9162 Y15.9235
G01 X30.0484 Y15.7624
G01 X30.2095 Y15.6302
G01 X30.3097 Y15.5766
G01 X30.3203 Y15.5706
G01 X30.3414 Y15.5576
G01 X30.3663 Y15.5394
G01 X30.3804 Y15.5275
G01 X30.3985 Y15.5107
G01 X30.4194 Y15.4880
G01 X30.4272 Y15.4785
G01 X30.4420 Y15.4586
G01 X30.4488 Y15.4484
G01 X30.4615 Y15.4272
G01 X30.4673 Y15.4164
G01 X30.4779 Y15.3940
G01 X30.4826 Y15.3827
G01 X30.4889 Y15.3652
G01 X30.4945 Y15.3476
G01 X30.5005 Y15.3236
G01 X30.5029 Y15.3116
G01 X30.5057 Y15.2932
G01 X30.5072 Y15.2810
G01 X30.5081 Y15.2688
G01 X30.5089 Y15.2502
G01 X30.5087 Y15.2318
G01 X30.5077 Y15.2132
G01 X30.5065 Y15.2010
G01 X30.5017 Y15.1705
G01 X30.4991 Y15.1585
G01 X30.4927 Y15.1346
G01 X30.4826 Y15.1055
G01 X30.4779 Y15.0941
G01 X30.4673 Y15.0718
G01 X30.4615 Y15.0609
G01 X30.4520 Y15.0449
G01 X30.4420 Y15.0295
G01 X30.4309 Y15.0145
G01 X30.4234 Y15.0049
G01 X30.4154 Y14.9956
G01 X30.3985 Y14.9774
G01 X30.3758 Y14.9565
G01 X30.3615 Y14.9450
G01 X30.3414 Y14.9305
G01 X30.3310 Y14.9240
G01 X30.3097 Y14.9115
G01 X30.2095 Y14.8580
G01 X30.0484 Y14.7258
G01 X29.9162 Y14.5647
G01 X29.8179 Y14.3809
G01 X29.7574 Y14.1815
G01 X29.7370 Y13.9741
G01 X29.7574 Y13.7667
G01 X29.8179 Y13.5672
G01 X29.9162 Y13.3835
G01 X30.0484 Y13.2224
G01 X30.2095 Y13.0902
G01 X30.3097 Y13.0366
G01 X30.3203 Y13.0306
G01 X30.3414 Y13.0176
G01 X30.3663 Y12.9994
G01 X30.3804 Y12.9875
G01 X30.3985 Y12.9707
G01 X30.4194 Y12.9480
G01 X30.4272 Y12.9385
G01 X30.4420 Y12.9186
G01 X30.4488 Y12.9084
G01 X30.4584 Y12.8925
G01 X30.4673 Y12.8764
G01 X30.4753 Y12.8596
G01 X30.4803 Y12.8484
G01 X30.4847 Y12.8369
G01 X30.4909 Y12.8194
G01 X30.4945 Y12.8076
G01 X30.5005 Y12.7836
G01 X30.5029 Y12.7716
G01 X30.5065 Y12.7471
G01 X30.5077 Y12.7349
G01 X30.5089 Y12.7102
G01 X30.5089 Y12.6979
G01 X30.5072 Y12.6671
G01 X30.5038 Y12.6426
G01 X30.5017 Y12.6305
G01 X30.4991 Y12.6185
G01 X30.4927 Y12.5946
G01 X30.4826 Y12.5655
G01 X30.4779 Y12.5541
G01 X30.4700 Y12.5373
G01 X30.4645 Y12.5263
G01 X30.4584 Y12.5156
G01 X30.4488 Y12.4997
G01 X30.4420 Y12.4895
G01 X30.4272 Y12.4696
G01 X30.4194 Y12.4602
G01 X30.3985 Y12.4374
G01 X30.3804 Y12.4206
G01 X30.3663 Y12.4088
G01 X30.3414 Y12.3905
G01 X30.3310 Y12.3840
G01 X30.3097 Y12.3715
G01 X30.2095 Y12.3180
G01 X30.0484 Y12.1858
G01 X29.9162 Y12.0247
G01 X29.8179 Y11.8409
G01 X29.7574 Y11.6415
G01 X29.7370 Y11.4341
G01 X29.7574 Y11.2267
G01 X29.8179 Y11.0272
G01 X29.9162 Y10.8435
G01 X30.0250 Y10.7108
G01 X30.0326 Y10.7012
G01 X30.0436 Y10.6862
G01 X30.0536 Y10.6707
G01 X30.0661 Y10.6494
G01 X30.0769 Y10.6271
G01 X30.0842 Y10.6102
G01 X30.0925 Y10.5869
G01 X30.0961 Y10.5752
G01 X30.1021 Y10.5512
G01 X30.1055 Y10.5331
G01 X30.1088 Y10.5086
G01 X30.1097 Y10.4963
G01 X30.1106 Y10.4716
G01 X30.1093 Y10.4408
G01 X30.1081 Y10.4286
G01 X30.1055 Y10.4102
G01 X30.1021 Y10.3921
G01 X30.0944 Y10.3622
G01 X30.0842 Y10.3330
G01 X30.0795 Y10.3217
G01 X30.0716 Y10.3048
G01 X30.0661 Y10.2939
G01 X30.0600 Y10.2832
G01 X30.0504 Y10.2673
G01 X30.0436 Y10.2571
G01 X30.0250 Y10.2324
G01 X30.0045 Y10.2094
G01 X29.9913 Y10.1965
G01 X29.9774 Y10.1841
G01 X29.9680 Y10.1763
G01 X29.9430 Y10.1581
G01 X29.9220 Y10.1451
G01 X29.9113 Y10.1391
G01 X29.8561 Y10.1096
G01 X29.8168 Y10.0773
G01 X29.7846 Y10.0381
G01 X29.7606 Y9.9932
G01 X29.7459 Y9.9446
G01 X29.7391 Y9.8755
G01 X29.7391 Y7.9126
G01 X29.7459 Y7.8435
G01 X29.7606 Y7.7949
G01 X29.7846 Y7.7501
G01 X29.8168 Y7.7108
G01 X29.8561 Y7.6786
G01 X29.9009 Y7.6546
G01 X29.9495 Y7.6399
G01 X30.0186 Y7.6331
G01 X31.9815 Y7.6331
G01 X32.0506 Y7.6399
G01 X32.0992 Y7.6546
G01 X32.1441 Y7.6786
G01 X32.1833 Y7.7108
G01 X32.2156 Y7.7501
G01 X32.2395 Y7.7949
G01 X32.2543 Y7.8435
G01 X32.2611 Y7.9126
G01 X32.2611 Y9.8755
G01 X32.2543 Y9.9446
G01 X32.2395 Y9.9932
G01 X32.2156 Y10.0381
G01 X32.1833 Y10.0773
G01 X32.1441 Y10.1096
G01 X32.0888 Y10.1391
G01 X32.0675 Y10.1515
G01 X32.0571 Y10.1581
G01 X32.0471 Y10.1652
G01 X32.0322 Y10.1763
G01 X32.0227 Y10.1841
G01 X32.0000 Y10.2050
G01 X31.9791 Y10.2277
G01 X31.9676 Y10.2421
G01 X31.9565 Y10.2571
G01 X31.9497 Y10.2673
G01 X31.9340 Y10.2939
G01 X31.9206 Y10.3217
G01 X31.9138 Y10.3388
G01 X31.9076 Y10.3563
G01 X31.9041 Y10.3681
G01 X31.8968 Y10.3981
G01 X31.8920 Y10.4286
G01 X31.8908 Y10.4408
G01 X31.8898 Y10.4594
G01 X31.8896 Y10.4778
G01 X31.8908 Y10.5025
G01 X31.8928 Y10.5208
G01 X31.8968 Y10.5452
G01 X31.9025 Y10.5693
G01 X31.9076 Y10.5869
G01 X31.9159 Y10.6102
G01 X31.9232 Y10.6271
G01 X31.9340 Y10.6494
G01 X31.9401 Y10.6600
G01 X31.9531 Y10.6811
G01 X31.9713 Y10.7060
G01 X32.0840 Y10.8435
G01 X32.1822 Y11.0272
G01 X32.2427 Y11.2267
G01 X32.2631 Y11.4341
G01 X32.2427 Y11.6415
G01 X32.1822 Y11.8409
G01 X32.0840 Y12.0247
G01 X31.9518 Y12.1858
G01 X31.7907 Y12.3180
G01 X31.6905 Y12.3715
G01 X31.6798 Y12.3776
G01 X31.6587 Y12.3905
G01 X31.6338 Y12.4088
G01 X31.6197 Y12.4206
G01 X31.6016 Y12.4374
G01 X31.5807 Y12.4602
G01 X31.5729 Y12.4696
G01 X31.5582 Y12.4895
G01 X31.5513 Y12.4997
G01 X31.5417 Y12.5156
G01 X31.5328 Y12.5318
G01 X31.5248 Y12.5485
G01 X31.5198 Y12.5598
G01 X31.5154 Y12.5712
G01 X31.5092 Y12.5888
G01 X31.5057 Y12.6005
G01 X31.4997 Y12.6245
G01 X31.4973 Y12.6365
G01 X31.4936 Y12.6610
G01 X31.4924 Y12.6732
G01 X31.4912 Y12.6979
G01 X31.4912 Y12.7102
G01 X31.4930 Y12.7410
G01 X31.4963 Y12.7655
G01 X31.4984 Y12.7776
G01 X31.5011 Y12.7896
G01 X31.5074 Y12.8135
G01 X31.5176 Y12.8427
G01 X31.5223 Y12.8540
G01 X31.5301 Y12.8708
G01 X31.5357 Y12.8818
G01 X31.5417 Y12.8925
G01 X31.5513 Y12.9084
G01 X31.5582 Y12.9186
G01 X31.5729 Y12.9385
G01 X31.5807 Y12.9480
G01 X31.6016 Y12.9707
G01 X31.6197 Y12.9875
G01 X31.6338 Y12.9994
G01 X31.6587 Y13.0176
G01 X31.6691 Y13.0241
G01 X31.6905 Y13.0366
G01 X31.7907 Y13.0902
G01 X31.9518 Y13.2224
G01 X32.0840 Y13.3835
G01 X32.1822 Y13.5672
G01 X32.2427 Y13.7667
G01 X32.2631 Y13.9741
G01 X32.2427 Y14.1815
G01 X32.1822 Y14.3809
G01 X32.0840 Y14.5647
G01 X31.9518 Y14.7258
G01 X31.7907 Y14.8580
G01 X31.7636 Y14.8739
G01 X31.7535 Y14.8806
G01 X31.7387 Y14.8914
G01 X31.7292 Y14.8988
G01 X31.7200 Y14.9067
G01 X31.7064 Y14.9190
G01 X31.6978 Y14.9275
G01 X31.6774 Y14.9501
G01 X31.6699 Y14.9596
G01 X31.6555 Y14.9793
G01 X31.6395 Y15.0051
G01 X31.6337 Y15.0158
G01 X31.6256 Y15.0322
G01 X31.6183 Y15.0488
G01 X31.6099 Y15.0717
G01 X31.6062 Y15.0832
G01 X31.6000 Y15.1068
G01 X31.5965 Y15.1246
G01 X31.5929 Y15.1487
G01 X31.5910 Y15.1730
G01 X31.5905 Y15.1851
G01 X31.5906 Y15.1972
G01 X31.5917 Y15.2216
G01 X31.5946 Y15.2458
G01 X31.5964 Y15.2577
G01 X31.5989 Y15.2696
G01 X31.6046 Y15.2933
G01 X31.6121 Y15.3165
G01 X31.6185 Y15.3335
G01 X31.6284 Y15.3557
G01 X31.6368 Y15.3718
G01 X31.6491 Y15.3929
G01 X31.6664 Y15.4179
G01 X31.6778 Y15.4321
G01 X31.6939 Y15.4503
G01 X31.7113 Y15.4674
G01 X31.7248 Y15.4795
G01 X31.7440 Y15.4946
G01 X31.7589 Y15.5049
G01 X31.7796 Y15.5178
G01 X31.8066 Y15.5319
G01 X31.8232 Y15.5392
G01 X31.8459 Y15.5479
G01 X31.8751 Y15.5565
G01 X31.8928 Y15.5604
G01 X31.9169 Y15.5646
G01 X35.1104 Y15.9979
G01 X35.1977 Y16.0067
G01 X35.2593 Y16.0253
G01 X35.2743 Y16.0292
G01 X35.3294 Y16.0423
G01 X35.3449 Y16.0491
G01 X35.3662 Y16.0572
G01 X35.3876 Y16.0643
G01 X35.4445 Y16.0946
G01 X35.4584 Y16.1014
G01 X35.5099 Y16.1249
G01 X35.5238 Y16.1347
G01 X35.5431 Y16.1468
G01 X35.5628 Y16.1579
G01 X35.6126 Y16.1987
G01 X35.6249 Y16.2080
G01 X35.6709 Y16.2412
G01 X35.6826 Y16.2535
G01 X35.6991 Y16.2691
G01 X35.7162 Y16.2839
G01 X35.7572 Y16.3336
G01 X35.7674 Y16.3452
G01 X35.8060 Y16.3867
G01 X35.8151 Y16.4010
G01 X35.8283 Y16.4195
G01 X35.8422 Y16.4374
G01 X35.8726 Y16.4941
G01 X35.8805 Y16.5075
G01 X35.9102 Y16.5557
G01 X35.9163 Y16.5715
G01 X35.9256 Y16.5923
G01 X35.9358 Y16.6125
G01 X35.9546 Y16.6740
G01 X35.9596 Y16.6887
G01 X35.9794 Y16.7418
G01 X35.9823 Y16.7585
G01 X35.9874 Y16.7807
G01 X35.9934 Y16.8025
G01 X35.9998 Y16.8665
G01 X36.0020 Y16.8819
G01 X36.0110 Y16.9378
G01 X36.0080 Y17.0254
G01 X36.0080 Y28.9320
G01 X36.0093 Y28.9629
G01 X36.0129 Y29.0001
G01 X35.9934 Y29.1977
G01 X35.9358 Y29.3877
G01 X35.8422 Y29.5628
G01 X35.7162 Y29.7162
G01 X35.5628 Y29.8422
G01 X35.3877 Y29.9358
G01 X35.1977 Y29.9934
G01 X35.0001 Y30.0129
G01 X34.9629 Y30.0093
G01 X34.9320 Y30.0080
G01 X13.0351 Y30.0080
G01 X13.0160 Y30.0085
G01 X12.9519 Y30.0117
G01 X12.8744 Y30.0006
G01 X12.8023 Y29.9934
G01 X12.7761 Y29.9868
G01 X12.7556 Y29.9830
G01 X12.6873 Y29.9587
G01 X12.6123 Y29.9357
G01 X12.5936 Y29.9266
G01 X12.5686 Y29.9164
G01 X12.5011 Y29.8763
G01 X12.4372 Y29.8421
G01 X12.4156 Y29.8259
G01 X12.3981 Y29.8146
G01 X12.3443 Y29.7661
G01 X12.2839 Y29.7162
G01 X12.2432 Y29.6666
G01 X12.2307 Y29.6522
G01 X2.3223 Y18.7529
G01 X2.3095 Y18.7399
G01 X2.2917 Y18.7230
G01 X2.2840 Y18.7163
G01 X2.2432 Y18.6666
G01 X2.2209 Y18.6414
G01 X2.2037 Y18.6187
G01 X2.1578 Y18.5626
G01 X2.1473 Y18.5446
G01 X2.1322 Y18.5222
G01 X2.1011 Y18.4568
G01 X2.0643 Y18.3875
G01 X2.0552 Y18.3620
G01 X2.0470 Y18.3429
G01 X2.0292 Y18.2726
G01 X2.0067 Y18.1975
G01 X2.0028 Y18.1707
G01 X1.9984 Y18.1504
G01 X1.9947 Y18.0780
G01 X1.9921 Y18.0496
G01 X1.9916 Y18.0160
G01 X1.9884 Y17.9518
G01 X1.9896 Y17.9417
G01 X1.9915 Y17.9172
G01 X1.9921 Y17.8989
G01 X1.9921 Y6.0707
G01 X1.9908 Y6.0460
G01 X1.9896 Y6.0338
G01 X1.9860 Y6.0093
G01 X1.9836 Y5.9973
G01 X1.9759 Y5.9674
G01 X1.9678 Y5.9440
G01 X1.9634 Y5.9326
G01 X1.9347 Y5.8632
G01 X1.8921 Y5.6492
G01 X1.8921 Y5.4309
G01 X1.9347 Y5.2169
G01 X2.0182 Y5.0153
G01 X2.1395 Y4.8338
G01 X2.2451 Y4.7282
G01 X2.2535 Y4.7193
G01 X2.2660 Y4.7055
G01 X2.2738 Y4.6960
G01 X2.2885 Y4.6761
G01 X2.2985 Y4.6607
G01 X2.3110 Y4.6393
G01 X2.3244 Y4.6115
G01 X2.3312 Y4.5944
G01 X2.3374 Y4.5769
G01 X2.3410 Y4.5651
G01 X2.3483 Y4.5351
G01 X2.3522 Y4.5107
G01 X2.3542 Y4.4924
G01 X2.3555 Y4.4616
G01 X2.3552 Y4.4493
G01 X2.3537 Y4.4246
G01 X2.3494 Y4.3940
G01 X2.3470 Y4.3820
G01 X2.3410 Y4.3580
G01 X2.3374 Y4.3463
G01 X2.3312 Y4.3287
G01 X2.3268 Y4.3173
G01 X2.3218 Y4.3061
G01 X2.3138 Y4.2893
G01 X2.3049 Y4.2732
G01 X2.2953 Y4.2572
G01 X2.2885 Y4.2470
G01 X2.2738 Y4.2272
G01 X2.2660 Y4.2177
G01 X2.2451 Y4.1950
G01 X2.2269 Y4.1781
G01 X2.2177 Y4.1701
G01 X2.1930 Y4.1515
G01 X2.1828 Y4.1447
G01 X2.1669 Y4.1351
G01 X2.1562 Y4.1290
G01 X2.1452 Y4.1235
G01 X2.1284 Y4.1156
G01 X2.1170 Y4.1109
G01 X2.0937 Y4.1026
G01 X2.0509 Y4.0895
G01 X2.0061 Y4.0656
G01 X1.9668 Y4.0333
G01 X1.9346 Y3.9941
G01 X1.9106 Y3.9492
G01 X1.8959 Y3.9006
G01 X1.8892 Y3.8326
G01 X1.8909 Y3.5041
G00 Z3.0000
G00 X3.5041 Y1.8909
G01 F60.00
G01 Z-0.1000
G01 F120.00
G01 X3.8326 Y1.8892
G01 X3.9006 Y1.8959
G01 X3.9492 Y1.9106
G01 X3.9941 Y1.9346
G01 X4.0333 Y1.9668
G01 X4.0656 Y2.0061
G01 X4.0895 Y2.0509
G01 X4.1043 Y2.0995
G01 X4.1110 Y2.1676
G01 X4.1092 Y2.4960
G01 X4.1001 Y2.4960
G01 X4.1001 Y2.1501
G01 X4.0994 Y2.1317
G01 X4.0974 Y2.1134
G01 X4.0940 Y2.0953
G01 X4.0893 Y2.0775
G01 X4.0854 Y2.0658
G01 X4.0810 Y2.0544
G01 X4.0734 Y2.0377
G01 X4.0645 Y2.0215
G01 X4.0579 Y2.0112
G01 X4.0509 Y2.0011
G01 X4.0394 Y1.9868
G01 X4.0268 Y1.9733
G01 X4.0180 Y1.9648
G01 X4.0087 Y1.9568
G01 X3.9940 Y1.9457
G01 X3.9786 Y1.9356
G01 X3.9625 Y1.9268
G01 X3.9457 Y1.9191
G01 X3.9343 Y1.9147
G01 X3.9226 Y1.9108
G01 X3.9048 Y1.9061
G01 X3.8867 Y1.9028
G01 X3.8685 Y1.9007
G01 X3.8501 Y1.9001
G01 X3.5041 Y1.9001
G01 X3.5041 Y1.8909
G00 Z3.0000
G00 X1.9997 Y5.9953
G01 F60.00
G01 Z-0.1000
G01 F120.00
G01 X1.9862 Y5.9667
G01 X1.9815 Y5.9553
G01 X1.9493 Y5.8652
G01 X1.9442 Y5.8476
G01 X1.9225 Y5.7607
G01 X1.9191 Y5.7426
G01 X1.9069 Y5.6601
G01 X1.9054 Y5.6479
G01 X1.9045 Y5.6356
G01 X1.9001 Y5.5462
G01 X1.9004 Y5.5278
G01 X1.9045 Y5.4445
G01 X1.9054 Y5.4322
G01 X1.9069 Y5.4201
G01 X1.9191 Y5.3376
G01 X1.9212 Y5.3255
G01 X1.9239 Y5.3135
G01 X1.9442 Y5.2326
G01 X1.9474 Y5.2208
G01 X1.9513 Y5.2091
G01 X1.9815 Y5.1248
G01 X1.9888 Y5.1079
G01 X2.0244 Y5.0325
G01 X2.0300 Y5.0215
G01 X2.0360 Y5.0109
G01 X2.0789 Y4.9393
G01 X2.0854 Y4.9289
G01 X2.0925 Y4.9189
G01 X2.1422 Y4.8519
G01 X2.1498 Y4.8422
G01 X2.1578 Y4.8329
G01 X2.2138 Y4.7711
G01 X2.2222 Y4.7622
G01 X2.2311 Y4.7538
G01 X2.2929 Y4.6978
G01 X2.3022 Y4.6898
G01 X2.3119 Y4.6822
G01 X2.3789 Y4.6325
G01 X2.3889 Y4.6254
G01 X2.3993 Y4.6189
G01 X2.4709 Y4.5760
G01 X2.4815 Y4.5700
G01 X2.4925 Y4.5644
G01 X2.5735 Y4.5262
G01 X2.5906 Y4.5194
G01 X2.6691 Y4.4913
G01 X2.6808 Y4.4874
G01 X2.6926 Y4.4842
G01 X2.7735 Y4.4639
G01 X2.7855 Y4.4612
G01 X2.7976 Y4.4591
G01 X2.8801 Y4.4469
G01 X2.8922 Y4.4454
G01 X2.9045 Y4.4445
G01 X2.9878 Y4.4404
G01 X3.0001 Y4.4401
G01 X3.0123 Y4.4404
G01 X3.0956 Y4.4445
G01 X3.1079 Y4.4454
G01 X3.1201 Y4.4469
G01 X3.2026 Y4.4591
G01 X3.2147 Y4.4612
G01 X3.2266 Y4.4639
G01 X3.3076 Y4.4842
G01 X3.3194 Y4.4874
G01 X3.3310 Y4.4913
G01 X3.4096 Y4.5194
G01 X3.4210 Y4.5238
G01 X3.4322 Y4.5288
G01 X3.5076 Y4.5644
G01 X3.5186 Y4.5700
G01 X3.5293 Y4.5760
G01 X3.6008 Y4.6189
G01 X3.6112 Y4.6254
G01 X3.6212 Y4.6325
G01 X3.6882 Y4.6822
G01 X3.6979 Y4.6898
G01 X3.7072 Y4.6978
G01 X3.7690 Y4.7538
G01 X3.7779 Y4.7622
G01 X3.7863 Y4.7711
G01 X3.8424 Y4.8329
G01 X3.8504 Y4.8422
G01 X3.8579 Y4.8519
G01 X3.9076 Y4.9189
G01 X3.9147 Y4.9289
G01 X3.9212 Y4.9393
G01 X3.9641 Y5.0109
G01 X3.9702 Y5.0215
G01 X3.9757 Y5.0325
G01 X4.0139 Y5.1135
G01 X4.0207 Y5.1306
G01 X4.0488 Y5.2091
G01 X4.0527 Y5.2208
G01 X4.0560 Y5.2326
G01 X4.0762 Y5.3135
G01 X4.0789 Y5.3255
G01 X4.0810 Y5.3376
G01 X4.0933 Y5.4201
G01 X4.0948 Y5.4322
G01 X4.0957 Y5.4445
G01 X4.0998 Y5.5278
G01 X4.1001 Y5.5401
G01 X4.0998 Y5.5523
G01 X4.0957 Y5.6356
G01 X4.0948 Y5.6479
G01 X4.0933 Y5.6601
G01 X4.0810 Y5.7426
G01 X4.0777 Y5.7607
G01 X4.0560 Y5.8476
G01 X4.0508 Y5.8652
G01 X4.0186 Y5.9553
G01 X4.0139 Y5.9667
G01 X4.0004 Y5.9953
G01 X4.0004 Y17.6133
G01 X13.4426 Y27.9997
G01 X33.9997 Y27.9997
G01 X33.9997 Y17.8739
G01 X31.4628 Y17.5297
G01 X31.4049 Y17.5439
G01 X31.3928 Y17.5460
G01 X31.3091 Y17.5583
G01 X31.2907 Y17.5599
G01 X31.2062 Y17.5640
G01 X30.7939 Y17.5640
G01 X30.7094 Y17.5599
G01 X30.6971 Y17.5590
G01 X30.6850 Y17.5575
G01 X30.6073 Y17.5460
G01 X30.5952 Y17.5439
G01 X30.5832 Y17.5412
G01 X30.5071 Y17.5221
G01 X30.4953 Y17.5189
G01 X30.4836 Y17.5150
G01 X30.4097 Y17.4886
G01 X30.3982 Y17.4841
G01 X30.3870 Y17.4792
G01 X30.3161 Y17.4456
G01 X30.3051 Y17.4401
G01 X30.2944 Y17.4340
G01 X30.2271 Y17.3937
G01 X30.2167 Y17.3871
G01 X30.2067 Y17.3800
G01 X30.1436 Y17.3333
G01 X30.1340 Y17.3257
G01 X30.1247 Y17.3177
G01 X30.0665 Y17.2650
G01 X30.0576 Y17.2565
G01 X30.0491 Y17.2476
G01 X29.9964 Y17.1895
G01 X29.9884 Y17.1802
G01 X29.9809 Y17.1705
G01 X29.9341 Y17.1074
G01 X29.9270 Y17.0974
G01 X29.9205 Y17.0870
G01 X29.8801 Y17.0197
G01 X29.8740 Y17.0090
G01 X29.8685 Y16.9981
G01 X29.8350 Y16.9271
G01 X29.8300 Y16.9159
G01 X29.8256 Y16.9044
G01 X29.7991 Y16.8305
G01 X29.7953 Y16.8189
G01 X29.7920 Y16.8070
G01 X29.7729 Y16.7309
G01 X29.7702 Y16.7189
G01 X29.7681 Y16.7068
G01 X29.7566 Y16.6292
G01 X29.7551 Y16.6170
G01 X29.7542 Y16.6047
G01 X29.7504 Y16.5263
G01 X29.7501 Y16.5141
G01 X29.7504 Y16.5018
G01 X29.7542 Y16.4234
G01 X29.7551 Y16.4111
G01 X29.7566 Y16.3990
G01 X29.7681 Y16.3213
G01 X29.7702 Y16.3092
G01 X29.7729 Y16.2972
G01 X29.7920 Y16.2211
G01 X29.7953 Y16.2093
G01 X29.7991 Y16.1976
G01 X29.8256 Y16.1237
G01 X29.8300 Y16.1122
G01 X29.8350 Y16.1010
G01 X29.8685 Y16.0301
G01 X29.8740 Y16.0191
G01 X29.8801 Y16.0084
G01 X29.9237 Y15.9359
G01 X29.9341 Y15.9207
G01 X29.9809 Y15.8576
G01 X29.9884 Y15.8480
G01 X29.9964 Y15.8387
G01 X30.0491 Y15.7805
G01 X30.0576 Y15.7716
G01 X30.0665 Y15.7631
G01 X30.1247 Y15.7104
G01 X30.1340 Y15.7024
G01 X30.1436 Y15.6949
G01 X30.2067 Y15.6481
G01 X30.2167 Y15.6410
G01 X30.2271 Y15.6345
G01 X30.2944 Y15.5941
G01 X30.3051 Y15.5880
G01 X30.3161 Y15.5825
G01 X30.3870 Y15.5490
G01 X30.3982 Y15.5440
G01 X30.4097 Y15.5396
G01 X30.4894 Y15.5111
G01 X30.5071 Y15.5060
G01 X30.5832 Y15.4869
G01 X30.5952 Y15.4842
G01 X30.6073 Y15.4821
G01 X30.6850 Y15.4706
G01 X30.6971 Y15.4691
G01 X30.7094 Y15.4682
G01 X30.7878 Y15.4644
G01 X30.8001 Y15.4641
G01 X31.2001 Y15.4641
G01 X31.2123 Y15.4644
G01 X31.2969 Y15.4686
G01 X31.3152 Y15.4706
G01 X31.3928 Y15.4821
G01 X31.4109 Y15.4855
G01 X31.4990 Y15.5076
G01 X31.5107 Y15.5111
G01 X31.5396 Y15.5214
G01 X31.5523 Y15.5228
G01 X35.1346 Y16.0088
G01 X35.1648 Y16.0141
G01 X35.1952 Y16.0189
G01 X35.2370 Y16.0282
G01 X35.2607 Y16.0350
G01 X35.2846 Y16.0411
G01 X35.3195 Y16.0521
G01 X35.3311 Y16.0561
G01 X35.3540 Y16.0652
G01 X35.3772 Y16.0736
G01 X35.4221 Y16.0931
G01 X35.4440 Y16.1044
G01 X35.4662 Y16.1150
G01 X35.4983 Y16.1327
G01 X35.5089 Y16.1388
G01 X35.5296 Y16.1522
G01 X35.5507 Y16.1649
G01 X35.5909 Y16.1929
G01 X35.6102 Y16.2082
G01 X35.6299 Y16.2229
G01 X35.6580 Y16.2465
G01 X35.6672 Y16.2547
G01 X35.6848 Y16.2718
G01 X35.7030 Y16.2884
G01 X35.7370 Y16.3236
G01 X35.7529 Y16.3424
G01 X35.7694 Y16.3607
G01 X35.7772 Y16.3702
G01 X35.7998 Y16.3991
G01 X35.8138 Y16.4194
G01 X35.8284 Y16.4392
G01 X35.8517 Y16.4752
G01 X35.8668 Y16.5020
G01 X35.8823 Y16.5285
G01 X35.9016 Y16.5667
G01 X35.9114 Y16.5893
G01 X35.9219 Y16.6116
G01 X35.9355 Y16.6457
G01 X35.9398 Y16.6572
G01 X35.9473 Y16.6806
G01 X35.9555 Y16.7038
G01 X35.9689 Y16.7509
G01 X35.9740 Y16.7750
G01 X35.9812 Y16.8049
G01 X35.9842 Y16.8230
G01 X35.9877 Y16.8410
G01 X35.9914 Y16.8715
G01 X35.9949 Y16.8959
G01 X35.9981 Y16.9325
G01 X35.9988 Y16.9447
G01 X35.9992 Y16.9693
G01 X36.0004 Y17.0001
G01 X36.0004 Y29.0001
G01 X36.0001 Y29.0123
G01 X35.9965 Y29.0859
G01 X35.9956 Y29.0981
G01 X35.9941 Y29.1103
G01 X35.9833 Y29.1831
G01 X35.9812 Y29.1952
G01 X35.9785 Y29.2072
G01 X35.9606 Y29.2786
G01 X35.9574 Y29.2905
G01 X35.9535 Y29.3021
G01 X35.9287 Y29.3714
G01 X35.9243 Y29.3829
G01 X35.9193 Y29.3941
G01 X35.8878 Y29.4607
G01 X35.8823 Y29.4716
G01 X35.8763 Y29.4823
G01 X35.8384 Y29.5455
G01 X35.8284 Y29.5609
G01 X35.7809 Y29.6250
G01 X35.7734 Y29.6347
G01 X35.7653 Y29.6440
G01 X35.7159 Y29.6985
G01 X35.7074 Y29.7074
G01 X35.6985 Y29.7159
G01 X35.6440 Y29.7653
G01 X35.6347 Y29.7734
G01 X35.6250 Y29.7809
G01 X35.5659 Y29.8248
G01 X35.5558 Y29.8318
G01 X35.5455 Y29.8384
G01 X35.4823 Y29.8763
G01 X35.4716 Y29.8823
G01 X35.4607 Y29.8878
G01 X35.3941 Y29.9193
G01 X35.3829 Y29.9243
G01 X35.3714 Y29.9287
G01 X35.3021 Y29.9535
G01 X35.2905 Y29.9574
G01 X35.2786 Y29.9606
G01 X35.2072 Y29.9785
G01 X35.1952 Y29.9812
G01 X35.1831 Y29.9833
G01 X35.1103 Y29.9941
G01 X35.0981 Y29.9956
G01 X35.0859 Y29.9965
G01 X35.0123 Y30.0001
G01 X35.0001 Y30.0004
G01 X13.0001 Y30.0004
G01 X12.9763 Y29.9996
G01 X12.9525 Y29.9993
G01 X12.9273 Y29.9972
G01 X12.9081 Y29.9961
G01 X12.8548 Y29.9898
G01 X12.8299 Y29.9852
G01 X12.8049 Y29.9812
G01 X12.7817 Y29.9757
G01 X12.7644 Y29.9722
G01 X12.7525 Y29.9693
G01 X12.7341 Y29.9638
G01 X12.7097 Y29.9574
G01 X12.6872 Y29.9496
G01 X12.6645 Y29.9425
G01 X12.6410 Y29.9331
G01 X12.6229 Y29.9266
G01 X12.5737 Y29.9050
G01 X12.5512 Y29.8934
G01 X12.5285 Y29.8823
G01 X12.5079 Y29.8703
G01 X12.4924 Y29.8620
G01 X12.4818 Y29.8557
G01 X12.4658 Y29.8451
G01 X12.4494 Y29.8352
G01 X12.4392 Y29.8284
G01 X12.4250 Y29.8179
G01 X12.4054 Y29.8045
G01 X12.3856 Y29.7887
G01 X12.3702 Y29.7772
G01 X12.3607 Y29.7694
G01 X12.3476 Y29.7576
G01 X12.3340 Y29.7464
G01 X12.3249 Y29.7381
G01 X12.3112 Y29.7247
G01 X12.2927 Y29.7074
G01 X12.2765 Y29.6900
G01 X12.2598 Y29.6730
G01 X2.2598 Y18.6730
G01 X2.2435 Y18.6536
G01 X2.2268 Y18.6347
G01 X2.2123 Y18.6158
G01 X2.2012 Y18.6021
G01 X2.1939 Y18.5922
G01 X2.1831 Y18.5763
G01 X2.1718 Y18.5609
G01 X2.1649 Y18.5507
G01 X2.1558 Y18.5356
G01 X2.1428 Y18.5156
G01 X2.1306 Y18.4935
G01 X2.1178 Y18.4716
G01 X2.1074 Y18.4503
G01 X2.0964 Y18.4291
G01 X2.0864 Y18.4059
G01 X2.0783 Y18.3885
G01 X2.0587 Y18.3385
G01 X2.0510 Y18.3144
G01 X2.0428 Y18.2905
G01 X2.0367 Y18.2674
G01 X2.0300 Y18.2446
G01 X2.0248 Y18.2198
G01 X2.0189 Y18.1952
G01 X2.0151 Y18.1717
G01 X2.0107 Y18.1483
G01 X2.0079 Y18.1232
G01 X2.0045 Y18.0981
G01 X2.0030 Y18.0744
G01 X2.0010 Y18.0507
G01 X2.0006 Y18.0254
G01 X1.9997 Y18.0001
G01 X1.9997 Y5.9953
G00 Z3.0000
G00 X7.3797 Y18.4553
G01 F60.00
G01 Z-0.1000
G01 F120.00
G01 X7.3662 Y18.4267
G01 X7.3615 Y18.4153
G01 X7.3293 Y18.3252
G01 X7.3242 Y18.3076
G01 X7.3039 Y18.2266
G01 X7.3001 Y18.2086
G01 X7.2869 Y18.1201
G01 X7.2854 Y18.1079
G01 X7.2845 Y18.0956
G01 X7.2804 Y18.0123
G01 X7.2801 Y18.0001
G01 X7.2804 Y17.9878
G01 X7.2845 Y17.9045
G01 X7.2854 Y17.8922
G01 X7.2869 Y17.8801
G01 X7.2991 Y17.7976
G01 X7.3012 Y17.7855
G01 X7.3039 Y17.7735
G01 X7.3242 Y17.6926
G01 X7.3274 Y17.6808
G01 X7.3313 Y17.6691
G01 X7.3615 Y17.5848
G01 X7.3688 Y17.5679
G01 X7.4044 Y17.4925
G01 X7.4129 Y17.4762
G01 X7.4621 Y17.3941
G01 X7.4725 Y17.3789
G01 X7.4997 Y17.3423
G01 X7.4997 Y6.5498
G01 X7.4868 Y6.5394
G01 X7.4777 Y6.5311
G01 X7.4690 Y6.5224
G01 X7.4608 Y6.5134
G01 X7.4530 Y6.5039
G01 X7.4422 Y6.4890
G01 X7.4356 Y6.4786
G01 X7.4296 Y6.4679
G01 X7.4241 Y6.4570
G01 X7.4191 Y6.4457
G01 X7.4147 Y6.4343
G01 X7.4091 Y6.4167
G01 X7.4061 Y6.4048
G01 X7.4037 Y6.3928
G01 X7.4019 Y6.3807
G01 X7.4004 Y6.3623
G01 X7.4001 Y6.3501
G01 X7.4001 Y4.6501
G01 X7.4007 Y4.6317
G01 X7.4028 Y4.6134
G01 X7.4061 Y4.5953
G01 X7.4108 Y4.5775
G01 X7.4168 Y4.5601
G01 X7.4215 Y4.5488
G01 X7.4268 Y4.5377
G01 X7.4325 Y4.5268
G01 X7.4389 Y4.5163
G01 X7.4493 Y4.5011
G01 X7.4568 Y4.4915
G01 X7.4648 Y4.4822
G01 X7.4777 Y4.4690
G01 X7.4868 Y4.4608
G01 X7.4963 Y4.4530
G01 X7.5112 Y4.4422
G01 X7.5215 Y4.4356
G01 X7.5322 Y4.4296
G01 X7.5488 Y4.4215
G01 X7.5658 Y4.4147
G01 X7.5775 Y4.4108
G01 X7.5893 Y4.4076
G01 X7.6073 Y4.4037
G01 X7.6256 Y4.4013
G01 X7.6378 Y4.4004
G01 X7.6501 Y4.4001
G01 X9.3501 Y4.4001
G01 X9.3685 Y4.4007
G01 X9.3867 Y4.4028
G01 X9.3988 Y4.4049
G01 X9.4108 Y4.4076
G01 X9.4285 Y4.4127
G01 X9.4457 Y4.4191
G01 X9.4570 Y4.4241
G01 X9.4679 Y4.4296
G01 X9.4838 Y4.4389
G01 X9.4990 Y4.4493
G01 X9.5087 Y4.4568
G01 X9.5180 Y4.4648
G01 X9.5311 Y4.4777
G01 X9.5394 Y4.4868
G01 X9.5471 Y4.4963
G01 X9.5579 Y4.5112
G01 X9.5676 Y4.5268
G01 X9.5734 Y4.5377
G01 X9.5786 Y4.5488
G01 X9.5854 Y4.5658
G01 X9.5910 Y4.5834
G01 X9.5940 Y4.5953
G01 X9.5964 Y4.6073
G01 X9.5989 Y4.6256
G01 X9.5998 Y4.6378
G01 X9.6001 Y4.6501
G01 X9.6001 Y6.3501
G01 X9.5994 Y6.3685
G01 X9.5982 Y6.3807
G01 X9.5964 Y6.3928
G01 X9.5926 Y6.4108
G01 X9.5893 Y6.4226
G01 X9.5854 Y6.4343
G01 X9.5810 Y6.4457
G01 X9.5734 Y6.4625
G01 X9.5676 Y6.4733
G01 X9.5579 Y6.4890
G01 X9.5509 Y6.4990
G01 X9.5433 Y6.5087
G01 X9.5353 Y6.5180
G01 X9.5224 Y6.5311
G01 X9.5134 Y6.5394
G01 X9.5004 Y6.5498
G01 X9.5004 Y17.8862
G01 X9.4965 Y17.9659
G01 X9.4949 Y17.9842
G01 X9.4823 Y18.0692
G01 X9.4799 Y18.0812
G01 X9.4754 Y18.0996
G01 X9.4733 Y18.1201
G01 X9.4610 Y18.2026
G01 X9.4589 Y18.2147
G01 X9.4562 Y18.2266
G01 X9.4360 Y18.3076
G01 X9.4308 Y18.3252
G01 X9.3986 Y18.4153
G01 X9.3939 Y18.4267
G01 X9.3804 Y18.4553
G01 X9.3804 Y18.7878
G01 X16.2664 Y25.6737
G01 X30.4820 Y25.6737
G01 X30.4953 Y25.6693
G01 X30.5071 Y25.6660
G01 X30.5832 Y25.6469
G01 X30.5952 Y25.6442
G01 X30.6073 Y25.6421
G01 X30.6850 Y25.6306
G01 X30.6971 Y25.6291
G01 X30.7094 Y25.6282
G01 X30.7878 Y25.6244
G01 X30.8001 Y25.6241
G01 X31.2001 Y25.6241
G01 X31.2123 Y25.6244
G01 X31.2969 Y25.6286
G01 X31.3152 Y25.6306
G01 X31.3928 Y25.6421
G01 X31.4049 Y25.6442
G01 X31.4169 Y25.6469
G01 X31.4930 Y25.6660
G01 X31.5049 Y25.6693
G01 X31.5165 Y25.6731
G01 X31.5904 Y25.6996
G01 X31.6019 Y25.7040
G01 X31.6131 Y25.7090
G01 X31.6841 Y25.7425
G01 X31.6950 Y25.7480
G01 X31.7057 Y25.7541
G01 X31.7730 Y25.7945
G01 X31.7834 Y25.8010
G01 X31.7934 Y25.8081
G01 X31.8565 Y25.8549
G01 X31.8662 Y25.8624
G01 X31.8755 Y25.8704
G01 X31.9336 Y25.9231
G01 X31.9425 Y25.9316
G01 X31.9510 Y25.9405
G01 X32.0037 Y25.9987
G01 X32.0117 Y26.0080
G01 X32.0193 Y26.0176
G01 X32.0660 Y26.0807
G01 X32.0731 Y26.0907
G01 X32.0797 Y26.1011
G01 X32.1200 Y26.1684
G01 X32.1261 Y26.1791
G01 X32.1316 Y26.1901
G01 X32.1652 Y26.2610
G01 X32.1701 Y26.2722
G01 X32.1746 Y26.2837
G01 X32.2010 Y26.3576
G01 X32.2049 Y26.3693
G01 X32.2081 Y26.3811
G01 X32.2272 Y26.4572
G01 X32.2299 Y26.4692
G01 X32.2320 Y26.4813
G01 X32.2435 Y26.5590
G01 X32.2450 Y26.5711
G01 X32.2459 Y26.5834
G01 X32.2498 Y26.6618
G01 X32.2501 Y26.6741
G01 X32.2498 Y26.6863
G01 X32.2459 Y26.7647
G01 X32.2450 Y26.7770
G01 X32.2435 Y26.7892
G01 X32.2320 Y26.8668
G01 X32.2299 Y26.8789
G01 X32.2272 Y26.8909
G01 X32.2081 Y26.9670
G01 X32.2030 Y26.9847
G01 X32.1746 Y27.0644
G01 X32.1701 Y27.0759
G01 X32.1652 Y27.0871
G01 X32.1316 Y27.1581
G01 X32.1261 Y27.1690
G01 X32.1200 Y27.1797
G01 X32.0797 Y27.2470
G01 X32.0731 Y27.2574
G01 X32.0660 Y27.2674
G01 X32.0193 Y27.3305
G01 X32.0117 Y27.3402
G01 X32.0037 Y27.3495
G01 X31.9510 Y27.4076
G01 X31.9425 Y27.4165
G01 X31.9336 Y27.4250
G01 X31.8755 Y27.4777
G01 X31.8662 Y27.4857
G01 X31.8565 Y27.4933
G01 X31.7934 Y27.5400
G01 X31.7834 Y27.5471
G01 X31.7730 Y27.5537
G01 X31.7057 Y27.5940
G01 X31.6950 Y27.6001
G01 X31.6841 Y27.6056
G01 X31.6131 Y27.6392
G01 X31.6019 Y27.6441
G01 X31.5904 Y27.6486
G01 X31.5165 Y27.6750
G01 X31.5049 Y27.6789
G01 X31.4930 Y27.6821
G01 X31.4169 Y27.7012
G01 X31.4049 Y27.7039
G01 X31.3928 Y27.7060
G01 X31.3152 Y27.7175
G01 X31.3030 Y27.7190
G01 X31.2907 Y27.7199
G01 X31.2123 Y27.7238
G01 X31.2001 Y27.7241
G01 X30.8001 Y27.7241
G01 X30.7878 Y27.7238
G01 X30.7033 Y27.7195
G01 X30.6850 Y27.7175
G01 X30.6073 Y27.7060
G01 X30.5952 Y27.7039
G01 X30.5832 Y27.7012
G01 X30.5071 Y27.6821
G01 X30.4953 Y27.6789
G01 X30.4820 Y27.6744
G01 X15.8520 Y27.6744
G01 X15.8397 Y27.6741
G01 X15.7662 Y27.6705
G01 X15.7539 Y27.6696
G01 X15.7418 Y27.6681
G01 X15.6689 Y27.6573
G01 X15.6568 Y27.6552
G01 X15.6448 Y27.6525
G01 X15.5734 Y27.6346
G01 X15.5557 Y27.6295
G01 X15.4806 Y27.6027
G01 X15.4692 Y27.5983
G01 X15.4579 Y27.5933
G01 X15.3914 Y27.5618
G01 X15.3804 Y27.5563
G01 X15.3697 Y27.5503
G01 X15.3066 Y27.5124
G01 X15.2962 Y27.5058
G01 X15.2862 Y27.4988
G01 X15.2270 Y27.4549
G01 X15.2174 Y27.4474
G01 X15.2081 Y27.4393
G01 X15.1535 Y27.3899
G01 X15.1446 Y27.3814
G01 X7.6727 Y19.9095
G01 X7.6642 Y19.9006
G01 X7.6148 Y19.8461
G01 X7.6068 Y19.8368
G01 X7.5992 Y19.8271
G01 X7.5553 Y19.7680
G01 X7.5483 Y19.7579
G01 X7.5417 Y19.7476
G01 X7.5039 Y19.6844
G01 X7.4978 Y19.6737
G01 X7.4923 Y19.6628
G01 X7.4608 Y19.5962
G01 X7.4558 Y19.5850
G01 X7.4514 Y19.5735
G01 X7.4266 Y19.5042
G01 X7.4228 Y19.4925
G01 X7.4195 Y19.4807
G01 X7.4016 Y19.4093
G01 X7.3978 Y19.3913
G01 X7.3860 Y19.3124
G01 X7.3845 Y19.3002
G01 X7.3836 Y19.2880
G01 X7.3798 Y19.2083
G01 X7.3797 Y18.4553
G00 Z3.0000
G00 X11.4241 Y18.9774
G01 F60.00
G01 Z-0.1000
G01 F120.00
G01 X11.4386 Y18.9702
G01 X11.4493 Y18.9641
G01 X11.5208 Y18.9212
G01 X11.5312 Y18.9147
G01 X11.5412 Y18.9076
G01 X11.6082 Y18.8579
G01 X11.6179 Y18.8504
G01 X11.6272 Y18.8424
G01 X11.6890 Y18.7863
G01 X11.6979 Y18.7779
G01 X11.7063 Y18.7690
G01 X11.7624 Y18.7072
G01 X11.7704 Y18.6979
G01 X11.7779 Y18.6882
G01 X11.8276 Y18.6212
G01 X11.8347 Y18.6112
G01 X11.8412 Y18.6008
G01 X11.8841 Y18.5293
G01 X11.8902 Y18.5186
G01 X11.8957 Y18.5076
G01 X11.9314 Y18.4322
G01 X11.9363 Y18.4210
G01 X11.9407 Y18.4096
G01 X11.9688 Y18.3310
G01 X11.9727 Y18.3194
G01 X11.9760 Y18.3076
G01 X11.9962 Y18.2266
G01 X11.9989 Y18.2147
G01 X12.0010 Y18.2026
G01 X12.0133 Y18.1201
G01 X12.0148 Y18.1079
G01 X12.0157 Y18.0956
G01 X12.0198 Y18.0123
G01 X12.0201 Y18.0001
G01 X12.0198 Y17.9878
G01 X12.0157 Y17.9045
G01 X12.0148 Y17.8922
G01 X12.0133 Y17.8801
G01 X12.0010 Y17.7976
G01 X11.9989 Y17.7855
G01 X11.9962 Y17.7735
G01 X11.9744 Y17.6866
G01 X11.9688 Y17.6691
G01 X11.9407 Y17.5906
G01 X11.9363 Y17.5791
G01 X11.9314 Y17.5679
G01 X11.8914 Y17.4838
G01 X11.8954 Y17.4771
G01 X11.9037 Y17.4868
G01 X11.9119 Y17.4956
G01 X11.9247 Y17.5085
G01 X11.9335 Y17.5166
G01 X11.9568 Y17.5358
G01 X11.9765 Y17.5498
G01 X11.9866 Y17.5563
G01 X12.0129 Y17.5711
G01 X12.0236 Y17.5764
G01 X12.0403 Y17.5837
G01 X12.0514 Y17.5882
G01 X12.0627 Y17.5922
G01 X12.0800 Y17.5978
G01 X12.0916 Y17.6009
G01 X12.1211 Y17.6072
G01 X12.1510 Y17.6111
G01 X12.1630 Y17.6120
G01 X12.1812 Y17.6125
G01 X12.1932 Y17.6126
G01 X12.2052 Y17.6120
G01 X12.2233 Y17.6107
G01 X12.2352 Y17.6093
G01 X12.2649 Y17.6041
G01 X12.2941 Y17.5965
G01 X12.3056 Y17.5928
G01 X12.3226 Y17.5865
G01 X12.3338 Y17.5820
G01 X12.3447 Y17.5770
G01 X12.3610 Y17.5690
G01 X12.3715 Y17.5632
G01 X12.3971 Y17.5473
G01 X12.4213 Y17.5293
G01 X12.4306 Y17.5216
G01 X12.4440 Y17.5094
G01 X12.4527 Y17.5011
G01 X12.4609 Y17.4923
G01 X12.4730 Y17.4788
G01 X12.4806 Y17.4695
G01 X12.4984 Y17.4451
G01 X12.5151 Y17.4195
G01 X12.5246 Y17.4035
G01 X12.5304 Y17.3927
G01 X12.5434 Y17.3646
G01 X12.5540 Y17.3357
G01 X12.5576 Y17.3239
G01 X12.5622 Y17.3059
G01 X12.5649 Y17.2939
G01 X12.5670 Y17.2818
G01 X12.5696 Y17.2634
G01 X12.5708 Y17.2512
G01 X12.5721 Y17.2203
G01 X12.5721 Y6.4260
G01 X12.5709 Y6.3957
G01 X12.5689 Y6.3778
G01 X12.5652 Y6.3538
G01 X12.5596 Y6.3302
G01 X12.5547 Y6.3128
G01 X12.5467 Y6.2899
G01 X12.5397 Y6.2732
G01 X12.5292 Y6.2513
G01 X12.5141 Y6.2251
G01 X12.5041 Y6.2101
G01 X12.4896 Y6.1906
G01 X12.4738 Y6.1722
G01 X12.4614 Y6.1591
G01 X12.4391 Y6.1386
G01 X12.4200 Y6.1235
G01 X12.4053 Y6.1130
G01 X12.3848 Y6.1002
G01 X12.3689 Y6.0915
G01 X12.3471 Y6.0809
G01 X12.3245 Y6.0720
G01 X12.3074 Y6.0661
G01 X12.2782 Y6.0582
G01 X12.2543 Y6.0537
G01 X12.2365 Y6.0512
G01 X12.2123 Y6.0493
G01 X12.1942 Y6.0490
G01 X12.1699 Y6.0498
G01 X12.1458 Y6.0523
G01 X12.1280 Y6.0550
G01 X12.1042 Y6.0601
G01 X12.0868 Y6.0649
G01 X12.0638 Y6.0725
G01 X12.0404 Y6.0822
G01 X12.0404 Y5.9553
G01 X12.0539 Y5.9267
G01 X12.0586 Y5.9153
G01 X12.0888 Y5.8310
G01 X12.0944 Y5.8135
G01 X12.1162 Y5.7266
G01 X12.1189 Y5.7147
G01 X12.1210 Y5.7026
G01 X12.1333 Y5.6201
G01 X12.1348 Y5.6079
G01 X12.1357 Y5.5956
G01 X12.1398 Y5.5123
G01 X12.1401 Y5.5001
G01 X12.1398 Y5.4878
G01 X12.1357 Y5.4045
G01 X12.1348 Y5.3922
G01 X12.1333 Y5.3801
G01 X12.1210 Y5.2976
G01 X12.1189 Y5.2855
G01 X12.1162 Y5.2735
G01 X12.0960 Y5.1926
G01 X12.0908 Y5.1749
G01 X12.0607 Y5.0906
G01 X12.0563 Y5.0791
G01 X12.0514 Y5.0679
G01 X12.0157 Y4.9925
G01 X12.0102 Y4.9815
G01 X12.0041 Y4.9709
G01 X11.9612 Y4.8993
G01 X11.9547 Y4.8889
G01 X11.9476 Y4.8789
G01 X11.8979 Y4.8119
G01 X11.8904 Y4.8022
G01 X11.8824 Y4.7929
G01 X11.8263 Y4.7311
G01 X11.8179 Y4.7222
G01 X11.8090 Y4.7138
G01 X11.7472 Y4.6578
G01 X11.7379 Y4.6498
G01 X11.7282 Y4.6422
G01 X11.6612 Y4.5925
G01 X11.6512 Y4.5854
G01 X11.6408 Y4.5789
G01 X11.5693 Y4.5360
G01 X11.5586 Y4.5300
G01 X11.5441 Y4.5228
G01 X11.5441 Y4.5209
G01 X11.6113 Y4.5529
G01 X11.7851 Y4.6825
G01 X11.9150 Y4.8266
G01 X11.9319 Y4.8440
G01 X11.9451 Y4.8564
G01 X11.9637 Y4.8719
G01 X11.9734 Y4.8791
G01 X11.9934 Y4.8927
G01 X12.0037 Y4.8990
G01 X12.0250 Y4.9106
G01 X12.0358 Y4.9159
G01 X12.0582 Y4.9254
G01 X12.0695 Y4.9296
G01 X12.0984 Y4.9386
G01 X12.1221 Y4.9440
G01 X12.1398 Y4.9471
G01 X12.1699 Y4.9504
G01 X12.2002 Y4.9511
G01 X12.2183 Y4.9504
G01 X12.2365 Y4.9489
G01 X12.2484 Y4.9474
G01 X12.2782 Y4.9419
G01 X12.3074 Y4.9340
G01 X12.3245 Y4.9282
G01 X12.3415 Y4.9216
G01 X12.3526 Y4.9167
G01 X12.3796 Y4.9030
G01 X12.4053 Y4.8871
G01 X12.4200 Y4.8766
G01 X12.4391 Y4.8616
G01 X12.4614 Y4.8410
G01 X12.4698 Y4.8324
G01 X12.4819 Y4.8188
G01 X12.4896 Y4.8095
G01 X12.4969 Y4.8000
G01 X12.5075 Y4.7851
G01 X12.5141 Y4.7750
G01 X12.5292 Y4.7488
G01 X12.5422 Y4.7214
G01 X12.5467 Y4.7102
G01 X12.5528 Y4.6930
G01 X12.5565 Y4.6816
G01 X12.5596 Y4.6700
G01 X12.5639 Y4.6522
G01 X12.5662 Y4.6404
G01 X12.5704 Y4.6104
G01 X12.5718 Y4.5862
G01 X12.5721 Y4.5741
G01 X12.5721 Y4.3866
G01 X12.5699 Y4.3524
G01 X12.5680 Y4.3363
G01 X12.5714 Y4.2789
G01 X12.5721 Y4.2485
G01 X12.5752 Y4.2158
G01 X12.5800 Y4.1367
G01 X12.5842 Y4.1161
G01 X12.5863 Y4.1018
G01 X12.6093 Y4.0259
G01 X12.6307 Y3.9447
G01 X12.6388 Y3.9253
G01 X12.6437 Y3.9117
G01 X12.6810 Y3.8418
G01 X12.6955 Y3.8123
G01 X12.7108 Y3.7860
G01 X12.7379 Y3.7353
G01 X12.7514 Y3.7180
G01 X12.7647 Y3.6993
G01 X12.7708 Y3.6897
G01 X13.4974 Y2.5078
G01 X13.5088 Y2.4881
G01 X13.5359 Y2.4374
G01 X13.5882 Y2.3734
G01 X13.6361 Y2.3103
G01 X13.6510 Y2.2955
G01 X13.6607 Y2.2848
G01 X13.7219 Y2.2345
G01 X13.7849 Y2.1789
G01 X13.8025 Y2.1673
G01 X13.8140 Y2.1586
G01 X13.8839 Y2.1212
G01 X13.9565 Y2.0789
G01 X13.9760 Y2.0710
G01 X13.9890 Y2.0648
G01 X14.0648 Y2.0417
G01 X14.1443 Y2.0144
G01 X14.1650 Y2.0104
G01 X14.1789 Y2.0069
G01 X14.2578 Y1.9990
G01 X14.3397 Y1.9880
G01 X14.3970 Y1.9914
G01 X14.4198 Y1.9921
G01 X41.9870 Y1.9921
G01 X42.0802 Y1.9904
G01 X42.1239 Y1.9983
G01 X42.1436 Y2.0012
G01 X42.1977 Y2.0067
G01 X42.2291 Y2.0158
G01 X42.2507 Y2.0209
G01 X42.2756 Y2.0255
G01 X42.3170 Y2.0417
G01 X42.3358 Y2.0484
G01 X42.3876 Y2.0643
G01 X42.4167 Y2.0794
G01 X42.4369 Y2.0886
G01 X42.4605 Y2.0979
G01 X42.4978 Y2.1219
G01 X42.5150 Y2.1322
G01 X42.5628 Y2.1579
G01 X42.5883 Y2.1784
G01 X42.6063 Y2.1913
G01 X42.6276 Y2.2051
G01 X42.6596 Y2.2359
G01 X42.6744 Y2.2493
G01 X42.7162 Y2.2839
G01 X42.7755 Y2.3560
G01 X51.7122 Y12.8338
G01 X51.7202 Y12.8427
G01 X51.7370 Y12.8601
G01 X51.7596 Y12.8802
G01 X51.7690 Y12.8877
G01 X51.7886 Y12.9019
G01 X51.7987 Y12.9084
G01 X51.8144 Y12.9177
G01 X51.8302 Y12.9262
G01 X51.8467 Y12.9339
G01 X51.8578 Y12.9386
G01 X51.8690 Y12.9429
G01 X51.8862 Y12.9488
G01 X51.8977 Y12.9522
G01 X51.9212 Y12.9580
G01 X51.9330 Y12.9603
G01 X51.9630 Y12.9644
G01 X51.9871 Y12.9658
G01 X51.9991 Y12.9661
G01 X52.8054 Y12.9661
G01 X52.8302 Y12.9652
G01 X52.8485 Y12.9636
G01 X52.8730 Y12.9600
G01 X52.8910 Y12.9562
G01 X52.9149 Y12.9499
G01 X52.9440 Y12.9397
G01 X52.9554 Y12.9350
G01 X52.9722 Y12.9271
G01 X52.9886 Y12.9186
G01 X53.0149 Y12.9026
G01 X53.0398 Y12.8844
G01 X53.0493 Y12.8766
G01 X53.0632 Y12.8641
G01 X53.0763 Y12.8513
G01 X53.0969 Y12.8283
G01 X53.1155 Y12.8036
G01 X53.1255 Y12.7882
G01 X53.1350 Y12.7722
G01 X53.1408 Y12.7614
G01 X53.1538 Y12.7334
G01 X53.1644 Y12.7044
G01 X53.1680 Y12.6926
G01 X53.1726 Y12.6746
G01 X53.1764 Y12.6566
G01 X53.1807 Y12.6260
G01 X53.1822 Y12.6013
G01 X53.1825 Y12.5891
G01 X53.1822 Y12.5768
G01 X53.1807 Y12.5521
G01 X53.1773 Y12.5276
G01 X53.1752 Y12.5155
G01 X53.1726 Y12.5035
G01 X53.1663 Y12.4796
G01 X53.1561 Y12.4505
G01 X53.1514 Y12.4391
G01 X53.1408 Y12.4168
G01 X53.1350 Y12.4059
G01 X53.1255 Y12.3899
G01 X53.1155 Y12.3745
G01 X53.0969 Y12.3499
G01 X53.0805 Y12.3313
G01 X53.0677 Y12.3182
G01 X53.0446 Y12.2976
G01 X52.9084 Y12.1858
G01 X52.7762 Y12.0247
G01 X52.6779 Y11.8409
G01 X52.6174 Y11.6415
G01 X52.5970 Y11.4341
G01 X52.6174 Y11.2267
G01 X52.6779 Y11.0272
G01 X52.7762 Y10.8435
G01 X52.9084 Y10.6824
G01 X53.0695 Y10.5502
G01 X53.1697 Y10.4966
G01 X53.1803 Y10.4906
G01 X53.2014 Y10.4776
G01 X53.2215 Y10.4631
G01 X53.2358 Y10.4516
G01 X53.2585 Y10.4307
G01 X53.2754 Y10.4126
G01 X53.2834 Y10.4033
G01 X53.2909 Y10.3936
G01 X53.3020 Y10.3786
G01 X53.3088 Y10.3684
G01 X53.3245 Y10.3418
G01 X53.3353 Y10.3196
G01 X53.3403 Y10.3084
G01 X53.3447 Y10.2969
G01 X53.3527 Y10.2735
G01 X53.3605 Y10.2436
G01 X53.3629 Y10.2316
G01 X53.3657 Y10.2132
G01 X53.3672 Y10.2010
G01 X53.3681 Y10.1888
G01 X53.3689 Y10.1702
G01 X53.3689 Y10.1579
G01 X53.3677 Y10.1332
G01 X53.3665 Y10.1210
G01 X53.3617 Y10.0905
G01 X53.3591 Y10.0785
G01 X53.3527 Y10.0546
G01 X53.3447 Y10.0312
G01 X53.3403 Y10.0198
G01 X53.3353 Y10.0085
G01 X53.3245 Y9.9863
G01 X53.3184 Y9.9756
G01 X53.3054 Y9.9546
G01 X53.2872 Y9.9296
G01 X53.2754 Y9.9156
G01 X53.2585 Y9.8974
G01 X53.2358 Y9.8765
G01 X53.2215 Y9.8650
G01 X53.2014 Y9.8505
G01 X53.1750 Y9.8345
G01 X53.0695 Y9.7780
G01 X52.9084 Y9.6458
G01 X52.7762 Y9.4847
G01 X52.6779 Y9.3009
G01 X52.6174 Y9.1015
G01 X52.5970 Y8.8941
G01 X52.6174 Y8.6867
G01 X52.6779 Y8.4872
G01 X52.7762 Y8.3035
G01 X52.9084 Y8.1424
G01 X53.0695 Y8.0102
G01 X53.2532 Y7.9119
G01 X53.4527 Y7.8514
G01 X53.6081 Y7.8361
G01 X54.1120 Y7.8361
G01 X54.2675 Y7.8514
G01 X54.4669 Y7.9119
G01 X54.6507 Y8.0102
G01 X54.8118 Y8.1424
G01 X54.9440 Y8.3035
G01 X55.0422 Y8.4872
G01 X55.1027 Y8.6867
G01 X55.1231 Y8.8941
G01 X55.1027 Y9.1015
G01 X55.0422 Y9.3009
G01 X54.9440 Y9.4847
G01 X54.8118 Y9.6458
G01 X54.6507 Y9.7780
G01 X54.5451 Y9.8345
G01 X54.5187 Y9.8505
G01 X54.4987 Y9.8650
G01 X54.4843 Y9.8765
G01 X54.4660 Y9.8932
G01 X54.4531 Y9.9063
G01 X54.4367 Y9.9249
G01 X54.4218 Y9.9445
G01 X54.4147 Y9.9546
G01 X54.3986 Y9.9809
G01 X54.3928 Y9.9918
G01 X54.3848 Y10.0085
G01 X54.3798 Y10.0198
G01 X54.3754 Y10.0312
G01 X54.3692 Y10.0488
G01 X54.3657 Y10.0605
G01 X54.3597 Y10.0845
G01 X54.3573 Y10.0965
G01 X54.3530 Y10.1271
G01 X54.3521 Y10.1393
G01 X54.3511 Y10.1641
G01 X54.3514 Y10.1763
G01 X54.3530 Y10.2010
G01 X54.3573 Y10.2316
G01 X54.3597 Y10.2436
G01 X54.3657 Y10.2676
G01 X54.3692 Y10.2794
G01 X54.3754 Y10.2969
G01 X54.3798 Y10.3084
G01 X54.3848 Y10.3196
G01 X54.3928 Y10.3364
G01 X54.4017 Y10.3525
G01 X54.4113 Y10.3684
G01 X54.4182 Y10.3786
G01 X54.4329 Y10.3985
G01 X54.4407 Y10.4080
G01 X54.4616 Y10.4307
G01 X54.4797 Y10.4475
G01 X54.4938 Y10.4594
G01 X54.5187 Y10.4776
G01 X54.5291 Y10.4841
G01 X54.5505 Y10.4966
G01 X54.6507 Y10.5502
G01 X54.8118 Y10.6824
G01 X54.9440 Y10.8435
G01 X55.0422 Y11.0272
G01 X55.1027 Y11.2267
G01 X55.1231 Y11.4341
G01 X55.1027 Y11.6415
G01 X55.0422 Y11.8409
G01 X54.9440 Y12.0247
G01 X54.8118 Y12.1858
G01 X54.6507 Y12.3180
G01 X54.5505 Y12.3715
G01 X54.5398 Y12.3776
G01 X54.5187 Y12.3905
G01 X54.4938 Y12.4088
G01 X54.4797 Y12.4206
G01 X54.4616 Y12.4374
G01 X54.4407 Y12.4602
G01 X54.4329 Y12.4696
G01 X54.4182 Y12.4895
G01 X54.4113 Y12.4997
G01 X54.4017 Y12.5156
G01 X54.3928 Y12.5318
G01 X54.3848 Y12.5485
G01 X54.3798 Y12.5598
G01 X54.3754 Y12.5712
G01 X54.3692 Y12.5888
G01 X54.3657 Y12.6005
G01 X54.3597 Y12.6245
G01 X54.3573 Y12.6365
G01 X54.3530 Y12.6671
G01 X54.3521 Y12.6793
G01 X54.3511 Y12.7041
G01 X54.3514 Y12.7163
G01 X54.3530 Y12.7410
G01 X54.3573 Y12.7716
G01 X54.3597 Y12.7836
G01 X54.3657 Y12.8076
G01 X54.3692 Y12.8194
G01 X54.3754 Y12.8369
G01 X54.3798 Y12.8484
G01 X54.3848 Y12.8596
G01 X54.3928 Y12.8764
G01 X54.4017 Y12.8925
G01 X54.4113 Y12.9084
G01 X54.4182 Y12.9186
G01 X54.4329 Y12.9385
G01 X54.4407 Y12.9480
G01 X54.4616 Y12.9707
G01 X54.4797 Y12.9875
G01 X54.4938 Y12.9994
G01 X54.5187 Y13.0176
G01 X54.5291 Y13.0241
G01 X54.5505 Y13.0366
G01 X54.6507 Y13.0902
G01 X54.8118 Y13.2224
G01 X54.9440 Y13.3835
G01 X55.0422 Y13.5672
G01 X55.1027 Y13.7667
G01 X55.1231 Y13.9741
G01 X55.1027 Y14.1815
G01 X55.0422 Y14.3809
G01 X54.9440 Y14.5647
G01 X54.8118 Y14.7258
G01 X54.6507 Y14.8580
G01 X54.5505 Y14.9115
G01 X54.5398 Y14.9176
G01 X54.5187 Y14.9305
G01 X54.4938 Y14.9488
G01 X54.4797 Y14.9606
G01 X54.4616 Y14.9774
G01 X54.4407 Y15.0002
G01 X54.4329 Y15.0096
G01 X54.4182 Y15.0295
G01 X54.4113 Y15.0397
G01 X54.4017 Y15.0556
G01 X54.3957 Y15.0663
G01 X54.3901 Y15.0773
G01 X54.3823 Y15.0941
G01 X54.3776 Y15.1055
G01 X54.3674 Y15.1346
G01 X54.3611 Y15.1585
G01 X54.3584 Y15.1705
G01 X54.3545 Y15.1949
G01 X54.3530 Y15.2071
G01 X54.3512 Y15.2379
G01 X54.3512 Y15.2502
G01 X54.3524 Y15.2749
G01 X54.3536 Y15.2871
G01 X54.3573 Y15.3116
G01 X54.3597 Y15.3236
G01 X54.3657 Y15.3476
G01 X54.3692 Y15.3594
G01 X54.3754 Y15.3769
G01 X54.3798 Y15.3884
G01 X54.3848 Y15.3996
G01 X54.3928 Y15.4164
G01 X54.4017 Y15.4325
G01 X54.4113 Y15.4484
G01 X54.4182 Y15.4586
G01 X54.4329 Y15.4785
G01 X54.4407 Y15.4880
G01 X54.4616 Y15.5107
G01 X54.4797 Y15.5275
G01 X54.4938 Y15.5394
G01 X54.5187 Y15.5576
G01 X54.5291 Y15.5641
G01 X54.5505 Y15.5766
G01 X54.6507 Y15.6302
G01 X54.8118 Y15.7624
G01 X54.9440 Y15.9235
G01 X55.0422 Y16.1072
G01 X55.1027 Y16.3067
G01 X55.1231 Y16.5141
G01 X55.1027 Y16.7215
G01 X55.0422 Y16.9209
G01 X54.9440 Y17.1047
G01 X54.8118 Y17.2658
G01 X54.6507 Y17.3980
G01 X54.5505 Y17.4515
G01 X54.5398 Y17.4576
G01 X54.5187 Y17.4705
G01 X54.4938 Y17.4888
G01 X54.4797 Y17.5006
G01 X54.4616 Y17.5174
G01 X54.4407 Y17.5402
G01 X54.4329 Y17.5496
G01 X54.4182 Y17.5695
G01 X54.4113 Y17.5797
G01 X54.4017 Y17.5956
G01 X54.3957 Y17.6063
G01 X54.3901 Y17.6173
G01 X54.3823 Y17.6341
G01 X54.3776 Y17.6455
G01 X54.3674 Y17.6746
G01 X54.3611 Y17.6985
G01 X54.3584 Y17.7105
G01 X54.3545 Y17.7349
G01 X54.3530 Y17.7471
G01 X54.3512 Y17.7779
G01 X54.3512 Y17.7902
G01 X54.3524 Y17.8149
G01 X54.3536 Y17.8271
G01 X54.3573 Y17.8516
G01 X54.3597 Y17.8636
G01 X54.3657 Y17.8876
G01 X54.3692 Y17.8994
G01 X54.3754 Y17.9169
G01 X54.3798 Y17.9284
G01 X54.3848 Y17.9396
G01 X54.3928 Y17.9564
G01 X54.4017 Y17.9725
G01 X54.4113 Y17.9884
G01 X54.4182 Y17.9986
G01 X54.4329 Y18.0185
G01 X54.4407 Y18.0280
G01 X54.4616 Y18.0507
G01 X54.4797 Y18.0675
G01 X54.4938 Y18.0794
G01 X54.5187 Y18.0976
G01 X54.5291 Y18.1041
G01 X54.5505 Y18.1166
G01 X54.6507 Y18.1702
G01 X54.8118 Y18.3024
G01 X54.9440 Y18.4635
G01 X55.0422 Y18.6472
G01 X55.1027 Y18.8467
G01 X55.1231 Y19.0541
G01 X55.1027 Y19.2615
G01 X55.0422 Y19.4609
G01 X54.9440 Y19.6447
G01 X54.8118 Y19.8058
G01 X54.6507 Y19.9380
G01 X54.5451 Y19.9945
G01 X54.5187 Y20.0105
G01 X54.4987 Y20.0250
G01 X54.4843 Y20.0365
G01 X54.4660 Y20.0532
G01 X54.4531 Y20.0663
G01 X54.4367 Y20.0849
G01 X54.4218 Y20.1045
G01 X54.4147 Y20.1146
G01 X54.3986 Y20.1409
G01 X54.3928 Y20.1518
G01 X54.3848 Y20.1685
G01 X54.3798 Y20.1798
G01 X54.3754 Y20.1912
G01 X54.3692 Y20.2088
G01 X54.3657 Y20.2205
G01 X54.3584 Y20.2505
G01 X54.3545 Y20.2749
G01 X54.3530 Y20.2871
G01 X54.3512 Y20.3179
G01 X54.3512 Y20.3302
G01 X54.3524 Y20.3549
G01 X54.3536 Y20.3671
G01 X54.3573 Y20.3916
G01 X54.3597 Y20.4036
G01 X54.3657 Y20.4276
G01 X54.3692 Y20.4394
G01 X54.3754 Y20.4569
G01 X54.3798 Y20.4684
G01 X54.3848 Y20.4796
G01 X54.3928 Y20.4964
G01 X54.4017 Y20.5125
G01 X54.4113 Y20.5284
G01 X54.4182 Y20.5386
G01 X54.4329 Y20.5585
G01 X54.4407 Y20.5680
G01 X54.4616 Y20.5907
G01 X54.4797 Y20.6075
G01 X54.4938 Y20.6194
G01 X54.5187 Y20.6376
G01 X54.5291 Y20.6441
G01 X54.5505 Y20.6566
G01 X54.6507 Y20.7102
G01 X54.8118 Y20.8424
G01 X54.9440 Y21.0035
G01 X55.0422 Y21.1872
G01 X55.1027 Y21.3867
G01 X55.1231 Y21.5941
G01 X55.1027 Y21.8015
G01 X55.0422 Y22.0009
G01 X54.9440 Y22.1847
G01 X54.8118 Y22.3458
G01 X54.6507 Y22.4780
G01 X54.5486 Y22.5326
G01 X54.5223 Y22.5486
G01 X54.5024 Y22.5630
G01 X54.4880 Y22.5745
G01 X54.4698 Y22.5910
G01 X54.4569 Y22.6041
G01 X54.4406 Y22.6226
G01 X54.4220 Y22.6471
G01 X54.4152 Y22.6573
G01 X54.4056 Y22.6731
G01 X54.3996 Y22.6837
G01 X54.3940 Y22.6946
G01 X54.3861 Y22.7114
G01 X54.3814 Y22.7227
G01 X54.3712 Y22.7517
G01 X54.3679 Y22.7635
G01 X54.3621 Y22.7874
G01 X54.3573 Y22.8178
G01 X54.3561 Y22.8300
G01 X54.3550 Y22.8485
G01 X54.3547 Y22.8668
G01 X54.3555 Y22.8853
G01 X54.3563 Y22.8975
G01 X54.3578 Y22.9097
G01 X54.3605 Y22.9280
G01 X54.3628 Y22.9400
G01 X54.3687 Y22.9640
G01 X54.3722 Y22.9757
G01 X54.3826 Y23.0046
G01 X54.3927 Y23.0271
G01 X54.3982 Y23.0380
G01 X54.4041 Y23.0487
G01 X54.4169 Y23.0698
G01 X54.4313 Y23.0898
G01 X54.4387 Y23.0995
G01 X54.4591 Y23.1226
G01 X54.4721 Y23.1355
G01 X54.4904 Y23.1519
G01 X54.5149 Y23.1706
G01 X54.5250 Y23.1775
G01 X54.5460 Y23.1903
G01 X54.5647 Y23.2001
G01 X54.7400 Y23.3193
G01 X54.8859 Y23.4676
G01 X54.9925 Y23.6300
G01 X54.9810 Y23.6300
G01 X54.9397 Y23.5611
G01 X54.9331 Y23.5507
G01 X54.9260 Y23.5407
G01 X54.8793 Y23.4776
G01 X54.8678 Y23.4633
G01 X54.8110 Y23.4005
G01 X54.8025 Y23.3916
G01 X54.7936 Y23.3831
G01 X54.7309 Y23.3264
G01 X54.7165 Y23.3149
G01 X54.6534 Y23.2681
G01 X54.6434 Y23.2610
G01 X54.6330 Y23.2545
G01 X54.5657 Y23.2141
G01 X54.5550 Y23.2080
G01 X54.5441 Y23.2025
G01 X54.4731 Y23.1690
G01 X54.4619 Y23.1640
G01 X54.4504 Y23.1596
G01 X54.3765 Y23.1331
G01 X54.3649 Y23.1293
G01 X54.3530 Y23.1260
G01 X54.2769 Y23.1069
G01 X54.2649 Y23.1042
G01 X54.2528 Y23.1021
G01 X54.1752 Y23.0906
G01 X54.1630 Y23.0891
G01 X54.1507 Y23.0882
G01 X54.0723 Y23.0844
G01 X54.0601 Y23.0841
G01 X53.6601 Y23.0841
G01 X53.6478 Y23.0844
G01 X53.5694 Y23.0882
G01 X53.5571 Y23.0891
G01 X53.5450 Y23.0906
G01 X53.4673 Y23.1021
G01 X53.4552 Y23.1042
G01 X53.4432 Y23.1069
G01 X53.3671 Y23.1260
G01 X53.3553 Y23.1293
G01 X53.3436 Y23.1331
G01 X53.2697 Y23.1596
G01 X53.2582 Y23.1640
G01 X53.2470 Y23.1690
G01 X53.1761 Y23.2025
G01 X53.1651 Y23.2080
G01 X53.1544 Y23.2141
G01 X53.0871 Y23.2545
G01 X53.0767 Y23.2610
G01 X53.0667 Y23.2681
G01 X53.0036 Y23.3149
G01 X52.9940 Y23.3224
G01 X52.9847 Y23.3304
G01 X52.9220 Y23.3873
G01 X52.9091 Y23.4005
G01 X52.8564 Y23.4587
G01 X52.8484 Y23.4680
G01 X52.8409 Y23.4776
G01 X52.7941 Y23.5407
G01 X52.7870 Y23.5507
G01 X52.7805 Y23.5611
G01 X52.7392 Y23.6300
G01 X52.7277 Y23.6300
G01 X52.8343 Y23.4676
G01 X52.9802 Y23.3193
G01 X53.1555 Y23.2001
G01 X53.1741 Y23.1903
G01 X53.1951 Y23.1775
G01 X53.2053 Y23.1706
G01 X53.2249 Y23.1558
G01 X53.2389 Y23.1439
G01 X53.2568 Y23.1270
G01 X53.2775 Y23.1042
G01 X53.2852 Y23.0947
G01 X53.2962 Y23.0798
G01 X53.3032 Y23.0698
G01 X53.3097 Y23.0594
G01 X53.3190 Y23.0434
G01 X53.3247 Y23.0326
G01 X53.3375 Y23.0046
G01 X53.3480 Y22.9757
G01 X53.3515 Y22.9640
G01 X53.3559 Y22.9460
G01 X53.3586 Y22.9340
G01 X53.3606 Y22.9220
G01 X53.3632 Y22.9036
G01 X53.3643 Y22.8914
G01 X53.3655 Y22.8607
G01 X53.3645 Y22.8361
G01 X53.3635 Y22.8239
G01 X53.3620 Y22.8118
G01 X53.3580 Y22.7874
G01 X53.3522 Y22.7635
G01 X53.3489 Y22.7517
G01 X53.3451 Y22.7401
G01 X53.3364 Y22.7170
G01 X53.3261 Y22.6946
G01 X53.3206 Y22.6837
G01 X53.3081 Y22.6625
G01 X53.3016 Y22.6521
G01 X53.2945 Y22.6422
G01 X53.2795 Y22.6226
G01 X53.2632 Y22.6041
G01 X53.2504 Y22.5910
G01 X53.2321 Y22.5745
G01 X53.2178 Y22.5630
G01 X53.1978 Y22.5486
G01 X53.1715 Y22.5326
G01 X53.0695 Y22.4780
G01 X52.9084 Y22.3458
G01 X52.7762 Y22.1847
G01 X52.6779 Y22.0009
G01 X52.6174 Y21.8015
G01 X52.5970 Y21.5941
G01 X52.6174 Y21.3867
G01 X52.6779 Y21.1872
G01 X52.7762 Y21.0035
G01 X52.9084 Y20.8424
G01 X53.0695 Y20.7102
G01 X53.1697 Y20.6566
G01 X53.1963 Y20.6409
G01 X53.2114 Y20.6305
G01 X53.2311 Y20.6155
G01 X53.2542 Y20.5950
G01 X53.2670 Y20.5818
G01 X53.2794 Y20.5680
G01 X53.2872 Y20.5585
G01 X53.3054 Y20.5335
G01 X53.3215 Y20.5072
G01 X53.3273 Y20.4964
G01 X53.3353 Y20.4796
G01 X53.3403 Y20.4684
G01 X53.3447 Y20.4569
G01 X53.3509 Y20.4394
G01 X53.3545 Y20.4276
G01 X53.3617 Y20.3976
G01 X53.3665 Y20.3671
G01 X53.3677 Y20.3549
G01 X53.3689 Y20.3302
G01 X53.3689 Y20.3179
G01 X53.3681 Y20.2993
G01 X53.3665 Y20.2810
G01 X53.3638 Y20.2626
G01 X53.3617 Y20.2505
G01 X53.3591 Y20.2385
G01 X53.3545 Y20.2205
G01 X53.3509 Y20.2088
G01 X53.3426 Y20.1855
G01 X53.3379 Y20.1741
G01 X53.3245 Y20.1463
G01 X53.3184 Y20.1356
G01 X53.3054 Y20.1146
G01 X53.2872 Y20.0896
G01 X53.2794 Y20.0802
G01 X53.2670 Y20.0663
G01 X53.2585 Y20.0574
G01 X53.2497 Y20.0490
G01 X53.2358 Y20.0365
G01 X53.2263 Y20.0288
G01 X53.2014 Y20.0105
G01 X53.1750 Y19.9945
G01 X53.0695 Y19.9380
G01 X52.9084 Y19.8058
G01 X52.7762 Y19.6447
G01 X52.6779 Y19.4609
G01 X52.6174 Y19.2615
G01 X52.5970 Y19.0541
G01 X52.6174 Y18.8467
G01 X52.6779 Y18.6472
G01 X52.7762 Y18.4635
G01 X52.9084 Y18.3024
G01 X53.0493 Y18.1866
G01 X53.0721 Y18.1657
G01 X53.0930 Y18.1430
G01 X53.1045 Y18.1286
G01 X53.1189 Y18.1085
G01 X53.1319 Y18.0875
G01 X53.1380 Y18.0768
G01 X53.1435 Y18.0658
G01 X53.1538 Y18.0434
G01 X53.1582 Y18.0319
G01 X53.1663 Y18.0085
G01 X53.1726 Y17.9846
G01 X53.1764 Y17.9666
G01 X53.1807 Y17.9360
G01 X53.1822 Y17.9113
G01 X53.1824 Y17.8929
G01 X53.1807 Y17.8621
G01 X53.1773 Y17.8376
G01 X53.1740 Y17.8195
G01 X53.1680 Y17.7955
G01 X53.1624 Y17.7780
G01 X53.1538 Y17.7548
G01 X53.1408 Y17.7268
G01 X53.1319 Y17.7106
G01 X53.1189 Y17.6896
G01 X53.1007 Y17.6646
G01 X53.0889 Y17.6506
G01 X53.0763 Y17.6368
G01 X53.0677 Y17.6282
G01 X53.0493 Y17.6115
G01 X53.0350 Y17.6000
G01 X53.0149 Y17.5855
G01 X52.9939 Y17.5726
G01 X52.9777 Y17.5637
G01 X52.9609 Y17.5557
G01 X52.9440 Y17.5484
G01 X52.9207 Y17.5401
G01 X52.9090 Y17.5365
G01 X52.8850 Y17.5305
G01 X52.8730 Y17.5281
G01 X52.8485 Y17.5245
G01 X52.8363 Y17.5233
G01 X52.8177 Y17.5223
G01 X52.8054 Y17.5220
G01 X50.0277 Y17.5220
G01 X49.9411 Y17.5252
G01 X49.8829 Y17.5160
G01 X49.8684 Y17.5140
G01 X49.8025 Y17.5074
G01 X49.7825 Y17.5020
G01 X49.7598 Y17.4968
G01 X49.7450 Y17.4942
G01 X49.6897 Y17.4739
G01 X49.6758 Y17.4691
G01 X49.6125 Y17.4498
G01 X49.5939 Y17.4405
G01 X49.5726 Y17.4311
G01 X49.5587 Y17.4256
G01 X49.5084 Y17.3949
G01 X49.4957 Y17.3875
G01 X49.4374 Y17.3562
G01 X49.4256 Y17.3469
G01 X49.4067 Y17.3333
G01 X49.3893 Y17.3220
G01 X49.3406 Y17.2772
G01 X49.3295 Y17.2676
G01 X49.2839 Y17.2302
G01 X49.2287 Y17.1634
G01 X39.8592 Y6.6344
G01 X39.8512 Y6.6258
G01 X39.8345 Y6.6091
G01 X39.8167 Y6.5937
G01 X39.8076 Y6.5863
G01 X39.7884 Y6.5726
G01 X39.7786 Y6.5661
G01 X39.7685 Y6.5601
G01 X39.7479 Y6.5487
G01 X39.7373 Y6.5436
G01 X39.7156 Y6.5342
G01 X39.6934 Y6.5263
G01 X39.6822 Y6.5228
G01 X39.6709 Y6.5198
G01 X39.6478 Y6.5146
G01 X39.6187 Y6.5103
G01 X39.6012 Y6.5088
G01 X39.5775 Y6.5080
G01 X17.5051 Y6.5080
G01 X17.4928 Y6.5083
G01 X17.4681 Y6.5098
G01 X17.4559 Y6.5113
G01 X17.4315 Y6.5152
G01 X17.4074 Y6.5210
G01 X17.3956 Y6.5242
G01 X17.3722 Y6.5323
G01 X17.3551 Y6.5391
G01 X17.3273 Y6.5525
G01 X17.3059 Y6.5650
G01 X17.2905 Y6.5750
G01 X17.2659 Y6.5936
G01 X17.2428 Y6.6142
G01 X17.2342 Y6.6228
G01 X17.2216 Y6.6366
G01 X17.2098 Y6.6506
G01 X17.1915 Y6.6756
G01 X17.1755 Y6.7019
G01 X17.1697 Y6.7128
G01 X17.1617 Y6.7295
G01 X17.1544 Y6.7465
G01 X17.1442 Y6.7756
G01 X17.1365 Y6.8055
G01 X17.1331 Y6.8236
G01 X17.1298 Y6.8481
G01 X17.1281 Y6.8789
G01 X17.1280 Y17.8120
G01 X17.1293 Y17.8429
G01 X17.1329 Y17.8801
G01 X17.1129 Y18.0830
G01 X17.1111 Y18.1138
G01 X17.1111 Y18.8315
G01 X17.1043 Y18.9006
G01 X17.0895 Y18.9492
G01 X17.0656 Y18.9941
G01 X17.0333 Y19.0333
G01 X16.9941 Y19.0656
G01 X16.9492 Y19.0895
G01 X16.9006 Y19.1043
G01 X16.8315 Y19.1111
G01 X15.1686 Y19.1111
G01 X15.0995 Y19.1043
G01 X15.0509 Y19.0895
G01 X15.0061 Y19.0656
G01 X14.9668 Y19.0333
G01 X14.9346 Y18.9941
G01 X14.9106 Y18.9492
G01 X14.8975 Y18.9064
G01 X14.8869 Y18.8774
G01 X14.8766 Y18.8549
G01 X14.8711 Y18.8439
G01 X14.8554 Y18.8173
G01 X14.8486 Y18.8071
G01 X14.8376 Y18.7921
G01 X14.8300 Y18.7825
G01 X14.8220 Y18.7732
G01 X14.8095 Y18.7595
G01 X14.8008 Y18.7508
G01 X14.7778 Y18.7302
G01 X14.7581 Y18.7152
G01 X14.7480 Y18.7082
G01 X14.7377 Y18.7016
G01 X14.7163 Y18.6891
G01 X14.6941 Y18.6783
G01 X14.6828 Y18.6733
G01 X14.6539 Y18.6627
G01 X14.6421 Y18.6591
G01 X14.6181 Y18.6531
G01 X14.6061 Y18.6507
G01 X14.5877 Y18.6479
G01 X14.5755 Y18.6464
G01 X14.5633 Y18.6455
G01 X14.5447 Y18.6447
G01 X14.5263 Y18.6449
G01 X14.5016 Y18.6464
G01 X14.4771 Y18.6498
G01 X14.4590 Y18.6531
G01 X14.4350 Y18.6591
G01 X14.4174 Y18.6647
G01 X14.3943 Y18.6733
G01 X14.3718 Y18.6836
G01 X14.3554 Y18.6921
G01 X14.3342 Y18.7048
G01 X14.3240 Y18.7116
G01 X14.3041 Y18.7264
G01 X14.2901 Y18.7382
G01 X14.2719 Y18.7551
G01 X14.1663 Y18.8607
G01 X13.9849 Y18.9819
G01 X13.7832 Y19.0654
G01 X13.5692 Y19.1080
G01 X13.3509 Y19.1080
G01 X13.1369 Y19.0654
G01 X12.9353 Y18.9819
G01 X12.7538 Y18.8607
G01 X12.5995 Y18.7063
G01 X12.4984 Y18.5550
G01 X12.4842 Y18.5354
G01 X12.4730 Y18.5214
G01 X12.4527 Y18.4991
G01 X12.4350 Y18.4825
G01 X12.4213 Y18.4709
G01 X12.3971 Y18.4529
G01 X12.3870 Y18.4464
G01 X12.3663 Y18.4340
G01 X12.3447 Y18.4231
G01 X12.3338 Y18.4181
G01 X12.3056 Y18.4073
G01 X12.2942 Y18.4037
G01 X12.2708 Y18.3974
G01 X12.2591 Y18.3949
G01 X12.2411 Y18.3918
G01 X12.2293 Y18.3901
G01 X12.2173 Y18.3890
G01 X12.1992 Y18.3878
G01 X12.1872 Y18.3875
G01 X12.1570 Y18.3885
G01 X12.1451 Y18.3897
G01 X12.1211 Y18.3929
G01 X12.0916 Y18.3992
G01 X12.0800 Y18.4024
G01 X12.0627 Y18.4079
G01 X12.0514 Y18.4119
G01 X12.0403 Y18.4164
G01 X12.0236 Y18.4237
G01 X12.0129 Y18.4290
G01 X11.9866 Y18.4438
G01 X11.9665 Y18.4573
G01 X11.9568 Y18.4643
G01 X11.9380 Y18.4796
G01 X11.9247 Y18.4916
G01 X11.9077 Y18.5089
G01 X11.8959 Y18.5224
G01 X11.8809 Y18.5414
G01 X11.8641 Y18.5664
G01 X11.8103 Y18.6565
G01 X11.6651 Y18.8176
G01 X11.4913 Y18.9473
G01 X11.4241 Y18.9793
G01 X11.4241 Y18.9774
G00 Z3.0000
G00 X12.5797 Y17.3423
G01 F60.00
G01 Z-0.1000
G01 F120.00
G01 X12.5797 Y5.9553
G01 X12.5662 Y5.9267
G01 X12.5615 Y5.9153
G01 X12.5293 Y5.8252
G01 X12.5242 Y5.8076
G01 X12.5025 Y5.7207
G01 X12.4991 Y5.7026
G01 X12.4869 Y5.6201
G01 X12.4854 Y5.6079
G01 X12.4845 Y5.5956
G01 X12.4804 Y5.5123
G01 X12.4801 Y5.5001
G01 X12.4804 Y5.4878
G01 X12.4845 Y5.4045
G01 X12.4854 Y5.3922
G01 X12.4869 Y5.3801
G01 X12.4991 Y5.2976
G01 X12.5025 Y5.2795
G01 X12.5242 Y5.1926
G01 X12.5293 Y5.1749
G01 X12.5615 Y5.0848
G01 X12.5662 Y5.0735
G01 X12.5797 Y5.0448
G01 X12.5797 Y4.2980
G01 X12.5809 Y4.2678
G01 X12.5815 Y4.2377
G01 X12.5852 Y4.1938
G01 X12.5886 Y4.1700
G01 X12.5922 Y4.1401
G01 X12.5958 Y4.1215
G01 X12.5989 Y4.1028
G01 X12.6059 Y4.0735
G01 X12.6125 Y4.0440
G01 X12.6179 Y4.0259
G01 X12.6228 Y4.0076
G01 X12.6326 Y3.9791
G01 X12.6420 Y3.9504
G01 X12.6492 Y3.9329
G01 X12.6558 Y3.9152
G01 X12.6685 Y3.8878
G01 X12.6806 Y3.8601
G01 X12.7008 Y3.8210
G01 X12.7131 Y3.8004
G01 X12.7279 Y3.7741
G01 X13.5258 Y2.4762
G01 X13.5362 Y2.4604
G01 X13.5462 Y2.4443
G01 X13.5639 Y2.4199
G01 X13.5812 Y2.3951
G01 X13.5932 Y2.3805
G01 X13.6047 Y2.3654
G01 X13.6247 Y2.3429
G01 X13.6444 Y2.3200
G01 X13.6750 Y2.2884
G01 X13.6928 Y2.2722
G01 X13.7100 Y2.2555
G01 X13.7192 Y2.2473
G01 X13.7291 Y2.2392
G01 X13.7434 Y2.2268
G01 X13.7674 Y2.2085
G01 X13.7862 Y2.1936
G01 X13.8171 Y2.1718
G01 X13.8273 Y2.1649
G01 X13.8479 Y2.1525
G01 X13.8681 Y2.1394
G01 X13.9010 Y2.1208
G01 X13.9119 Y2.1150
G01 X13.9336 Y2.1046
G01 X13.9549 Y2.0936
G01 X13.9952 Y2.0758
G01 X14.0235 Y2.0654
G01 X14.0516 Y2.0544
G01 X14.0697 Y2.0489
G01 X14.0876 Y2.0428
G01 X14.1168 Y2.0351
G01 X14.1458 Y2.0270
G01 X14.1644 Y2.0232
G01 X14.1828 Y2.0189
G01 X14.2126 Y2.0142
G01 X14.2423 Y2.0089
G01 X14.2860 Y2.0040
G01 X14.3101 Y2.0027
G01 X14.3401 Y2.0004
G01 X14.3591 Y2.0003
G01 X14.3780 Y1.9997
G01 X42.0001 Y1.9997
G01 X42.0731 Y2.0024
G01 X42.0981 Y2.0045
G01 X42.1103 Y2.0060
G01 X42.1373 Y2.0100
G01 X42.1705 Y2.0144
G01 X42.1952 Y2.0189
G01 X42.2722 Y2.0374
G01 X42.2963 Y2.0446
G01 X42.3596 Y2.0666
G01 X42.3885 Y2.0783
G01 X42.4493 Y2.1063
G01 X42.4716 Y2.1178
G01 X42.5400 Y2.1579
G01 X42.5609 Y2.1718
G01 X42.6151 Y2.2111
G01 X42.6394 Y2.2307
G01 X42.6894 Y2.2752
G01 X42.7074 Y2.2927
G01 X42.7612 Y2.3509
G01 X51.8216 Y12.9737
G01 X53.3420 Y12.9737
G01 X53.3553 Y12.9693
G01 X53.3671 Y12.9660
G01 X53.4432 Y12.9469
G01 X53.4552 Y12.9442
G01 X53.4673 Y12.9421
G01 X53.5450 Y12.9306
G01 X53.5571 Y12.9291
G01 X53.5694 Y12.9282
G01 X53.6478 Y12.9244
G01 X53.6601 Y12.9241
G01 X54.0601 Y12.9241
G01 X54.0723 Y12.9244
G01 X54.1569 Y12.9286
G01 X54.1752 Y12.9306
G01 X54.2528 Y12.9421
G01 X54.2649 Y12.9442
G01 X54.2769 Y12.9469
G01 X54.3590 Y12.9676
G01 X54.3765 Y12.9731
G01 X54.4504 Y12.9996
G01 X54.4619 Y13.0040
G01 X54.4731 Y13.0090
G01 X54.5441 Y13.0425
G01 X54.5550 Y13.0480
G01 X54.5657 Y13.0541
G01 X54.6330 Y13.0945
G01 X54.6434 Y13.1010
G01 X54.6534 Y13.1081
G01 X54.7165 Y13.1549
G01 X54.7262 Y13.1624
G01 X54.7355 Y13.1704
G01 X54.7936 Y13.2231
G01 X54.8025 Y13.2316
G01 X54.8110 Y13.2405
G01 X54.8637 Y13.2987
G01 X54.8717 Y13.3080
G01 X54.8793 Y13.3176
G01 X54.9260 Y13.3807
G01 X54.9331 Y13.3907
G01 X54.9397 Y13.4011
G01 X54.9800 Y13.4684
G01 X54.9861 Y13.4791
G01 X54.9916 Y13.4901
G01 X55.0252 Y13.5610
G01 X55.0301 Y13.5722
G01 X55.0346 Y13.5837
G01 X55.0610 Y13.6576
G01 X55.0649 Y13.6693
G01 X55.0681 Y13.6811
G01 X55.0872 Y13.7572
G01 X55.0899 Y13.7692
G01 X55.0920 Y13.7813
G01 X55.1035 Y13.8590
G01 X55.1055 Y13.8773
G01 X55.1098 Y13.9618
G01 X55.1101 Y13.9741
G01 X55.1098 Y13.9863
G01 X55.1059 Y14.0647
G01 X55.1050 Y14.0770
G01 X55.1035 Y14.0892
G01 X55.0920 Y14.1668
G01 X55.0899 Y14.1789
G01 X55.0872 Y14.1909
G01 X55.0681 Y14.2670
G01 X55.0649 Y14.2789
G01 X55.0610 Y14.2905
G01 X55.0346 Y14.3644
G01 X55.0301 Y14.3759
G01 X55.0252 Y14.3871
G01 X54.9916 Y14.4581
G01 X54.9861 Y14.4690
G01 X54.9800 Y14.4797
G01 X54.9397 Y14.5470
G01 X54.9331 Y14.5574
G01 X54.9260 Y14.5674
G01 X54.8793 Y14.6305
G01 X54.8717 Y14.6402
G01 X54.8637 Y14.6495
G01 X54.8110 Y14.7076
G01 X54.8025 Y14.7165
G01 X54.7936 Y14.7250
G01 X54.7355 Y14.7777
G01 X54.7262 Y14.7857
G01 X54.7165 Y14.7933
G01 X54.6534 Y14.8400
G01 X54.6434 Y14.8471
G01 X54.6330 Y14.8537
G01 X54.5657 Y14.8940
G01 X54.5550 Y14.9001
G01 X54.5441 Y14.9056
G01 X54.4731 Y14.9392
G01 X54.4619 Y14.9441
G01 X54.4504 Y14.9486
G01 X54.3765 Y14.9750
G01 X54.3649 Y14.9789
G01 X54.3530 Y14.9821
G01 X54.2769 Y15.0012
G01 X54.2649 Y15.0039
G01 X54.2528 Y15.0060
G01 X54.1752 Y15.0175
G01 X54.1630 Y15.0190
G01 X54.1507 Y15.0199
G01 X54.0662 Y15.0240
G01 X53.6601 Y15.0241
G01 X53.6478 Y15.0238
G01 X53.5694 Y15.0199
G01 X53.5571 Y15.0190
G01 X53.5450 Y15.0175
G01 X53.4673 Y15.0060
G01 X53.4552 Y15.0039
G01 X53.4432 Y15.0012
G01 X53.3671 Y14.9821
G01 X53.3553 Y14.9789
G01 X53.3420 Y14.9744
G01 X51.3601 Y14.9744
G01 X51.2809 Y14.9713
G01 X51.2559 Y14.9689
G01 X51.1896 Y14.9597
G01 X51.1589 Y14.9539
G01 X51.0938 Y14.9383
G01 X51.0697 Y14.9314
G01 X50.9948 Y14.9054
G01 X50.9716 Y14.8959
G01 X50.9108 Y14.8678
G01 X50.8831 Y14.8534
G01 X50.8202 Y14.8162
G01 X50.7992 Y14.8024
G01 X50.7723 Y14.7825
G01 X50.7500 Y14.7666
G01 X50.7402 Y14.7593
G01 X50.7207 Y14.7434
G01 X50.6662 Y14.6947
G01 X50.6484 Y14.6770
G01 X50.5989 Y14.6232
G01 X41.5385 Y4.0004
G01 X14.9373 Y4.0004
G01 X14.5804 Y4.5809
G01 X14.5804 Y5.0448
G01 X14.5939 Y5.0735
G01 X14.5986 Y5.0848
G01 X14.6308 Y5.1749
G01 X14.6360 Y5.1926
G01 X14.6577 Y5.2795
G01 X14.6610 Y5.2976
G01 X14.6733 Y5.3801
G01 X14.6748 Y5.3922
G01 X14.6757 Y5.4045
G01 X14.6798 Y5.4878
G01 X14.6801 Y5.5001
G01 X14.6798 Y5.5123
G01 X14.6757 Y5.5956
G01 X14.6748 Y5.6079
G01 X14.6733 Y5.6201
G01 X14.6610 Y5.7026
G01 X14.6577 Y5.7207
G01 X14.6360 Y5.8076
G01 X14.6308 Y5.8252
G01 X14.5986 Y5.9153
G01 X14.5939 Y5.9267
G01 X14.5804 Y5.9553
G01 X14.5804 Y17.8862
G01 X14.5765 Y17.9659
G01 X14.5756 Y17.9781
G01 X14.5741 Y17.9903
G01 X14.5633 Y18.0631
G01 X14.5599 Y18.0812
G01 X14.5554 Y18.0996
G01 X14.5533 Y18.1201
G01 X14.5410 Y18.2026
G01 X14.5389 Y18.2147
G01 X14.5362 Y18.2266
G01 X14.5160 Y18.3076
G01 X14.5108 Y18.3252
G01 X14.4807 Y18.4096
G01 X14.4763 Y18.4210
G01 X14.4714 Y18.4322
G01 X14.4357 Y18.5076
G01 X14.4302 Y18.5186
G01 X14.4241 Y18.5293
G01 X14.3812 Y18.6008
G01 X14.3747 Y18.6112
G01 X14.3676 Y18.6212
G01 X14.3142 Y18.6931
G01 X14.3024 Y18.7072
G01 X14.2463 Y18.7690
G01 X14.2379 Y18.7779
G01 X14.2290 Y18.7863
G01 X14.1672 Y18.8424
G01 X14.1579 Y18.8504
G01 X14.1482 Y18.8579
G01 X14.0812 Y18.9076
G01 X14.0712 Y18.9147
G01 X14.0608 Y18.9212
G01 X13.9893 Y18.9641
G01 X13.9786 Y18.9702
G01 X13.9676 Y18.9757
G01 X13.8922 Y19.0114
G01 X13.8810 Y19.0163
G01 X13.8696 Y19.0207
G01 X13.7910 Y19.0488
G01 X13.7794 Y19.0527
G01 X13.7676 Y19.0560
G01 X13.6866 Y19.0762
G01 X13.6747 Y19.0789
G01 X13.6626 Y19.0810
G01 X13.5801 Y19.0933
G01 X13.5679 Y19.0948
G01 X13.5556 Y19.0957
G01 X13.4723 Y19.0998
G01 X13.4601 Y19.1001
G01 X13.4478 Y19.0998
G01 X13.3645 Y19.0957
G01 X13.3522 Y19.0948
G01 X13.3401 Y19.0933
G01 X13.2576 Y19.0810
G01 X13.2455 Y19.0789
G01 X13.2335 Y19.0762
G01 X13.1526 Y19.0560
G01 X13.1408 Y19.0527
G01 X13.1291 Y19.0488
G01 X13.0506 Y19.0207
G01 X13.0391 Y19.0163
G01 X13.0279 Y19.0114
G01 X12.9525 Y18.9757
G01 X12.9415 Y18.9702
G01 X12.9309 Y18.9641
G01 X12.8593 Y18.9212
G01 X12.8489 Y18.9147
G01 X12.8389 Y18.9076
G01 X12.7670 Y18.8542
G01 X12.7529 Y18.8424
G01 X12.6911 Y18.7863
G01 X12.6822 Y18.7779
G01 X12.6738 Y18.7690
G01 X12.6178 Y18.7072
G01 X12.6098 Y18.6979
G01 X12.6022 Y18.6882
G01 X12.5525 Y18.6212
G01 X12.5454 Y18.6112
G01 X12.5389 Y18.6008
G01 X12.4960 Y18.5293
G01 X12.4900 Y18.5186
G01 X12.4844 Y18.5076
G01 X12.4488 Y18.4322
G01 X12.4438 Y18.4210
G01 X12.4394 Y18.4096
G01 X12.4113 Y18.3310
G01 X12.4074 Y18.3194
G01 X12.4042 Y18.3076
G01 X12.3839 Y18.2266
G01 X12.3812 Y18.2147
G01 X12.3791 Y18.2026
G01 X12.3660 Y18.1140
G01 X12.3645 Y18.0956
G01 X12.3604 Y18.0123
G01 X12.3601 Y18.0001
G01 X12.3604 Y17.9878
G01 X12.3645 Y17.9045
G01 X12.3654 Y17.8922
G01 X12.3669 Y17.8801
G01 X12.3791 Y17.7976
G01 X12.3812 Y17.7855
G01 X12.3839 Y17.7735
G01 X12.4057 Y17.6866
G01 X12.4113 Y17.6691
G01 X12.4394 Y17.5906
G01 X12.4438 Y17.5791
G01 X12.4488 Y17.5679
G01 X12.4871 Y17.4870
G01 X12.4960 Y17.4709
G01 X12.5421 Y17.3941
G01 X12.5525 Y17.3789
G01 X12.5797 Y17.3423
G00 Z3.0000
G00 X15.1197 Y16.9019
G01 F60.00
G01 Z-0.1000
G01 F120.00
G01 X15.1197 Y5.9553
G01 X15.1062 Y5.9267
G01 X15.1015 Y5.9153
G01 X15.0693 Y5.8252
G01 X15.0642 Y5.8076
G01 X15.0439 Y5.7266
G01 X15.0401 Y5.7086
G01 X15.0269 Y5.6201
G01 X15.0254 Y5.6079
G01 X15.0245 Y5.5956
G01 X15.0204 Y5.5123
G01 X15.0201 Y5.5001
G01 X15.0204 Y5.4878
G01 X15.0248 Y5.3984
G01 X15.0269 Y5.3801
G01 X15.0391 Y5.2976
G01 X15.0412 Y5.2855
G01 X15.0439 Y5.2735
G01 X15.0642 Y5.1926
G01 X15.0674 Y5.1808
G01 X15.0713 Y5.1691
G01 X15.0994 Y5.0906
G01 X15.1038 Y5.0791
G01 X15.1088 Y5.0679
G01 X15.1444 Y4.9925
G01 X15.1500 Y4.9815
G01 X15.1560 Y4.9709
G01 X15.1989 Y4.8993
G01 X15.2054 Y4.8889
G01 X15.2125 Y4.8789
G01 X15.2622 Y4.8119
G01 X15.2698 Y4.8022
G01 X15.2778 Y4.7929
G01 X15.3338 Y4.7311
G01 X15.3422 Y4.7222
G01 X15.3511 Y4.7138
G01 X15.4129 Y4.6578
G01 X15.4222 Y4.6498
G01 X15.4319 Y4.6422
G01 X15.4989 Y4.5925
G01 X15.5089 Y4.5854
G01 X15.5193 Y4.5789
G01 X15.5909 Y4.5360
G01 X15.6015 Y4.5300
G01 X15.6125 Y4.5244
G01 X15.6879 Y4.4888
G01 X15.6991 Y4.4838
G01 X15.7106 Y4.4794
G01 X15.7891 Y4.4513
G01 X15.8008 Y4.4474
G01 X15.8126 Y4.4442
G01 X15.8935 Y4.4239
G01 X15.9055 Y4.4212
G01 X15.9176 Y4.4191
G01 X16.0001 Y4.4069
G01 X16.0122 Y4.4054
G01 X16.0245 Y4.4045
G01 X16.1078 Y4.4004
G01 X16.1201 Y4.4001
G01 X16.1323 Y4.4004
G01 X16.2156 Y4.4045
G01 X16.2279 Y4.4054
G01 X16.2401 Y4.4069
G01 X16.3226 Y4.4191
G01 X16.3407 Y4.4225
G01 X16.4276 Y4.4442
G01 X16.4452 Y4.4493
G01 X16.5353 Y4.4815
G01 X16.5467 Y4.4862
G01 X16.5753 Y4.4997
G01 X40.1990 Y4.4997
G01 X40.2281 Y4.5008
G01 X40.2572 Y4.5014
G01 X40.2771 Y4.5032
G01 X40.2910 Y4.5040
G01 X40.3032 Y4.5052
G01 X40.3259 Y4.5085
G01 X40.3549 Y4.5119
G01 X40.3745 Y4.5157
G01 X40.3942 Y4.5189
G01 X40.4225 Y4.5257
G01 X40.4450 Y4.5305
G01 X40.4894 Y4.5428
G01 X40.5169 Y4.5523
G01 X40.5446 Y4.5613
G01 X40.5632 Y4.5688
G01 X40.5762 Y4.5736
G01 X40.5875 Y4.5783
G01 X40.6083 Y4.5880
G01 X40.6350 Y4.5997
G01 X40.6760 Y4.6208
G01 X40.6957 Y4.6325
G01 X40.7211 Y4.6467
G01 X40.7378 Y4.6577
G01 X40.7497 Y4.6649
G01 X40.7599 Y4.6718
G01 X40.7784 Y4.6854
G01 X40.8023 Y4.7020
G01 X40.8384 Y4.7307
G01 X40.8554 Y4.7461
G01 X40.8776 Y4.7650
G01 X40.8918 Y4.7790
G01 X40.9020 Y4.7884
G01 X40.9107 Y4.7971
G01 X40.9262 Y4.8141
G01 X40.9464 Y4.8350
G01 X50.4490 Y15.5137
G01 X53.3420 Y15.5137
G01 X53.3553 Y15.5093
G01 X53.3671 Y15.5060
G01 X53.4432 Y15.4869
G01 X53.4552 Y15.4842
G01 X53.4673 Y15.4821
G01 X53.5450 Y15.4706
G01 X53.5571 Y15.4691
G01 X53.5694 Y15.4682
G01 X53.6478 Y15.4644
G01 X53.6601 Y15.4641
G01 X54.0662 Y15.4641
G01 X54.1507 Y15.4682
G01 X54.1630 Y15.4691
G01 X54.1752 Y15.4706
G01 X54.2528 Y15.4821
G01 X54.2709 Y15.4855
G01 X54.3530 Y15.5060
G01 X54.3649 Y15.5093
G01 X54.3765 Y15.5131
G01 X54.4504 Y15.5396
G01 X54.4619 Y15.5440
G01 X54.4731 Y15.5490
G01 X54.5441 Y15.5825
G01 X54.5550 Y15.5880
G01 X54.5657 Y15.5941
G01 X54.6330 Y15.6345
G01 X54.6434 Y15.6410
G01 X54.6534 Y15.6481
G01 X54.7165 Y15.6949
G01 X54.7262 Y15.7024
G01 X54.7355 Y15.7104
G01 X54.7936 Y15.7631
G01 X54.8025 Y15.7716
G01 X54.8110 Y15.7805
G01 X54.8637 Y15.8387
G01 X54.8717 Y15.8480
G01 X54.8793 Y15.8576
G01 X54.9260 Y15.9207
G01 X54.9331 Y15.9307
G01 X54.9397 Y15.9411
G01 X54.9800 Y16.0084
G01 X54.9861 Y16.0191
G01 X54.9916 Y16.0301
G01 X55.0252 Y16.1010
G01 X55.0301 Y16.1122
G01 X55.0346 Y16.1237
G01 X55.0610 Y16.1976
G01 X55.0649 Y16.2093
G01 X55.0681 Y16.2211
G01 X55.0872 Y16.2972
G01 X55.0899 Y16.3092
G01 X55.0920 Y16.3213
G01 X55.1035 Y16.3990
G01 X55.1050 Y16.4111
G01 X55.1059 Y16.4234
G01 X55.1098 Y16.5018
G01 X55.1101 Y16.5141
G01 X55.1098 Y16.5263
G01 X55.1059 Y16.6047
G01 X55.1050 Y16.6170
G01 X55.1035 Y16.6292
G01 X55.0920 Y16.7068
G01 X55.0899 Y16.7189
G01 X55.0872 Y16.7309
G01 X55.0681 Y16.8070
G01 X55.0649 Y16.8189
G01 X55.0610 Y16.8305
G01 X55.0346 Y16.9044
G01 X55.0301 Y16.9159
G01 X55.0252 Y16.9271
G01 X54.9916 Y16.9981
G01 X54.9861 Y17.0090
G01 X54.9800 Y17.0197
G01 X54.9397 Y17.0870
G01 X54.9331 Y17.0974
G01 X54.9260 Y17.1074
G01 X54.8793 Y17.1705
G01 X54.8717 Y17.1802
G01 X54.8637 Y17.1895
G01 X54.8110 Y17.2476
G01 X54.8025 Y17.2565
G01 X54.7936 Y17.2650
G01 X54.7355 Y17.3177
G01 X54.7262 Y17.3257
G01 X54.7165 Y17.3333
G01 X54.6534 Y17.3800
G01 X54.6434 Y17.3871
G01 X54.6330 Y17.3937
G01 X54.5657 Y17.4340
G01 X54.5550 Y17.4401
G01 X54.5441 Y17.4456
G01 X54.4731 Y17.4792
G01 X54.4619 Y17.4841
G01 X54.4504 Y17.4886
G01 X54.3765 Y17.5150
G01 X54.3649 Y17.5189
G01 X54.3530 Y17.5221
G01 X54.2769 Y17.5412
G01 X54.2649 Y17.5439
G01 X54.2528 Y17.5460
G01 X54.1752 Y17.5575
G01 X54.1630 Y17.5590
G01 X54.1507 Y17.5599
G01 X54.0723 Y17.5638
G01 X54.0601 Y17.5641
G01 X53.6601 Y17.5641
G01 X53.6478 Y17.5638
G01 X53.5694 Y17.5599
G01 X53.5571 Y17.5590
G01 X53.5450 Y17.5575
G01 X53.4673 Y17.5460
G01 X53.4552 Y17.5439
G01 X53.4432 Y17.5412
G01 X53.3671 Y17.5221
G01 X53.3553 Y17.5189
G01 X53.3420 Y17.5144
G01 X50.0001 Y17.5144
G01 X49.9710 Y17.5133
G01 X49.9480 Y17.5130
G01 X49.8959 Y17.5089
G01 X49.8732 Y17.5056
G01 X49.8443 Y17.5022
G01 X49.8246 Y17.4984
G01 X49.8109 Y17.4963
G01 X49.7989 Y17.4939
G01 X49.7766 Y17.4884
G01 X49.7482 Y17.4822
G01 X49.7038 Y17.4695
G01 X49.6822 Y17.4618
G01 X49.6545 Y17.4528
G01 X49.6360 Y17.4453
G01 X49.6229 Y17.4406
G01 X49.6116 Y17.4359
G01 X49.5908 Y17.4261
G01 X49.5641 Y17.4145
G01 X49.5464 Y17.4051
G01 X49.5285 Y17.3963
G01 X49.5034 Y17.3816
G01 X49.4832 Y17.3705
G01 X49.4443 Y17.3458
G01 X49.4207 Y17.3287
G01 X49.4018 Y17.3157
G01 X49.3920 Y17.3083
G01 X49.3813 Y17.2995
G01 X49.3654 Y17.2874
G01 X49.3437 Y17.2680
G01 X49.3261 Y17.2532
G01 X49.2927 Y17.2214
G01 X49.2729 Y17.2001
G01 X49.2527 Y17.1791
G01 X39.7501 Y6.5004
G01 X17.1204 Y6.5004
G01 X17.1204 Y17.8801
G01 X17.1201 Y17.8923
G01 X17.1165 Y17.9659
G01 X17.1156 Y17.9781
G01 X17.1141 Y17.9903
G01 X17.1033 Y18.0631
G01 X17.1001 Y18.0807
G01 X17.1001 Y18.8501
G01 X17.0998 Y18.8623
G01 X17.0989 Y18.8746
G01 X17.0974 Y18.8867
G01 X17.0953 Y18.8988
G01 X17.0910 Y18.9167
G01 X17.0874 Y18.9285
G01 X17.0833 Y18.9400
G01 X17.0786 Y18.9514
G01 X17.0734 Y18.9625
G01 X17.0676 Y18.9733
G01 X17.0613 Y18.9838
G01 X17.0545 Y18.9940
G01 X17.0471 Y19.0039
G01 X17.0394 Y19.0134
G01 X17.0311 Y19.0224
G01 X17.0180 Y19.0353
G01 X17.0039 Y19.0471
G01 X16.9940 Y19.0545
G01 X16.9838 Y19.0613
G01 X16.9733 Y19.0676
G01 X16.9625 Y19.0734
G01 X16.9457 Y19.0810
G01 X16.9343 Y19.0854
G01 X16.9226 Y19.0893
G01 X16.9108 Y19.0926
G01 X16.8988 Y19.0953
G01 X16.8807 Y19.0982
G01 X16.8685 Y19.0994
G01 X16.8562 Y19.1000
G01 X15.1501 Y19.1001
G01 X15.1378 Y19.0998
G01 X15.1256 Y19.0989
G01 X15.1134 Y19.0974
G01 X15.1013 Y19.0953
G01 X15.0893 Y19.0926
G01 X15.0716 Y19.0874
G01 X15.0601 Y19.0833
G01 X15.0488 Y19.0786
G01 X15.0377 Y19.0734
G01 X15.0268 Y19.0676
G01 X15.0163 Y19.0613
G01 X15.0061 Y19.0545
G01 X14.9963 Y19.0471
G01 X14.9868 Y19.0394
G01 X14.9733 Y19.0268
G01 X14.9648 Y19.0180
G01 X14.9530 Y19.0039
G01 X14.9457 Y18.9940
G01 X14.9389 Y18.9838
G01 X14.9325 Y18.9733
G01 X14.9268 Y18.9625
G01 X14.9191 Y18.9457
G01 X14.9147 Y18.9343
G01 X14.9108 Y18.9226
G01 X14.9076 Y18.9108
G01 X14.9049 Y18.8988
G01 X14.9028 Y18.8867
G01 X14.9013 Y18.8746
G01 X14.9001 Y18.8562
G01 X14.9001 Y17.1501
G01 X14.9007 Y17.1317
G01 X14.9019 Y17.1195
G01 X14.9037 Y17.1073
G01 X14.9076 Y17.0893
G01 X14.9127 Y17.0716
G01 X14.9168 Y17.0601
G01 X14.9215 Y17.0488
G01 X14.9268 Y17.0377
G01 X14.9325 Y17.0268
G01 X14.9422 Y17.0112
G01 X14.9493 Y17.0011
G01 X14.9568 Y16.9915
G01 X14.9690 Y16.9777
G01 X14.9777 Y16.9690
G01 X14.9868 Y16.9608
G01 X15.0011 Y16.9493
G01 X15.0163 Y16.9389
G01 X15.0268 Y16.9325
G01 X15.0377 Y16.9268
G01 X15.0488 Y16.9215
G01 X15.0601 Y16.9168
G01 X15.0775 Y16.9108
G01 X15.0893 Y16.9076
G01 X15.1013 Y16.9049
G01 X15.1197 Y16.9019
G00 Z3.0000
G00 X30.8001 Y15.0241
G01 F60.00
G01 Z-0.1000
G01 F120.00
G01 X30.7878 Y15.0238
G01 X30.7094 Y15.0199
G01 X30.6971 Y15.0190
G01 X30.6850 Y15.0175
G01 X30.6073 Y15.0060
G01 X30.5952 Y15.0039
G01 X30.5832 Y15.0012
G01 X30.5071 Y14.9821
G01 X30.4953 Y14.9789
G01 X30.4836 Y14.9750
G01 X30.4097 Y14.9486
G01 X30.3982 Y14.9441
G01 X30.3870 Y14.9392
G01 X30.3161 Y14.9056
G01 X30.3051 Y14.9001
G01 X30.2944 Y14.8940
G01 X30.2271 Y14.8537
G01 X30.2167 Y14.8471
G01 X30.2067 Y14.8400
G01 X30.1436 Y14.7933
G01 X30.1340 Y14.7857
G01 X30.1247 Y14.7777
G01 X30.0665 Y14.7250
G01 X30.0576 Y14.7165
G01 X30.0491 Y14.7076
G01 X29.9964 Y14.6495
G01 X29.9884 Y14.6402
G01 X29.9809 Y14.6305
G01 X29.9341 Y14.5674
G01 X29.9270 Y14.5574
G01 X29.9205 Y14.5470
G01 X29.8801 Y14.4797
G01 X29.8740 Y14.4690
G01 X29.8685 Y14.4581
G01 X29.8350 Y14.3871
G01 X29.8300 Y14.3759
G01 X29.8256 Y14.3644
G01 X29.7991 Y14.2905
G01 X29.7953 Y14.2789
G01 X29.7920 Y14.2670
G01 X29.7729 Y14.1909
G01 X29.7702 Y14.1789
G01 X29.7681 Y14.1668
G01 X29.7566 Y14.0892
G01 X29.7551 Y14.0770
G01 X29.7542 Y14.0647
G01 X29.7504 Y13.9863
G01 X29.7501 Y13.9741
G01 X29.7504 Y13.9618
G01 X29.7542 Y13.8834
G01 X29.7551 Y13.8711
G01 X29.7566 Y13.8590
G01 X29.7681 Y13.7813
G01 X29.7702 Y13.7692
G01 X29.7729 Y13.7572
G01 X29.7920 Y13.6811
G01 X29.7953 Y13.6693
G01 X29.7991 Y13.6576
G01 X29.8277 Y13.5779
G01 X29.8350 Y13.5610
G01 X29.8685 Y13.4901
G01 X29.8740 Y13.4791
G01 X29.8801 Y13.4684
G01 X29.9205 Y13.4011
G01 X29.9270 Y13.3907
G01 X29.9341 Y13.3807
G01 X29.9809 Y13.3176
G01 X29.9884 Y13.3080
G01 X29.9964 Y13.2987
G01 X30.0491 Y13.2405
G01 X30.0576 Y13.2316
G01 X30.0665 Y13.2231
G01 X30.1247 Y13.1704
G01 X30.1340 Y13.1624
G01 X30.1436 Y13.1549
G01 X30.2067 Y13.1081
G01 X30.2167 Y13.1010
G01 X30.2271 Y13.0945
G01 X30.2944 Y13.0541
G01 X30.3051 Y13.0480
G01 X30.3161 Y13.0425
G01 X30.3870 Y13.0090
G01 X30.3982 Y13.0040
G01 X30.4097 Y12.9996
G01 X30.4894 Y12.9711
G01 X30.5071 Y12.9660
G01 X30.5832 Y12.9469
G01 X30.5952 Y12.9442
G01 X30.6073 Y12.9421
G01 X30.6850 Y12.9306
G01 X30.7033 Y12.9286
G01 X30.7878 Y12.9244
G01 X30.8001 Y12.9241
G01 X31.2062 Y12.9241
G01 X31.2907 Y12.9282
G01 X31.3030 Y12.9291
G01 X31.3152 Y12.9306
G01 X31.3928 Y12.9421
G01 X31.4049 Y12.9442
G01 X31.4169 Y12.9469
G01 X31.4930 Y12.9660
G01 X31.5049 Y12.9693
G01 X31.5165 Y12.9731
G01 X31.5962 Y13.0017
G01 X31.6131 Y13.0090
G01 X31.6841 Y13.0425
G01 X31.6950 Y13.0480
G01 X31.7057 Y13.0541
G01 X31.7730 Y13.0945
G01 X31.7834 Y13.1010
G01 X31.7934 Y13.1081
G01 X31.8565 Y13.1549
G01 X31.8662 Y13.1624
G01 X31.8755 Y13.1704
G01 X31.9336 Y13.2231
G01 X31.9425 Y13.2316
G01 X31.9510 Y13.2405
G01 X32.0037 Y13.2987
G01 X32.0117 Y13.3080
G01 X32.0193 Y13.3176
G01 X32.0660 Y13.3807
G01 X32.0731 Y13.3907
G01 X32.0797 Y13.4011
G01 X32.1200 Y13.4684
G01 X32.1261 Y13.4791
G01 X32.1316 Y13.4901
G01 X32.1652 Y13.5610
G01 X32.1701 Y13.5722
G01 X32.1746 Y13.5837
G01 X32.2010 Y13.6576
G01 X32.2049 Y13.6693
G01 X32.2081 Y13.6811
G01 X32.2272 Y13.7572
G01 X32.2299 Y13.7692
G01 X32.2320 Y13.7813
G01 X32.2435 Y13.8590
G01 X32.2450 Y13.8711
G01 X32.2459 Y13.8834
G01 X32.2498 Y13.9618
G01 X32.2501 Y13.9741
G01 X32.2498 Y13.9863
G01 X32.2459 Y14.0647
G01 X32.2450 Y14.0770
G01 X32.2435 Y14.0892
G01 X32.2320 Y14.1668
G01 X32.2299 Y14.1789
G01 X32.2272 Y14.1909
G01 X32.2081 Y14.2670
G01 X32.2049 Y14.2789
G01 X32.2010 Y14.2905
G01 X32.1724 Y14.3702
G01 X32.1652 Y14.3871
G01 X32.1316 Y14.4581
G01 X32.1261 Y14.4690
G01 X32.1200 Y14.4797
G01 X32.0797 Y14.5470
G01 X32.0731 Y14.5574
G01 X32.0660 Y14.5674
G01 X32.0193 Y14.6305
G01 X32.0117 Y14.6402
G01 X32.0037 Y14.6495
G01 X31.9510 Y14.7076
G01 X31.9425 Y14.7165
G01 X31.9336 Y14.7250
G01 X31.8755 Y14.7777
G01 X31.8662 Y14.7857
G01 X31.8565 Y14.7933
G01 X31.7934 Y14.8400
G01 X31.7834 Y14.8471
G01 X31.7730 Y14.8537
G01 X31.7057 Y14.8940
G01 X31.6950 Y14.9001
G01 X31.6841 Y14.9056
G01 X31.6131 Y14.9392
G01 X31.6019 Y14.9441
G01 X31.5904 Y14.9486
G01 X31.5165 Y14.9750
G01 X31.5049 Y14.9789
G01 X31.4930 Y14.9821
G01 X31.4169 Y15.0012
G01 X31.4049 Y15.0039
G01 X31.3928 Y15.0060
G01 X31.3091 Y15.0183
G01 X31.2907 Y15.0199
G01 X31.2123 Y15.0238
G01 X31.2001 Y15.0241
G01 X30.8001 Y15.0241
G00 Z3.0000
G00 X30.8001 Y12.4841
G01 F60.00
G01 Z-0.1000
G01 F120.00
G01 X30.7878 Y12.4838
G01 X30.7094 Y12.4799
G01 X30.6971 Y12.4790
G01 X30.6850 Y12.4775
G01 X30.6073 Y12.4660
G01 X30.5952 Y12.4639
G01 X30.5832 Y12.4612
G01 X30.5071 Y12.4421
G01 X30.4953 Y12.4389
G01 X30.4836 Y12.4350
G01 X30.4097 Y12.4086
G01 X30.3982 Y12.4041
G01 X30.3870 Y12.3992
G01 X30.3161 Y12.3656
G01 X30.3051 Y12.3601
G01 X30.2944 Y12.3540
G01 X30.2271 Y12.3137
G01 X30.2167 Y12.3071
G01 X30.2067 Y12.3000
G01 X30.1436 Y12.2533
G01 X30.1340 Y12.2457
G01 X30.1247 Y12.2377
G01 X30.0665 Y12.1850
G01 X30.0576 Y12.1765
G01 X30.0491 Y12.1676
G01 X29.9964 Y12.1095
G01 X29.9884 Y12.1002
G01 X29.9809 Y12.0905
G01 X29.9341 Y12.0274
G01 X29.9270 Y12.0174
G01 X29.9205 Y12.0070
G01 X29.8801 Y11.9397
G01 X29.8740 Y11.9290
G01 X29.8685 Y11.9181
G01 X29.8350 Y11.8471
G01 X29.8300 Y11.8359
G01 X29.8256 Y11.8244
G01 X29.7991 Y11.7505
G01 X29.7953 Y11.7389
G01 X29.7920 Y11.7270
G01 X29.7729 Y11.6509
G01 X29.7702 Y11.6389
G01 X29.7681 Y11.6268
G01 X29.7566 Y11.5492
G01 X29.7551 Y11.5370
G01 X29.7542 Y11.5247
G01 X29.7504 Y11.4463
G01 X29.7501 Y11.4341
G01 X29.7504 Y11.4218
G01 X29.7542 Y11.3434
G01 X29.7551 Y11.3311
G01 X29.7566 Y11.3190
G01 X29.7681 Y11.2413
G01 X29.7702 Y11.2292
G01 X29.7729 Y11.2172
G01 X29.7920 Y11.1411
G01 X29.7953 Y11.1293
G01 X29.7991 Y11.1176
G01 X29.8277 Y11.0379
G01 X29.8350 Y11.0210
G01 X29.8685 Y10.9501
G01 X29.8740 Y10.9391
G01 X29.8801 Y10.9284
G01 X29.9205 Y10.8611
G01 X29.9270 Y10.8507
G01 X29.9341 Y10.8407
G01 X29.9809 Y10.7776
G01 X29.9884 Y10.7680
G01 X29.9964 Y10.7587
G01 X30.0491 Y10.7005
G01 X30.0576 Y10.6916
G01 X30.0665 Y10.6831
G01 X30.1247 Y10.6304
G01 X30.1340 Y10.6224
G01 X30.1436 Y10.6149
G01 X30.2067 Y10.5681
G01 X30.2167 Y10.5610
G01 X30.2271 Y10.5545
G01 X30.2944 Y10.5141
G01 X30.3051 Y10.5080
G01 X30.3161 Y10.5025
G01 X30.3870 Y10.4690
G01 X30.3982 Y10.4640
G01 X30.4097 Y10.4596
G01 X30.4894 Y10.4311
G01 X30.5071 Y10.4260
G01 X30.5832 Y10.4069
G01 X30.5952 Y10.4042
G01 X30.6073 Y10.4021
G01 X30.6850 Y10.3906
G01 X30.7033 Y10.3886
G01 X30.7878 Y10.3844
G01 X30.8001 Y10.3841
G01 X31.2062 Y10.3841
G01 X31.2907 Y10.3882
G01 X31.3030 Y10.3891
G01 X31.3152 Y10.3906
G01 X31.3928 Y10.4021
G01 X31.4049 Y10.4042
G01 X31.4169 Y10.4069
G01 X31.4930 Y10.4260
G01 X31.5049 Y10.4293
G01 X31.5165 Y10.4331
G01 X31.5962 Y10.4617
G01 X31.6131 Y10.4690
G01 X31.6841 Y10.5025
G01 X31.6950 Y10.5080
G01 X31.7057 Y10.5141
G01 X31.7730 Y10.5545
G01 X31.7834 Y10.5610
G01 X31.7934 Y10.5681
G01 X31.8565 Y10.6149
G01 X31.8662 Y10.6224
G01 X31.8755 Y10.6304
G01 X31.9336 Y10.6831
G01 X31.9425 Y10.6916
G01 X31.9510 Y10.7005
G01 X32.0037 Y10.7587
G01 X32.0117 Y10.7680
G01 X32.0193 Y10.7776
G01 X32.0660 Y10.8407
G01 X32.0731 Y10.8507
G01 X32.0797 Y10.8611
G01 X32.1200 Y10.9284
G01 X32.1261 Y10.9391
G01 X32.1316 Y10.9501
G01 X32.1652 Y11.0210
G01 X32.1701 Y11.0322
G01 X32.1746 Y11.0437
G01 X32.2010 Y11.1176
G01 X32.2049 Y11.1293
G01 X32.2081 Y11.1411
G01 X32.2272 Y11.2172
G01 X32.2299 Y11.2292
G01 X32.2320 Y11.2413
G01 X32.2435 Y11.3190
G01 X32.2450 Y11.3311
G01 X32.2459 Y11.3434
G01 X32.2498 Y11.4218
G01 X32.2501 Y11.4341
G01 X32.2498 Y11.4463
G01 X32.2459 Y11.5247
G01 X32.2450 Y11.5370
G01 X32.2435 Y11.5492
G01 X32.2320 Y11.6268
G01 X32.2299 Y11.6389
G01 X32.2272 Y11.6509
G01 X32.2081 Y11.7270
G01 X32.2049 Y11.7389
G01 X32.2010 Y11.7505
G01 X32.1724 Y11.8302
G01 X32.1652 Y11.8471
G01 X32.1316 Y11.9181
G01 X32.1261 Y11.9290
G01 X32.1200 Y11.9397
G01 X32.0797 Y12.0070
G01 X32.0731 Y12.0174
G01 X32.0660 Y12.0274
G01 X32.0193 Y12.0905
G01 X32.0117 Y12.1002
G01 X32.0037 Y12.1095
G01 X31.9510 Y12.1676
G01 X31.9425 Y12.1765
G01 X31.9336 Y12.1850
G01 X31.8755 Y12.2377
G01 X31.8662 Y12.2457
G01 X31.8565 Y12.2533
G01 X31.7934 Y12.3000
G01 X31.7834 Y12.3071
G01 X31.7730 Y12.3137
G01 X31.7057 Y12.3540
G01 X31.6950 Y12.3601
G01 X31.6841 Y12.3656
G01 X31.6131 Y12.3992
G01 X31.6019 Y12.4041
G01 X31.5904 Y12.4086
G01 X31.5165 Y12.4350
G01 X31.5049 Y12.4389
G01 X31.4930 Y12.4421
G01 X31.4169 Y12.4612
G01 X31.4049 Y12.4639
G01 X31.3928 Y12.4660
G01 X31.3091 Y12.4783
G01 X31.2907 Y12.4799
G01 X31.2123 Y12.4838
G01 X31.2001 Y12.4841
G01 X30.8001 Y12.4841
G00 Z3.0000
G00 X30.0001 Y10.1441
G01 F60.00
G01 Z-0.1000
G01 F120.00
G01 X29.9878 Y10.1438
G01 X29.9756 Y10.1429
G01 X29.9634 Y10.1414
G01 X29.9513 Y10.1393
G01 X29.9393 Y10.1366
G01 X29.9275 Y10.1333
G01 X29.9158 Y10.1294
G01 X29.9044 Y10.1250
G01 X29.8932 Y10.1201
G01 X29.8822 Y10.1145
G01 X29.8715 Y10.1085
G01 X29.8612 Y10.1019
G01 X29.8511 Y10.0949
G01 X29.8415 Y10.0873
G01 X29.8277 Y10.0751
G01 X29.8190 Y10.0664
G01 X29.8108 Y10.0574
G01 X29.8030 Y10.0479
G01 X29.7957 Y10.0380
G01 X29.7856 Y10.0226
G01 X29.7796 Y10.0119
G01 X29.7741 Y10.0010
G01 X29.7691 Y9.9897
G01 X29.7647 Y9.9783
G01 X29.7608 Y9.9666
G01 X29.7576 Y9.9548
G01 X29.7537 Y9.9368
G01 X29.7519 Y9.9247
G01 X29.7507 Y9.9125
G01 X29.7501 Y9.8941
G01 X29.7501 Y7.8879
G01 X29.7513 Y7.8696
G01 X29.7528 Y7.8574
G01 X29.7549 Y7.8453
G01 X29.7591 Y7.8274
G01 X29.7627 Y7.8156
G01 X29.7668 Y7.8041
G01 X29.7715 Y7.7928
G01 X29.7768 Y7.7817
G01 X29.7825 Y7.7708
G01 X29.7889 Y7.7603
G01 X29.7957 Y7.7501
G01 X29.8030 Y7.7403
G01 X29.8148 Y7.7262
G01 X29.8277 Y7.7130
G01 X29.8368 Y7.7048
G01 X29.8463 Y7.6970
G01 X29.8561 Y7.6897
G01 X29.8663 Y7.6829
G01 X29.8768 Y7.6765
G01 X29.8877 Y7.6708
G01 X29.8988 Y7.6655
G01 X29.9101 Y7.6608
G01 X29.9275 Y7.6548
G01 X29.9393 Y7.6516
G01 X29.9513 Y7.6489
G01 X29.9634 Y7.6468
G01 X29.9756 Y7.6453
G01 X29.9878 Y7.6444
G01 X30.0001 Y7.6441
G01 X32.0062 Y7.6441
G01 X32.0246 Y7.6453
G01 X32.0367 Y7.6468
G01 X32.0488 Y7.6489
G01 X32.0608 Y7.6516
G01 X32.0726 Y7.6548
G01 X32.0843 Y7.6587
G01 X32.0957 Y7.6631
G01 X32.1070 Y7.6681
G01 X32.1179 Y7.6736
G01 X32.1338 Y7.6829
G01 X32.1440 Y7.6897
G01 X32.1539 Y7.6970
G01 X32.1680 Y7.7088
G01 X32.1768 Y7.7173
G01 X32.1853 Y7.7262
G01 X32.1971 Y7.7403
G01 X32.2045 Y7.7501
G01 X32.2113 Y7.7603
G01 X32.2176 Y7.7708
G01 X32.2234 Y7.7817
G01 X32.2286 Y7.7928
G01 X32.2354 Y7.8098
G01 X32.2393 Y7.8215
G01 X32.2426 Y7.8333
G01 X32.2453 Y7.8453
G01 X32.2474 Y7.8574
G01 X32.2489 Y7.8696
G01 X32.2498 Y7.8818
G01 X32.2501 Y7.8941
G01 X32.2500 Y9.9002
G01 X32.2494 Y9.9125
G01 X32.2482 Y9.9247
G01 X32.2453 Y9.9428
G01 X32.2410 Y9.9607
G01 X32.2374 Y9.9725
G01 X32.2333 Y9.9840
G01 X32.2261 Y10.0010
G01 X32.2205 Y10.0119
G01 X32.2145 Y10.0226
G01 X32.2079 Y10.0330
G01 X32.2009 Y10.0430
G01 X32.1933 Y10.0527
G01 X32.1853 Y10.0620
G01 X32.1768 Y10.0708
G01 X32.1680 Y10.0793
G01 X32.1587 Y10.0873
G01 X32.1490 Y10.0949
G01 X32.1390 Y10.1019
G01 X32.1286 Y10.1085
G01 X32.1179 Y10.1145
G01 X32.1070 Y10.1201
G01 X32.0957 Y10.1250
G01 X32.0843 Y10.1294
G01 X32.0726 Y10.1333
G01 X32.0608 Y10.1366
G01 X32.0488 Y10.1393
G01 X32.0367 Y10.1414
G01 X32.0246 Y10.1429
G01 X32.0123 Y10.1438
G01 X32.0001 Y10.1441
G01 X30.0001 Y10.1441
G00 Z3.0000
G00 X30.8001 Y20.1041
G01 F60.00
G01 Z-0.1000
G01 F120.00
G01 X30.7878 Y20.1038
G01 X30.7094 Y20.0999
G01 X30.6971 Y20.0990
G01 X30.6850 Y20.0975
G01 X30.6073 Y20.0860
G01 X30.5952 Y20.0839
G01 X30.5832 Y20.0812
G01 X30.5071 Y20.0621
G01 X30.4953 Y20.0589
G01 X30.4836 Y20.0550
G01 X30.4097 Y20.0286
G01 X30.3982 Y20.0241
G01 X30.3870 Y20.0192
G01 X30.3161 Y19.9856
G01 X30.3051 Y19.9801
G01 X30.2944 Y19.9740
G01 X30.2271 Y19.9337
G01 X30.2167 Y19.9271
G01 X30.2067 Y19.9200
G01 X30.1436 Y19.8733
G01 X30.1340 Y19.8657
G01 X30.1247 Y19.8577
G01 X30.0665 Y19.8050
G01 X30.0576 Y19.7965
G01 X30.0491 Y19.7876
G01 X29.9964 Y19.7295
G01 X29.9884 Y19.7202
G01 X29.9809 Y19.7105
G01 X29.9341 Y19.6474
G01 X29.9270 Y19.6374
G01 X29.9205 Y19.6270
G01 X29.8801 Y19.5597
G01 X29.8740 Y19.5490
G01 X29.8685 Y19.5381
G01 X29.8350 Y19.4671
G01 X29.8300 Y19.4559
G01 X29.8256 Y19.4444
G01 X29.7991 Y19.3705
G01 X29.7953 Y19.3589
G01 X29.7920 Y19.3470
G01 X29.7729 Y19.2709
G01 X29.7702 Y19.2589
G01 X29.7681 Y19.2468
G01 X29.7566 Y19.1692
G01 X29.7551 Y19.1570
G01 X29.7542 Y19.1447
G01 X29.7504 Y19.0663
G01 X29.7501 Y19.0541
G01 X29.7504 Y19.0418
G01 X29.7542 Y18.9634
G01 X29.7551 Y18.9511
G01 X29.7566 Y18.9390
G01 X29.7681 Y18.8613
G01 X29.7702 Y18.8492
G01 X29.7729 Y18.8372
G01 X29.7920 Y18.7611
G01 X29.7953 Y18.7493
G01 X29.7991 Y18.7376
G01 X29.8277 Y18.6579
G01 X29.8350 Y18.6410
G01 X29.8685 Y18.5701
G01 X29.8740 Y18.5591
G01 X29.8801 Y18.5484
G01 X29.9205 Y18.4811
G01 X29.9270 Y18.4707
G01 X29.9341 Y18.4607
G01 X29.9809 Y18.3976
G01 X29.9884 Y18.3880
G01 X29.9964 Y18.3787
G01 X30.0491 Y18.3205
G01 X30.0576 Y18.3116
G01 X30.0665 Y18.3031
G01 X30.1247 Y18.2504
G01 X30.1340 Y18.2424
G01 X30.1436 Y18.2349
G01 X30.2067 Y18.1881
G01 X30.2167 Y18.1810
G01 X30.2271 Y18.1745
G01 X30.2944 Y18.1341
G01 X30.3051 Y18.1280
G01 X30.3161 Y18.1225
