;FLAVOR:Marlin
;TIME:3459
;Filament used: 3.38532m
;Layer height: 0.3
;MINX:74.835
;MINY:77.2
;MINZ:0.3
;MAXX:125.165
;MAXY:122.8
;MAXZ:21
;Generated with Cura_SteamEngine 4.4.0
M140 S70
M105
M190 S70
M104 S225
M105
M109 S225
M82 ;absolute extrusion mode
G21 ;metric values
 G90 ;absolute positioning
 M82 ;set extruder to absolute mode
 M107 ;start with the fan off
 G28 X0 Y0 ;move X/Y to min endstops
 G28 Z0 ;move Z to min endstops
 G1 Z15.0 F120 ;move the platform down 15mm
 G92 E0 ;zero the extruded length
 G1 F200 E6 ;extrude 6 mm of feed stock
 G92 E0 ;zero the extruded length again
 G1 F120 
 ;Put printing message on LCD screen
 M117 Printing...
G92 E0
G92 E0
G1 F1500 E-6.5
;LAYER_COUNT:70
;LAYER:0
M107
;MESH:PowerSwitchMonitorCase.stl
G0 F3600 X76.4 Y103.288 Z0.3
;TYPE:WALL-INNER
G1 F1500 E0
G1 F1050 X100.6 Y103.288 E1.20734
G1 X100.6 Y99.4 E1.40132
G1 X76.4 Y99.4 E2.60866
G1 X76.4 Y103.288 E2.80263
G0 F3600 X76.33 Y103.358
G0 X76.33 Y108.733
G0 X76.4 Y108.663
G1 F1050 X100.6 Y108.663 E4.00997
G1 X100.6 Y104.775 E4.20395
G1 X76.4 Y104.775 E5.41129
G1 X76.4 Y108.663 E5.60526
G0 F3600 X76.33 Y108.733
G0 X76.33 Y114.108
G0 X76.4 Y114.038
G1 F1050 X100.6 Y114.038 E6.81261
G1 X100.6 Y110.15 E7.00658
G1 X76.4 Y110.15 E8.21392
G1 X76.4 Y114.038 E8.4079
G0 F3600 X76.33 Y114.108
G0 X76.33 Y119.416
G0 X76.4 Y119.346
G1 F1050 X100.6 Y119.346 E9.61524
G1 X100.6 Y115.525 E9.80587
G1 X76.4 Y115.525 E11.01321
G1 X76.4 Y119.346 E11.20384
G0 F3600 X76.33 Y119.416
G0 X76.17 Y122.33
G0 X76.1 Y122.4
G1 F1050 X76.1 Y119.346 E11.35621
G1 X76.1 Y115.525 E11.49918
G1 X76.1 Y114.038 E11.57337
G1 X76.1 Y110.15 E11.71885
G1 X76.1 Y108.663 E11.79303
G1 X76.1 Y104.775 E11.93851
G1 X76.1 Y103.288 E12.0127
G1 X76.1 Y99.4 E12.15818
G1 X76.1 Y77.6 E13.24579
G1 X123.9 Y77.6 E15.63054
G1 X123.9 Y122.4 E17.86562
G1 X76.1 Y122.4 E20.25037
G0 F3600 X75.7 Y122.8
;TYPE:WALL-OUTER
G1 F1050 X75.7 Y77.2 E22.52536
G1 X124.3 Y77.2 E24.95003
G1 X124.3 Y122.8 E27.22502
G1 X75.7 Y122.8 E29.64969
G0 F3600 X75.7 Y122.6
G0 X76.17 Y122.33
G0 X76.3 Y118.946
G0 X76.8 Y118.946
G1 F1050 X100.2 Y118.946 E30.81712
G1 X100.2 Y115.925 E30.96783
G1 X76.8 Y115.925 E32.13526
G1 X76.8 Y118.946 E32.28598
G0 F3600 X77 Y118.946
G0 X77 Y119.446
G0 X76.3 Y113.638
G0 X76.8 Y113.638
G1 F1050 X100.2 Y113.638 E33.45341
G1 X100.2 Y110.55 E33.60747
G1 X76.8 Y110.55 E34.77491
G1 X76.8 Y113.638 E34.92897
G0 F3600 X77 Y113.638
G0 X77 Y114.138
G0 X76.3 Y108.263
G0 X76.8 Y108.263
G1 F1050 X100.2 Y108.263 E36.0964
G1 X100.2 Y105.175 E36.25046
G1 X76.8 Y105.175 E37.41789
G1 X76.8 Y108.263 E37.57195
G0 F3600 X77 Y108.263
G0 X77 Y108.763
G0 X76.3 Y102.888
G0 X76.8 Y102.888
G1 F1050 X100.2 Y102.888 E38.73938
G1 X100.2 Y99.8 E38.89344
G1 X76.8 Y99.8 E40.06087
G1 X76.8 Y102.888 E40.21493
G0 F3600 X77 Y102.888
G0 X76.49 Y103.678
;TYPE:SKIN
G1 F1050 X100.99 Y103.678 E41.43724
G1 X100.99 Y99.01 E41.67013
G1 X76.49 Y99.01 E42.89244
G1 X76.49 Y77.99 E43.94113
G1 X123.51 Y77.99 E46.28697
G1 X123.51 Y122.01 E48.48314
G1 X76.49 Y122.01 E50.82897
G1 X76.49 Y119.736 E50.94242
G1 X100.99 Y119.736 E52.16473
G1 X100.99 Y115.135 E52.39428
G1 X76.49 Y115.135 E53.61659
G1 X76.49 Y114.428 E53.65186
G1 X100.99 Y114.428 E54.87417
G1 X100.99 Y109.76 E55.10706
G1 X76.49 Y109.76 E56.32937
G1 X76.49 Y109.053 E56.36464
G1 X100.99 Y109.053 E57.58695
G1 X100.99 Y104.385 E57.81984
G1 X76.49 Y104.385 E59.04215
G1 X76.49 Y103.678 E59.07742
G0 F3600 X76.372 Y104.747
G0 X76.372 Y119.374
G0 X77.139 Y121.828
G1 F1050 X76.67 Y121.359 E59.11051
G0 F3600 X76.67 Y120.793
G1 F1050 X77.705 Y121.828 E59.18354
G0 F3600 X78.271 Y121.828
G1 F1050 X76.67 Y120.227 E59.2965
G0 F3600 X76.923 Y119.915
G1 F1050 X78.836 Y121.828 E59.43147
G0 F3600 X79.402 Y121.828
G1 F1050 X77.489 Y119.915 E59.56644
G0 F3600 X78.054 Y119.915
G1 F1050 X79.968 Y121.828 E59.70145
G0 F3600 X80.533 Y121.828
G1 F1050 X78.62 Y119.915 E59.83642
G0 F3600 X79.186 Y119.915
G1 F1050 X81.099 Y121.828 E59.97139
G0 F3600 X81.665 Y121.828
G1 F1050 X79.751 Y119.915 E60.1064
G0 F3600 X80.317 Y119.915
G1 F1050 X82.23 Y121.828 E60.24137
G0 F3600 X82.796 Y121.828
G1 F1050 X80.883 Y119.915 E60.37635
G0 F3600 X81.448 Y119.915
G1 F1050 X83.362 Y121.828 E60.51135
G0 F3600 X83.927 Y121.828
G1 F1050 X82.014 Y119.915 E60.64633
G0 F3600 X82.58 Y119.915
G1 F1050 X84.493 Y121.828 E60.7813
G0 F3600 X85.059 Y121.828
G1 F1050 X83.145 Y119.915 E60.91631
G0 F3600 X83.711 Y119.915
G1 F1050 X85.624 Y121.828 E61.05128
G0 F3600 X86.19 Y121.828
G1 F1050 X84.277 Y119.915 E61.18625
G0 F3600 X84.842 Y119.915
G1 F1050 X86.756 Y121.828 E61.32126
G0 F3600 X87.322 Y121.828
G1 F1050 X85.408 Y119.915 E61.45627
G0 F3600 X85.974 Y119.915
G1 F1050 X87.887 Y121.828 E61.59124
G0 F3600 X88.453 Y121.828
G1 F1050 X86.539 Y119.915 E61.72625
G0 F3600 X87.105 Y119.915
G1 F1050 X89.019 Y121.828 E61.86125
G0 F3600 X89.584 Y121.828
G1 F1050 X87.671 Y119.915 E61.99623
G0 F3600 X88.237 Y119.915
G1 F1050 X90.15 Y121.828 E62.1312
G0 F3600 X90.716 Y121.828
G1 F1050 X88.802 Y119.915 E62.26621
G0 F3600 X89.368 Y119.915
G1 F1050 X91.281 Y121.828 E62.40118
G0 F3600 X91.847 Y121.828
G1 F1050 X89.934 Y119.915 E62.53615
G0 F3600 X90.499 Y119.915
G1 F1050 X92.413 Y121.828 E62.67116
G0 F3600 X92.978 Y121.828
G1 F1050 X91.065 Y119.915 E62.80613
G0 F3600 X91.631 Y119.915
G1 F1050 X93.544 Y121.828 E62.94111
G0 F3600 X94.11 Y121.828
G1 F1050 X92.196 Y119.915 E63.07611
G0 F3600 X92.762 Y119.915
G1 F1050 X94.675 Y121.828 E63.21109
G0 F3600 X95.241 Y121.828
G1 F1050 X93.328 Y119.915 E63.34606
G0 F3600 X93.893 Y119.915
G1 F1050 X95.807 Y121.828 E63.48107
G0 F3600 X96.372 Y121.828
G1 F1050 X94.459 Y119.915 E63.61604
G0 F3600 X95.025 Y119.915
G1 F1050 X96.938 Y121.828 E63.75101
G0 F3600 X97.504 Y121.828
G1 F1050 X95.59 Y119.915 E63.88602
G0 F3600 X96.156 Y119.915
G1 F1050 X98.07 Y121.828 E64.02103
G0 F3600 X98.635 Y121.828
G1 F1050 X96.722 Y119.915 E64.156
G0 F3600 X97.287 Y119.915
G1 F1050 X99.201 Y121.828 E64.29101
G0 F3600 X99.767 Y121.828
G1 F1050 X97.853 Y119.915 E64.42601
G0 F3600 X98.419 Y119.915
G1 F1050 X100.333 Y121.829 E64.56106
G0 F3600 X100.899 Y121.829
G1 F1050 X98.985 Y119.915 E64.6961
G0 F3600 X99.55 Y119.915
G1 F1050 X101.464 Y121.829 E64.83114
G0 F3600 X102.03 Y121.829
G1 F1050 X100.116 Y119.915 E64.96619
G0 F3600 X100.682 Y119.915
G1 F1050 X102.596 Y121.829 E65.10123
G0 F3600 X103.161 Y121.829
G1 F1050 X101.17 Y119.837 E65.24174
G0 F3600 X101.17 Y119.271
G1 F1050 X103.727 Y121.829 E65.42219
G0 F3600 X104.293 Y121.829
G1 F1050 X101.17 Y118.706 E65.64253
G0 F3600 X101.17 Y118.14
G1 F1050 X104.858 Y121.829 E65.90277
G0 F3600 X105.424 Y121.829
G1 F1050 X101.17 Y117.574 E66.20295
G0 F3600 X101.17 Y117.009
G1 F1050 X105.99 Y121.829 E66.54303
G0 F3600 X106.556 Y121.829
G1 F1050 X101.17 Y116.443 E66.92304
G0 F3600 X101.17 Y115.877
G1 F1050 X107.121 Y121.829 E67.34295
G0 F3600 X107.687 Y121.829
G1 F1050 X101.17 Y115.312 E67.80276
G0 F3600 X100.812 Y114.954
G1 F1050 X100.465 Y114.607 E67.82724
G0 F3600 X100.246 Y114.954
G1 F1050 X99.9 Y114.607 E67.85169
G0 F3600 X99.68 Y114.954
G1 F1050 X99.334 Y114.607 E67.87614
G0 F3600 X99.115 Y114.954
G1 F1050 X98.768 Y114.607 E67.90062
G0 F3600 X98.549 Y114.954
G1 F1050 X98.202 Y114.607 E67.9251
G0 F3600 X97.983 Y114.954
G1 F1050 X97.637 Y114.607 E67.94955
G0 F3600 X97.418 Y114.954
G1 F1050 X97.071 Y114.607 E67.97403
G0 F3600 X96.852 Y114.954
G1 F1050 X96.505 Y114.607 E67.99852
G0 F3600 X96.286 Y114.954
G1 F1050 X95.94 Y114.607 E68.02296
G0 F3600 X95.721 Y114.954
G1 F1050 X95.374 Y114.607 E68.04745
G0 F3600 X95.155 Y114.954
G1 F1050 X94.808 Y114.607 E68.07193
G0 F3600 X94.589 Y114.954
G1 F1050 X94.243 Y114.607 E68.09638
G0 F3600 X94.023 Y114.954
G1 F1050 X93.677 Y114.607 E68.12082
G0 F3600 X93.458 Y114.954
G1 F1050 X93.111 Y114.607 E68.14531
G0 F3600 X92.892 Y114.954
G1 F1050 X92.546 Y114.607 E68.16975
G0 F3600 X92.326 Y114.954
G1 F1050 X91.98 Y114.607 E68.1942
G0 F3600 X91.761 Y114.954
G1 F1050 X91.414 Y114.607 E68.21868
G0 F3600 X91.195 Y114.954
G1 F1050 X90.849 Y114.607 E68.24313
G0 F3600 X90.629 Y114.954
G1 F1050 X90.283 Y114.607 E68.26758
G0 F3600 X90.064 Y114.954
G1 F1050 X89.717 Y114.607 E68.29206
G0 F3600 X89.498 Y114.954
G1 F1050 X89.152 Y114.607 E68.31651
G0 F3600 X88.932 Y114.954
G1 F1050 X88.586 Y114.607 E68.34096
G0 F3600 X88.367 Y114.954
G1 F1050 X88.02 Y114.607 E68.36544
G0 F3600 X87.801 Y114.954
G1 F1050 X87.454 Y114.607 E68.38992
G0 F3600 X87.235 Y114.954
G1 F1050 X86.889 Y114.607 E68.41437
G0 F3600 X86.67 Y114.954
G1 F1050 X86.323 Y114.607 E68.43885
G0 F3600 X86.104 Y114.954
G1 F1050 X85.757 Y114.607 E68.46334
G0 F3600 X85.538 Y114.954
G1 F1050 X85.192 Y114.607 E68.48778
G0 F3600 X84.973 Y114.954
G1 F1050 X84.626 Y114.607 E68.51227
G0 F3600 X84.407 Y114.954
G1 F1050 X84.06 Y114.607 E68.53675
G0 F3600 X83.841 Y114.954
G1 F1050 X83.495 Y114.607 E68.5612
G0 F3600 X83.275 Y114.954
G1 F1050 X82.929 Y114.607 E68.58564
G0 F3600 X82.71 Y114.954
G1 F1050 X82.363 Y114.607 E68.61013
G0 F3600 X82.144 Y114.954
G1 F1050 X81.798 Y114.607 E68.63457
G0 F3600 X81.578 Y114.954
G1 F1050 X81.232 Y114.607 E68.65902
G0 F3600 X81.013 Y114.954
G1 F1050 X80.666 Y114.607 E68.6835
G0 F3600 X80.447 Y114.954
G1 F1050 X80.101 Y114.607 E68.70795
G0 F3600 X79.881 Y114.954
G1 F1050 X79.535 Y114.607 E68.7324
G0 F3600 X79.316 Y114.954
G1 F1050 X78.969 Y114.607 E68.75688
G0 F3600 X78.75 Y114.954
G1 F1050 X78.403 Y114.607 E68.78136
G0 F3600 X78.184 Y114.954
G1 F1050 X77.838 Y114.607 E68.80581
G0 F3600 X77.619 Y114.954
G1 F1050 X77.272 Y114.607 E68.83029
G0 F3600 X77.053 Y114.954
G1 F1050 X76.706 Y114.607 E68.85478
G0 F3600 X76.372 Y110.122
G0 X76.769 Y109.578
G1 F1050 X76.67 Y109.479 E68.86176
G0 F3600 X76.988 Y109.232
G1 F1050 X77.334 Y109.578 E68.88617
G0 F3600 X77.554 Y109.232
G1 F1050 X77.9 Y109.578 E68.91059
G0 F3600 X78.119 Y109.232
G1 F1050 X78.466 Y109.578 E68.93503
G0 F3600 X78.685 Y109.232
G1 F1050 X79.031 Y109.578 E68.95945
G0 F3600 X79.251 Y109.232
G1 F1050 X79.597 Y109.578 E68.98386
G0 F3600 X79.816 Y109.232
G1 F1050 X80.163 Y109.578 E69.00831
G0 F3600 X80.382 Y109.232
G1 F1050 X80.728 Y109.578 E69.03272
G0 F3600 X80.948 Y109.232
G1 F1050 X81.294 Y109.578 E69.05713
G0 F3600 X81.513 Y109.232
G1 F1050 X81.86 Y109.578 E69.08158
G0 F3600 X82.079 Y109.232
G1 F1050 X82.426 Y109.578 E69.10603
G0 F3600 X82.645 Y109.232
G1 F1050 X82.991 Y109.578 E69.13044
G0 F3600 X83.21 Y109.232
G1 F1050 X83.557 Y109.578 E69.15488
G0 F3600 X83.776 Y109.232
G1 F1050 X84.123 Y109.578 E69.17933
G0 F3600 X84.342 Y109.232
G1 F1050 X84.688 Y109.578 E69.20374
G0 F3600 X84.907 Y109.232
G1 F1050 X85.254 Y109.578 E69.22819
G0 F3600 X85.473 Y109.232
G1 F1050 X85.82 Y109.578 E69.25264
G0 F3600 X86.039 Y109.232
G1 F1050 X86.385 Y109.578 E69.27705
G0 F3600 X86.605 Y109.232
G1 F1050 X86.951 Y109.578 E69.30146
G0 F3600 X87.17 Y109.232
G1 F1050 X87.517 Y109.578 E69.32591
G0 F3600 X87.736 Y109.232
G1 F1050 X88.082 Y109.578 E69.35032
G0 F3600 X88.302 Y109.232
G1 F1050 X88.648 Y109.578 E69.37474
G0 F3600 X88.867 Y109.232
G1 F1050 X89.214 Y109.578 E69.39918
G0 F3600 X89.433 Y109.232
G1 F1050 X89.779 Y109.578 E69.4236
G0 F3600 X89.999 Y109.232
G1 F1050 X90.345 Y109.578 E69.44801
G0 F3600 X90.564 Y109.232
G1 F1050 X90.911 Y109.578 E69.47245
G0 F3600 X91.13 Y109.232
G1 F1050 X91.476 Y109.578 E69.49687
G0 F3600 X91.696 Y109.232
G1 F1050 X92.042 Y109.578 E69.52128
G0 F3600 X92.261 Y109.232
G1 F1050 X92.608 Y109.578 E69.54573
G0 F3600 X92.827 Y109.232
G1 F1050 X93.174 Y109.578 E69.57017
G0 F3600 X93.393 Y109.232
G1 F1050 X93.739 Y109.578 E69.59459
G0 F3600 X93.958 Y109.232
G1 F1050 X94.305 Y109.578 E69.61903
G0 F3600 X94.524 Y109.232
G1 F1050 X94.871 Y109.578 E69.64348
G0 F3600 X95.09 Y109.232
G1 F1050 X95.436 Y109.578 E69.66789
G0 F3600 X95.655 Y109.232
G1 F1050 X96.002 Y109.578 E69.69234
G0 F3600 X96.221 Y109.232
G1 F1050 X96.568 Y109.578 E69.71679
G0 F3600 X96.787 Y109.232
G1 F1050 X97.133 Y109.578 E69.7412
G0 F3600 X97.353 Y109.232
G1 F1050 X97.699 Y109.578 E69.76561
G0 F3600 X97.918 Y109.232
G1 F1050 X98.265 Y109.578 E69.79006
G0 F3600 X98.484 Y109.232
G1 F1050 X98.83 Y109.578 E69.81447
G0 F3600 X99.05 Y109.232
G1 F1050 X99.396 Y109.578 E69.83888
G0 F3600 X99.615 Y109.232
G1 F1050 X99.962 Y109.578 E69.86333
G0 F3600 X100.181 Y109.232
G1 F1050 X100.527 Y109.578 E69.88774
G0 F3600 X100.747 Y109.232
G1 F1050 X101.093 Y109.578 E69.91216
G0 F3600 X101.17 Y109.655
G1 F1050 X113.344 Y121.829 E70.7711
G0 F3600 X113.909 Y121.829
G1 F1050 X101.17 Y109.089 E71.66994
G0 F3600 X101.17 Y108.523
G1 F1050 X114.475 Y121.829 E72.60871
G0 F3600 X115.041 Y121.829
G1 F1050 X101.17 Y107.958 E73.58739
G0 F3600 X101.17 Y107.392
G1 F1050 X115.607 Y121.829 E74.606
G0 F3600 X116.172 Y121.829
G1 F1050 X101.17 Y106.826 E75.6645
G0 F3600 X101.17 Y106.261
G1 F1050 X116.738 Y121.829 E76.76291
G0 F3600 X117.304 Y121.829
G1 F1050 X101.17 Y105.695 E77.90125
G0 F3600 X101.17 Y105.129
G1 F1050 X117.869 Y121.829 E79.07949
G0 F3600 X118.435 Y121.829
G1 F1050 X101.17 Y104.564 E80.29763
G0 F3600 X100.81 Y104.204
G1 F1050 X100.462 Y103.857 E80.32215
G0 F3600 X100.244 Y104.204
G1 F1050 X99.897 Y103.857 E80.34663
G0 F3600 X99.678 Y104.204
G1 F1050 X99.331 Y103.857 E80.37111
G0 F3600 X99.113 Y104.204
G1 F1050 X98.765 Y103.857 E80.39563
G0 F3600 X98.547 Y104.204
G1 F1050 X98.2 Y103.857 E80.42011
G0 F3600 X97.981 Y104.204
G1 F1050 X97.634 Y103.857 E80.4446
G0 F3600 X97.415 Y104.204
G1 F1050 X97.068 Y103.857 E80.46908
G0 F3600 X96.85 Y104.204
G1 F1050 X96.503 Y103.857 E80.49356
G0 F3600 X96.284 Y104.204
G1 F1050 X95.937 Y103.857 E80.51804
G0 F3600 X95.718 Y104.204
G1 F1050 X95.371 Y103.857 E80.54253
G0 F3600 X95.153 Y104.204
G1 F1050 X94.806 Y103.857 E80.56701
G0 F3600 X94.587 Y104.204
G1 F1050 X94.24 Y103.857 E80.59149
G0 F3600 X94.021 Y104.204
G1 F1050 X93.674 Y103.857 E80.61598
G0 F3600 X93.456 Y104.204
G1 F1050 X93.108 Y103.857 E80.64049
G0 F3600 X92.89 Y104.204
G1 F1050 X92.543 Y103.857 E80.66498
G0 F3600 X92.324 Y104.204
G1 F1050 X91.977 Y103.857 E80.68946
G0 F3600 X91.759 Y104.204
G1 F1050 X91.411 Y103.857 E80.71398
G0 F3600 X91.193 Y104.204
G1 F1050 X90.846 Y103.857 E80.73846
G0 F3600 X90.627 Y104.204
G1 F1050 X90.28 Y103.857 E80.76294
G0 F3600 X90.062 Y104.204
G1 F1050 X89.714 Y103.857 E80.78746
G0 F3600 X89.496 Y104.204
G1 F1050 X89.149 Y103.857 E80.81194
G0 F3600 X88.93 Y104.204
G1 F1050 X88.583 Y103.857 E80.83643
G0 F3600 X88.365 Y104.204
G1 F1050 X88.017 Y103.857 E80.86094
G0 F3600 X87.799 Y104.204
G1 F1050 X87.452 Y103.857 E80.88543
G0 F3600 X87.233 Y104.204
G1 F1050 X86.886 Y103.857 E80.90991
G0 F3600 X86.667 Y104.204
G1 F1050 X86.32 Y103.857 E80.93439
G0 F3600 X86.102 Y104.204
G1 F1050 X85.755 Y103.857 E80.95887
G0 F3600 X85.536 Y104.204
G1 F1050 X85.189 Y103.857 E80.98336
G0 F3600 X84.97 Y104.204
G1 F1050 X84.623 Y103.857 E81.00784
G0 F3600 X84.405 Y104.204
G1 F1050 X84.058 Y103.857 E81.03232
G0 F3600 X83.839 Y104.204
G1 F1050 X83.492 Y103.857 E81.05681
G0 F3600 X83.273 Y104.204
G1 F1050 X82.926 Y103.857 E81.08129
G0 F3600 X82.708 Y104.204
G1 F1050 X82.36 Y103.857 E81.10581
G0 F3600 X82.142 Y104.204
G1 F1050 X81.795 Y103.857 E81.13029
G0 F3600 X81.576 Y104.204
G1 F1050 X81.229 Y103.857 E81.15477
G0 F3600 X81.011 Y104.204
G1 F1050 X80.663 Y103.857 E81.17929
G0 F3600 X80.445 Y104.204
G1 F1050 X80.098 Y103.857 E81.20377
G0 F3600 X79.879 Y104.204
G1 F1050 X79.532 Y103.857 E81.22826
G0 F3600 X79.314 Y104.204
G1 F1050 X78.966 Y103.857 E81.25277
G0 F3600 X78.748 Y104.204
G1 F1050 X78.401 Y103.857 E81.27726
G0 F3600 X78.182 Y104.204
G1 F1050 X77.835 Y103.857 E81.30174
G0 F3600 X77.616 Y104.204
G1 F1050 X77.269 Y103.857 E81.32622
G0 F3600 X77.051 Y104.204
G1 F1050 X76.704 Y103.857 E81.3507
G0 F3600 X76.372 Y99.372
G0 X76.767 Y98.829
G1 F1050 X76.67 Y98.731 E81.35758
G0 F3600 X76.67 Y98.166
G1 F1050 X77.333 Y98.829 E81.40436
G0 F3600 X77.899 Y98.829
G1 F1050 X76.67 Y97.6 E81.49107
G0 F3600 X76.67 Y97.034
G1 F1050 X78.464 Y98.829 E81.61769
G0 F3600 X79.03 Y98.829
G1 F1050 X76.67 Y96.469 E81.7842
G0 F3600 X76.67 Y95.903
G1 F1050 X79.596 Y98.829 E81.99064
G0 F3600 X80.161 Y98.829
G1 F1050 X76.67 Y95.337 E82.23699
G0 F3600 X76.67 Y94.772
G1 F1050 X80.727 Y98.829 E82.52323
